;Generated by Cura LulzBot Edition GCodeWriter Version: 3.6.18
;FLAVOR:Marlin
;TIME:452
;Filament used: 0.202833m
;Layer height: 0.25
;Generated with Cura_SteamEngine 3.6.18
M82 ;absolute extrusion mode
;This G-Code has been generated specifically for the LulzBot TAZ 5 with standard extruder
M75			 ; start GLCD timer
M140 S60.0    ; start bed heating up
G90                      ; absolute positioning
M107                     ; disable fans
M82                      ; set extruder to absolute mode
G28 X0 Y0                ; home X and Y
G28 Z0                   ; home Z
G1 Z15.0 F175 ; move extruder up
M117 Heating...                     ; progress indicator message on LCD
M109 R200  ; wait for extruder to reach printing temp
M190 R60.0    ; wait for bed to reach printing temp
G92 E0                   ; set extruder position to 0
G1 F200 E0               ; prime the nozzle with filament
G92 E0                   ; re-set extruder position to 0
G1 F175       ; set travel speed
M203 X192 Y208 Z3        ; set limits on travel speed
M117 TAZ 5 Printing...   ; progress indicator message on LCD

M221 S100 T0
G92 E0
G1 F600 E-1
;LAYER_COUNT:14
;LAYER:0
M107
G0 F3937.5 X140.767 Y73.536 Z0.425
;TYPE:SKIRT
G1 F600 E0
G1 F900 X141.033 Y73.101 E0.01698
G1 X141.363 Y72.714 E0.03393
G1 X141.75 Y72.382 E0.05091
G1 X142.185 Y72.116 E0.0679
G1 X142.655 Y71.92 E0.08486
G1 X143.15 Y71.801 E0.10182
G1 X143.663 Y71.76 E0.11896
G1 X146.336 Y71.76 E0.208
G1 X146.844 Y71.8 E0.22497
G1 X147.339 Y71.919 E0.24193
G1 X147.81 Y72.114 E0.25891
G1 X148.245 Y72.38 E0.27589
G1 X148.632 Y72.71 E0.29284
G1 X148.964 Y73.097 E0.30982
G1 X149.23 Y73.532 E0.32681
G1 X149.426 Y74.002 E0.34377
G1 X149.545 Y74.497 E0.36073
G1 X149.586 Y75.01 E0.37787
G1 X149.587 Y199.99 E4.541
G1 X149.547 Y200.498 E4.55797
G1 X149.428 Y200.993 E4.57493
G1 X149.233 Y201.464 E4.59191
G1 X148.967 Y201.899 E4.6089
G1 X148.637 Y202.286 E4.62584
G1 X148.25 Y202.618 E4.64282
G1 X147.815 Y202.884 E4.65981
G1 X147.345 Y203.08 E4.67677
G1 X146.85 Y203.199 E4.69373
G1 X146.338 Y203.24 E4.71084
G1 X143.665 Y203.241 E4.79988
G1 X143.157 Y203.201 E4.81685
G1 X142.662 Y203.083 E4.8338
G1 X142.191 Y202.888 E4.85078
G1 X141.756 Y202.622 E4.86777
G1 X141.368 Y202.292 E4.88473
G1 X141.037 Y201.905 E4.9017
G1 X140.77 Y201.471 E4.91867
G1 X140.575 Y201 E4.93565
G1 X140.455 Y200.505 E4.95262
G1 X140.414 Y199.991 E4.96979
G1 X140.413 Y75.01 E9.13295
G1 X140.453 Y74.502 E9.14993
G1 X140.572 Y74.007 E9.16689
G1 X140.767 Y73.536 E9.18387
G1 F600 E8.18387
;MESH:
G0 F3937.5 X142.99 Y75.765
G0 X144.418 Y75.764
G0 X145.495 Y119
G0 X145.596 Y119
;TYPE:WALL-INNER
G1 F600 E9.18387
G1 F900 X145.596 Y119.25 E9.19219
G1 X145.346 Y119.25 E9.19758
G1 X144.405 Y119.25 E9.22893
G1 X144.404 Y76 E10.6696
G1 X144.404 Y75.75 E10.67793
G1 X144.654 Y75.75 E10.68332
G1 X145.595 Y75.75 E10.71466
G1 X145.596 Y119 E12.15533
G0 F3937.5 X146.096 Y119.5
;TYPE:WALL-OUTER
G1 F900 X146.096 Y119.75 E12.16366
G1 X145.846 Y119.75 E12.16905
G1 X143.905 Y119.75 E12.23371
G1 X143.904 Y75.5 E13.70769
G1 X143.904 Y75.25 E13.71602
G1 X144.154 Y75.25 E13.7214
G1 X146.095 Y75.25 E13.78606
G1 X146.096 Y119.5 E15.26004
G0 F3937.5 X146.096 Y119.75
G0 X145.526 Y119.18
G0 X145.106 Y118.76
;TYPE:SKIN
G1 F900 X144.895 Y118.76 E15.26707
G1 X144.894 Y76.24 E16.68343
G1 X145.105 Y76.24 E16.69046
G1 X145.106 Y118.76 E18.10681
G0 F3937.5 X145.095 Y118.75
G1 F600 E17.10681
G0 F3937.5 X145.495 Y119.23
G0 X145.495 Y120.665
G0 X145.495 Y124.335
G0 X145.495 Y125.77
G0 X145.495 Y169
G0 X145.596 Y169
;TYPE:WALL-INNER
G1 F600 E18.10681
G1 F900 X145.596 Y169.25 E18.11514
G1 X145.346 Y169.25 E18.12053
G1 X144.405 Y169.25 E18.15187
G1 X144.404 Y126 E19.59255
G1 X144.404 Y125.75 E19.60087
G1 X144.654 Y125.75 E19.60626
G1 X145.595 Y125.75 E19.63761
G1 X145.596 Y169 E21.07828
G0 F3937.5 X146.096 Y169.5
;TYPE:WALL-OUTER
G1 F900 X146.096 Y169.75 E21.08661
G1 X145.846 Y169.75 E21.092
G1 X143.905 Y169.75 E21.15665
G1 X143.904 Y125.5 E22.63063
G1 X143.904 Y125.25 E22.63896
G1 X144.154 Y125.25 E22.64435
G1 X146.095 Y125.25 E22.70901
G1 X146.096 Y169.5 E24.18299
G0 F3937.5 X146.096 Y169.75
G0 X145.526 Y169.18
G0 X145.106 Y168.76
;TYPE:SKIN
G1 F900 X144.895 Y168.76 E24.19002
G1 X144.894 Y126.24 E25.60637
G1 X145.105 Y126.24 E25.6134
G1 X145.106 Y168.76 E27.02976
G0 F3937.5 X145.095 Y168.75
G1 F600 E26.02976
G0 F3937.5 X145.495 Y169.23
G0 X145.495 Y170.665
G0 X145.495 Y174.335
G0 X145.495 Y175.77
G0 X145.495 Y199
G0 X145.596 Y199
;TYPE:WALL-INNER
G1 F600 E27.02976
G1 F900 X145.596 Y199.25 E27.03809
G1 X145.346 Y199.25 E27.04347
G1 X144.405 Y199.25 E27.07482
G1 X144.404 Y176 E27.84929
G1 X144.404 Y175.75 E27.85761
G1 X144.654 Y175.75 E27.863
G1 X145.595 Y175.75 E27.89435
G1 X145.596 Y199 E28.66881
G0 F3937.5 X146.096 Y199.5
;TYPE:WALL-OUTER
G1 F900 X146.096 Y199.75 E28.67714
G1 X145.846 Y199.75 E28.68253
G1 X143.905 Y199.75 E28.74718
G1 X143.904 Y175.5 E29.55496
G1 X143.904 Y175.25 E29.56329
G1 X144.154 Y175.25 E29.56867
G1 X146.095 Y175.25 E29.63333
G1 X146.096 Y199.5 E30.44111
G0 F3937.5 X146.096 Y199.75
G0 X145.526 Y199.18
G0 X145.106 Y198.76
M104 S195
;TYPE:SKIN
G1 F900 X144.895 Y198.76 E30.44813
G1 X144.894 Y176.24 E31.19828
G1 X145.105 Y176.24 E31.20531
G1 X145.106 Y198.76 E31.95546
G0 F3937.5 X145.095 Y198.75
G1 F600 E30.95546
;MESH:NONMESH
G0 F3937.5 X145.526 Y175.77
G0 X145.526 Y174.335
G0 X147.007 Y170.128
G0 X147.006 Y124.872
G0 X145.526 Y120.665
G0 X145.526 Y119.23
G0 X145.526 Y119.18
G0 X145.857 Y119.25
;TIME_ELAPSED:82.213225
;LAYER:1
M140 S60
M221 S100 T0
M106 S68
;MESH:
G0 F7218.8 X145.857 Y119.25 Z0.675
;TYPE:WALL-INNER
G1 F600 E31.95546
G1 F1800 X144.144 Y119.25 E31.98903
G1 X144.143 Y76 E32.83648
G1 X144.143 Y75.75 E32.84138
G1 X144.393 Y75.75 E32.84455
G1 X145.857 Y75.75 E32.87324
G1 X145.857 Y119.25 E33.72559
G0 F7218.8 X146.357 Y119.75
;TYPE:WALL-OUTER
G1 F1650 X143.644 Y119.75 E33.77875
G1 X143.643 Y75.5 E34.6458
G1 X143.643 Y75.25 E34.6507
G1 X143.893 Y75.25 E34.65387
G1 X146.357 Y75.25 E34.70215
G1 X146.357 Y119.75 E35.57409
G0 F7218.8 X146.107 Y119.75
G0 X145.787 Y119.18
G0 X145.367 Y118.76
;TYPE:SKIN
G1 F1350 X144.634 Y118.76 E35.58846
G1 X144.633 Y76.24 E36.42161
G1 X145.367 Y76.24 E36.43599
G1 X145.367 Y118.76 E37.26914
G0 F7218.8 X144.998 Y118.043
G1 F1350 X144.998 Y117.336 E37.27714
G1 X144.998 Y77.031 E37.73291
G0 F7218.8 X145.14 Y76.89
G1 F600 E36.73291
G0 F7218.8 X145.787 Y119.23
G0 X145.787 Y120.665
G0 X145.787 Y124.335
G0 X145.787 Y125.77
G0 X145.787 Y169.18
G0 X145.857 Y169.25
;TYPE:WALL-INNER
G1 F600 E37.73291
G1 F1800 X144.144 Y169.25 E37.76648
G1 X144.143 Y126 E38.61393
G1 X144.143 Y125.75 E38.61883
G1 X144.393 Y125.75 E38.622
G1 X145.857 Y125.75 E38.65069
G1 X145.857 Y169.25 E39.50304
G0 F7218.8 X146.357 Y169.75
;TYPE:WALL-OUTER
G1 F1650 X143.644 Y169.75 E39.5562
G1 X143.643 Y125.5 E40.42325
G1 X143.643 Y125.25 E40.42815
G1 X143.893 Y125.25 E40.43132
G1 X146.357 Y125.25 E40.4796
G1 X146.357 Y169.75 E41.35154
G0 F7218.8 X146.107 Y169.75
G0 X145.787 Y169.18
G0 X145.367 Y168.76
;TYPE:SKIN
G1 F1350 X144.634 Y168.76 E41.36591
G1 X144.633 Y126.24 E42.19906
G1 X145.367 Y126.24 E42.21344
G1 X145.367 Y168.76 E43.04659
G0 F7218.8 X145 Y168.247
G1 F1350 X145 Y167.54 E43.05455
G1 X144.999 Y138.549 E43.38084
G1 X144.96 Y126.568 E43.51568
G0 F7218.8 X145.063 Y126.465
G1 F600 E42.51568
G0 F7218.8 X145.787 Y169.23
G0 X145.787 Y170.665
G0 X145.787 Y174.335
G0 X145.787 Y175.77
G0 X145.787 Y199.18
G0 X145.857 Y199.25
;TYPE:WALL-INNER
G1 F600 E43.51568
G1 F1800 X144.144 Y199.25 E43.54925
G1 X144.143 Y176 E44.00482
G1 X144.143 Y175.75 E44.00971
G1 X144.393 Y175.75 E44.01288
G1 X145.857 Y175.75 E44.04157
G1 X145.857 Y199.25 E44.50204
G0 F7218.8 X146.357 Y199.75
;TYPE:WALL-OUTER
G1 F1650 X143.644 Y199.75 E44.5552
G1 X143.643 Y175.5 E45.03036
G1 X143.643 Y175.25 E45.03526
G1 X143.893 Y175.25 E45.03843
G1 X146.357 Y175.25 E45.08671
G1 X146.357 Y199.75 E45.56677
G0 F7218.8 X146.107 Y199.75
G0 X145.787 Y199.18
G0 X145.367 Y198.76
;TYPE:SKIN
G1 F1350 X144.634 Y198.76 E45.58113
G1 X144.633 Y176.24 E46.0224
G1 X145.367 Y176.24 E46.03678
G1 X145.367 Y198.76 E46.47804
G0 F7218.8 X145 Y197.945
G1 F1350 X145 Y197.238 E46.4862
G1 X145 Y176.732 E46.72271
G0 F7218.8 X145.142 Y176.591
G1 F600 E45.72271
;MESH:NONMESH
G0 F7218.8 X145.787 Y175.77
G0 X145.787 Y174.335
G0 X147.268 Y170.128
G0 X147.268 Y124.872
G0 X145.787 Y120.665
G0 X145.787 Y119.23
G0 X145.787 Y119.18
G0 X145.991 Y119.25
;TIME_ELAPSED:117.405716
;LAYER:2
M106 S136
;MESH:
G0 F10500 X145.991 Y119.25 Z0.925
;TYPE:WALL-INNER
G1 F600 E46.72271
G1 F2700 X144.01 Y119.25 E46.76153
G1 X144.009 Y76 E47.60899
G1 X144.009 Y75.75 E47.61388
G1 X144.259 Y75.75 E47.61705
G1 X145.991 Y75.75 E47.65099
G1 X145.991 Y119.25 E48.50334
G0 F10500 X146.491 Y119.75
;TYPE:WALL-OUTER
G1 F2400 X143.51 Y119.75 E48.56176
G1 X143.509 Y75.5 E49.4288
G1 X143.509 Y75.25 E49.4337
G1 X143.759 Y75.25 E49.43687
G1 X146.491 Y75.25 E49.4904
G1 X146.491 Y119.75 E50.36235
G0 F10500 X146.241 Y119.75
G0 X145.921 Y119.18
G0 X145.501 Y118.76
;TYPE:SKIN
G1 F1800 X144.5 Y118.76 E50.38197
G1 X144.499 Y76.24 E51.21512
G1 X145.501 Y76.24 E51.23475
G1 X145.501 Y118.76 E52.0679
G0 F10500 X145.275 Y118.405
G1 F1800 X144.723 Y117.853 E52.0832
G0 F10500 X145.275 Y117.697
G1 F1800 X144.723 Y117.146 E52.09848
G0 F10500 X145.275 Y116.99
G1 F1800 X144.723 Y116.439 E52.11376
G0 F10500 X145.275 Y116.283
G1 F1800 X144.723 Y115.732 E52.12904
G0 F10500 X145.275 Y115.576
G1 F1800 X144.723 Y115.025 E52.14433
G0 F10500 X145.275 Y114.869
G1 F1800 X144.723 Y114.317 E52.15962
G0 F10500 X145.275 Y114.162
G1 F1800 X144.723 Y113.61 E52.17492
G0 F10500 X145.275 Y113.455
G1 F1800 X144.723 Y112.903 E52.19022
G0 F10500 X145.275 Y112.748
G1 F1800 X144.723 Y112.196 E52.20551
G0 F10500 X145.275 Y112.041
G1 F1800 X144.723 Y111.489 E52.22081
G0 F10500 X145.275 Y111.333
G1 F1800 X144.723 Y110.782 E52.23609
G0 F10500 X145.275 Y110.626
G1 F1800 X144.723 Y110.075 E52.25137
G0 F10500 X145.275 Y109.919
G1 F1800 X144.723 Y109.368 E52.26666
G0 F10500 X145.275 Y109.212
G1 F1800 X144.723 Y108.661 E52.28194
G0 F10500 X145.275 Y108.505
G1 F1800 X144.723 Y107.953 E52.29723
G0 F10500 X145.275 Y107.798
G1 F1800 X144.723 Y107.246 E52.31253
G0 F10500 X145.275 Y107.091
G1 F1800 X144.723 Y106.539 E52.32783
G0 F10500 X145.275 Y106.384
G1 F1800 X144.723 Y105.832 E52.34312
G0 F10500 X145.275 Y105.677
G1 F1800 X144.723 Y105.125 E52.35842
G0 F10500 X145.275 Y104.97
G1 F1800 X144.723 Y104.418 E52.37371
G0 F10500 X145.275 Y104.262
G1 F1800 X144.723 Y103.711 E52.389
G0 F10500 X145.275 Y103.555
G1 F1800 X144.723 Y103.004 E52.40428
G0 F10500 X145.275 Y102.848
G1 F1800 X144.723 Y102.297 E52.41956
G0 F10500 X145.275 Y102.141
G1 F1800 X144.723 Y101.59 E52.43484
G0 F10500 X145.275 Y101.434
G1 F1800 X144.723 Y100.882 E52.45014
G0 F10500 X145.275 Y100.727
G1 F1800 X144.723 Y100.175 E52.46544
G0 F10500 X145.275 Y100.02
G1 F1800 X144.723 Y99.468 E52.48073
G0 F10500 X145.275 Y99.313
G1 F1800 X144.723 Y98.761 E52.49603
G0 F10500 X145.275 Y98.606
G1 F1800 X144.723 Y98.054 E52.51133
G0 F10500 X145.275 Y97.898
G1 F1800 X144.723 Y97.347 E52.52661
G0 F10500 X145.275 Y97.191
G1 F1800 X144.723 Y96.64 E52.54189
G0 F10500 X145.275 Y96.484
G1 F1800 X144.723 Y95.933 E52.55717
G0 F10500 X145.275 Y95.777
G1 F1800 X144.723 Y95.226 E52.57246
G0 F10500 X145.275 Y95.07
G1 F1800 X144.723 Y94.518 E52.58775
G0 F10500 X145.275 Y94.363
G1 F1800 X144.723 Y93.811 E52.60305
G0 F10500 X145.275 Y93.656
G1 F1800 X144.723 Y93.104 E52.61834
G0 F10500 X145.275 Y92.949
G1 F1800 X144.723 Y92.397 E52.63364
G0 F10500 X145.275 Y92.242
G1 F1800 X144.723 Y91.69 E52.64894
G0 F10500 X145.275 Y91.534
G1 F1800 X144.723 Y90.983 E52.66422
G0 F10500 X145.275 Y90.827
G1 F1800 X144.723 Y90.276 E52.6795
G0 F10500 X145.275 Y90.12
G1 F1800 X144.723 Y89.569 E52.69478
G0 F10500 X145.275 Y89.413
G1 F1800 X144.723 Y88.862 E52.71007
G0 F10500 X145.275 Y88.706
G1 F1800 X144.723 Y88.155 E52.72535
G0 F10500 X145.275 Y87.999
G1 F1800 X144.723 Y87.447 E52.74064
G0 F10500 X145.275 Y87.292
G1 F1800 X144.723 Y86.74 E52.75594
G0 F10500 X145.275 Y86.585
G1 F1800 X144.723 Y86.033 E52.77124
G0 F10500 X145.275 Y85.878
G1 F1800 X144.723 Y85.326 E52.78653
G0 F10500 X145.275 Y85.171
G1 F1800 X144.723 Y84.619 E52.80183
G0 F10500 X145.275 Y84.463
G1 F1800 X144.723 Y83.912 E52.81711
G0 F10500 X145.275 Y83.756
G1 F1800 X144.723 Y83.205 E52.83239
G0 F10500 X145.275 Y83.049
G1 F1800 X144.723 Y82.498 E52.84768
G0 F10500 X145.275 Y82.342
G1 F1800 X144.723 Y81.791 E52.86296
G0 F10500 X145.275 Y81.635
G1 F1800 X144.723 Y81.083 E52.87826
G0 F10500 X145.275 Y80.928
G1 F1800 X144.723 Y80.376 E52.89355
G0 F10500 X145.275 Y80.221
G1 F1800 X144.723 Y79.669 E52.90885
G0 F10500 X145.275 Y79.514
G1 F1800 X144.723 Y78.962 E52.92414
G0 F10500 X145.275 Y78.807
G1 F1800 X144.723 Y78.255 E52.93944
G0 F10500 X145.275 Y78.099
G1 F1800 X144.723 Y77.548 E52.95472
G0 F10500 X144.999 Y77.116
G1 F1800 X145.164 Y76.575 E52.9761
G0 F10500 X145.275 Y76.685
G1 F600 E51.9761
G0 F10500 X145.921 Y119.23
G0 X145.921 Y120.665
G0 X145.921 Y124.335
G0 X145.921 Y125.77
G0 X145.921 Y169.18
G0 X145.991 Y169.25
;TYPE:WALL-INNER
G1 F600 E52.9761
G1 F2700 X144.01 Y169.25 E53.01492
G1 X144.009 Y126 E53.86237
G1 X144.009 Y125.75 E53.86727
G1 X144.259 Y125.75 E53.87044
G1 X145.991 Y125.75 E53.90438
G1 X145.991 Y169.25 E54.75673
G0 F10500 X146.491 Y169.75
;TYPE:WALL-OUTER
G1 F2400 X143.51 Y169.75 E54.81514
G1 X143.509 Y125.5 E55.68219
G1 X143.509 Y125.25 E55.68709
G1 X143.759 Y125.25 E55.69026
G1 X146.491 Y125.25 E55.74379
G1 X146.491 Y169.75 E56.61574
G0 F10500 X146.241 Y169.75
G0 X145.921 Y169.18
G0 X145.501 Y168.76
;TYPE:SKIN
G1 F1800 X144.5 Y168.76 E56.63535
G1 X144.499 Y126.24 E57.4685
G1 X145.501 Y126.24 E57.48814
G1 X145.501 Y168.76 E58.32129
G0 F10500 X145.199 Y168.533
G1 F1800 X144.724 Y168.058 E58.33445
G0 F10500 X145.275 Y167.903
G1 F1800 X144.724 Y167.351 E58.34973
G0 F10500 X145.275 Y167.196
G1 F1800 X144.724 Y166.644 E58.36502
G0 F10500 X145.275 Y166.488
G1 F1800 X144.724 Y165.937 E58.38028
G0 F10500 X145.275 Y165.781
G1 F1800 X144.724 Y165.23 E58.39555
G0 F10500 X145.275 Y165.074
G1 F1800 X144.724 Y164.523 E58.41082
G0 F10500 X145.275 Y164.367
G1 F1800 X144.724 Y163.816 E58.42609
G0 F10500 X145.275 Y163.66
G1 F1800 X144.724 Y163.109 E58.44136
G0 F10500 X145.275 Y162.953
G1 F1800 X144.724 Y162.401 E58.45664
G0 F10500 X145.275 Y162.246
G1 F1800 X144.724 Y161.694 E58.47192
G0 F10500 X145.275 Y161.539
G1 F1800 X144.724 Y160.987 E58.48721
G0 F10500 X145.275 Y160.832
G1 F1800 X144.724 Y160.28 E58.50249
G0 F10500 X145.275 Y160.125
G1 F1800 X144.724 Y159.573 E58.51777
G0 F10500 X145.275 Y159.417
G1 F1800 X144.724 Y158.866 E58.53304
G0 F10500 X145.275 Y158.71
G1 F1800 X144.724 Y158.159 E58.54831
G0 F10500 X145.275 Y158.003
G1 F1800 X144.724 Y157.452 E58.56358
G0 F10500 X145.275 Y157.296
G1 F1800 X144.724 Y156.745 E58.57885
G0 F10500 X145.275 Y156.589
G1 F1800 X144.724 Y156.037 E58.59413
G0 F10500 X145.275 Y155.882
G1 F1800 X144.724 Y155.33 E58.60941
G0 F10500 X145.275 Y155.175
G1 F1800 X144.724 Y154.623 E58.62469
G0 F10500 X145.275 Y154.468
G1 F1800 X144.724 Y153.916 E58.63997
G0 F10500 X145.275 Y153.761
G1 F1800 X144.724 Y153.209 E58.65526
G0 F10500 X145.275 Y153.053
G1 F1800 X144.724 Y152.502 E58.67053
G0 F10500 X145.275 Y152.346
G1 F1800 X144.724 Y151.795 E58.68579
G0 F10500 X145.275 Y151.639
G1 F1800 X144.724 Y151.088 E58.70106
G0 F10500 X145.275 Y150.932
G1 F1800 X144.724 Y150.381 E58.71633
G0 F10500 X145.275 Y150.225
G1 F1800 X144.724 Y149.673 E58.73161
G0 F10500 X145.275 Y149.518
G1 F1800 X144.724 Y148.966 E58.7469
G0 F10500 X145.275 Y148.811
G1 F1800 X144.724 Y148.259 E58.76218
G0 F10500 X145.275 Y148.104
G1 F1800 X144.724 Y147.552 E58.77746
G0 F10500 X145.275 Y147.397
G1 F1800 X144.723 Y146.844 E58.79277
G0 F10500 X145.275 Y146.69
G1 F1800 X144.723 Y146.137 E58.80808
G0 F10500 X145.275 Y145.982
G1 F1800 X144.723 Y145.43 E58.82338
G0 F10500 X145.275 Y145.275
G1 F1800 X144.723 Y144.723 E58.83867
G0 F10500 X145.275 Y144.568
G1 F1800 X144.723 Y144.016 E58.85397
G0 F10500 X145.275 Y143.861
