;Generated by Cura LulzBot Edition GCodeWriter Version: 3.6.18
;FLAVOR:Marlin
;TIME:978
;Filament used: 0.519652m
;Layer height: 0.25
;Generated with Cura_SteamEngine 3.6.18
M82 ;absolute extrusion mode
;This G-Code has been generated specifically for the LulzBot TAZ 5 with standard extruder
M75			 ; start GLCD timer
M140 S60.0    ; start bed heating up
G90                      ; absolute positioning
M107                     ; disable fans
M82                      ; set extruder to absolute mode
G28 X0 Y0                ; home X and Y
G28 Z0                   ; home Z
G1 Z15.0 F175 ; move extruder up
M117 Heating...                     ; progress indicator message on LCD
M109 R200  ; wait for extruder to reach printing temp
M190 R60.0    ; wait for bed to reach printing temp
G92 E0                   ; set extruder position to 0
G1 F200 E0               ; prime the nozzle with filament
G92 E0                   ; re-set extruder position to 0
G1 F175       ; set travel speed
M203 X192 Y208 Z3        ; set limits on travel speed
M117 TAZ 5 Printing...   ; progress indicator message on LCD

M221 S100 T0
G92 E0
G1 F600 E-1
;LAYER_COUNT:40
;LAYER:0
M107
G0 F2625 X121.312 Y123.383 Z0.425
;TYPE:SKIRT
G1 F600 E0
G1 F900 X122.345 Y122.467 E0.04599
G1 X122.885 Y122.069 E0.06833
G1 X124.678 Y120.979 E0.13823
G1 X125.135 Y120.742 E0.15538
G1 X125.906 Y120.408 E0.18337
G1 X126.423 Y120.228 E0.2016
G1 X127.159 Y120.107 E0.22645
G1 X127.505 Y120.085 E0.238
G1 X128.125 Y120.097 E0.25865
G1 X137.993 Y121.108 E0.58908
G1 X143.477 Y121.54 E0.77232
G1 X148.92 Y121.66 E0.95367
G1 X154.38 Y121.47 E1.13566
G1 X159.771 Y120.977 E1.31598
G1 X165.382 Y120.146 E1.50493
G1 X165.928 Y120.106 E1.52316
G1 X166.474 Y120.145 E1.5414
G1 X167.009 Y120.264 E1.55965
G1 X167.52 Y120.459 E1.57787
G1 X167.998 Y120.726 E1.59611
G1 X168.431 Y121.06 E1.61433
G1 X168.812 Y121.454 E1.63258
G1 X169.131 Y121.899 E1.65082
G1 X169.382 Y122.385 E1.66904
G1 X169.606 Y123.103 E1.69409
G1 X171.609 Y132.88 E2.02653
G1 X171.679 Y133.423 E2.04477
G1 X171.67 Y133.97 E2.06299
G1 X171.581 Y134.511 E2.08126
G1 X171.414 Y135.032 E2.09948
G1 X171.174 Y135.524 E2.11772
G1 X170.864 Y135.975 E2.13595
G1 X170.492 Y136.376 E2.15417
G1 X170.065 Y136.719 E2.17241
G1 X169.593 Y136.996 E2.19064
G1 X169.086 Y137.202 E2.20887
G1 X168.69 Y137.306 E2.22251
G1 X154.3 Y140.262 E2.71185
G1 X148.943 Y141.518 E2.89514
G1 X143.71 Y143.061 E3.07687
G1 X138.575 Y144.897 E3.25852
G1 X135.365 Y146.179 E3.37366
G1 X134.868 Y146.338 E3.39104
G1 X133.519 Y146.669 E3.43731
G1 X132.982 Y146.76 E3.45545
G1 X131.529 Y146.899 E3.50407
G1 X131.001 Y146.912 E3.52167
G1 X129.617 Y146.849 E3.56782
G1 X129.103 Y146.79 E3.58505
G1 X127.753 Y146.539 E3.63079
G1 X127.257 Y146.411 E3.64785
G1 X125.952 Y145.978 E3.69365
G1 X125.449 Y145.77 E3.71178
G1 X124.142 Y145.113 E3.76051
G1 X123.7 Y144.851 E3.77763
G1 X122.596 Y144.091 E3.82227
G1 X122.191 Y143.769 E3.83951
G1 X121.169 Y142.834 E3.88565
G1 X120.81 Y142.457 E3.90299
G1 X119.916 Y141.376 E3.94972
G1 X119.611 Y140.949 E3.9672
G1 X118.888 Y139.772 E4.01321
G1 X118.647 Y139.311 E4.03054
G1 X118.1 Y138.06 E4.07602
G1 X117.925 Y137.569 E4.09338
G1 X117.536 Y136.18 E4.14143
G1 X117.429 Y135.657 E4.15921
G1 X117.248 Y134.277 E4.20557
G1 X117.221 Y133.603 E4.22804
G1 X117.324 Y131.532 E4.29711
G1 X117.404 Y130.922 E4.31761
G1 X117.686 Y129.624 E4.36185
G1 X117.831 Y129.126 E4.37913
G1 X118.326 Y127.78 E4.4269
G1 X118.543 Y127.298 E4.44451
G1 X119.203 Y126.071 E4.49092
G1 X119.55 Y125.54 E4.51205
G1 X120.844 Y123.882 E4.58211
G1 X121.312 Y123.383 E4.60489
G0 F2625 X121.644 Y123.757
G1 F900 X122.677 Y122.841 E4.65088
G1 X123.145 Y122.496 E4.67025
G1 X124.938 Y121.406 E4.74015
G1 X125.334 Y121.201 E4.755
G1 X126.105 Y120.867 E4.78299
G1 X126.587 Y120.702 E4.79996
G1 X127.191 Y120.606 E4.82033
G1 X127.537 Y120.584 E4.83188
G1 X128.074 Y120.594 E4.84977
G1 X137.944 Y121.606 E5.18027
G1 X143.463 Y122.04 E5.36468
G1 X148.926 Y122.16 E5.54669
G1 X154.407 Y121.97 E5.72938
G1 X159.839 Y121.473 E5.91108
G1 X165.456 Y120.641 E6.10022
G1 X165.964 Y120.606 E6.11718
G1 X166.472 Y120.651 E6.13417
G1 X166.966 Y120.775 E6.15114
G1 X167.435 Y120.974 E6.16811
G1 X167.867 Y121.245 E6.18509
G1 X168.251 Y121.579 E6.20205
G1 X168.578 Y121.969 E6.219
G1 X168.841 Y122.406 E6.23599
G1 X169.032 Y122.879 E6.25298
G1 X169.116 Y123.204 E6.26416
G1 X171.119 Y132.981 E6.5966
G1 X171.182 Y133.486 E6.61356
G1 X171.165 Y133.996 E6.63055
G1 X171.068 Y134.496 E6.64752
G1 X170.895 Y134.975 E6.66448
G1 X170.649 Y135.421 E6.68145
G1 X170.336 Y135.823 E6.69842
G1 X169.964 Y136.172 E6.71541
G1 X169.543 Y136.458 E6.73237
G1 X169.081 Y136.674 E6.74935
G1 X168.589 Y136.817 E6.76642
G1 X154.163 Y139.781 E7.25699
G1 X148.808 Y141.036 E7.4402
G1 X143.563 Y142.583 E7.62236
G1 X138.379 Y144.436 E7.80574
G1 X135.179 Y145.714 E7.92052
G1 X134.748 Y145.852 E7.93559
G1 X133.399 Y146.183 E7.98186
G1 X132.934 Y146.262 E7.99757
G1 X131.481 Y146.401 E8.04619
G1 X131.024 Y146.413 E8.06142
G1 X129.64 Y146.35 E8.10757
G1 X129.194 Y146.298 E8.12253
G1 X127.844 Y146.047 E8.16827
G1 X127.415 Y145.937 E8.18302
G1 X126.11 Y145.504 E8.22882
G1 X125.673 Y145.323 E8.24458
G1 X124.366 Y144.666 E8.2933
G1 X123.983 Y144.439 E8.30813
G1 X122.879 Y143.679 E8.35278
G1 X122.528 Y143.4 E8.36772
G1 X121.506 Y142.465 E8.41386
G1 X121.196 Y142.138 E8.42887
G1 X120.302 Y141.057 E8.47559
G1 X120.037 Y140.687 E8.49075
G1 X119.314 Y139.51 E8.53677
G1 X119.105 Y139.111 E8.55177
G1 X118.558 Y137.86 E8.59725
G1 X118.406 Y137.434 E8.61232
G1 X118.017 Y136.045 E8.66036
G1 X117.925 Y135.592 E8.67576
G1 X117.744 Y134.212 E8.72212
G1 X117.72 Y133.628 E8.74159
G1 X117.823 Y131.557 E8.81066
G1 X117.893 Y131.028 E8.82844
G1 X118.175 Y129.73 E8.87269
G1 X118.301 Y129.298 E8.88767
G1 X118.796 Y127.952 E8.93545
G1 X118.984 Y127.534 E8.95071
G1 X119.644 Y126.307 E8.99712
G1 X119.944 Y125.847 E9.01542
G1 X121.238 Y124.189 E9.08547
G1 X121.644 Y123.757 E9.10522
G1 F600 E8.10522
;MESH:
G0 F2625 X123.399 Y125.644
G0 X124.349 Y126.716
G0 X125.166 Y133.662
G0 X125.337 Y134.654
G0 X125.676 Y135.601
G0 X126.176 Y136.476
G0 X126.818 Y137.251
G0 X127.586 Y137.902
G0 X128.453 Y138.411
G0 X129.396 Y138.762
G0 X130.286 Y138.926
G0 X138.133 Y138.882
G0 X138.18 Y138.969
;TYPE:WALL-INNER
G1 F600 E9.10522
G1 F900 X137.079 Y140.094 E9.15766
G1 X136.058 Y140.88 E9.20058
G1 X134.931 Y141.52 E9.24375
G1 X133.738 Y141.993 E9.2865
G1 X132.484 Y142.298 E9.32949
G1 X131.198 Y142.424 E9.37253
G1 X129.904 Y142.37 E9.41567
G1 X128.631 Y142.137 E9.45878
G1 X127.416 Y141.733 E9.50143
G1 X126.254 Y141.156 E9.54464
G1 X125.194 Y140.431 E9.58742
G1 X124.238 Y139.555 E9.63061
G1 X123.416 Y138.563 E9.67353
G1 X122.738 Y137.46 E9.71666
G1 X122.225 Y136.285 E9.75936
G1 X121.877 Y135.038 E9.80249
G1 X121.706 Y133.752 E9.8457
G1 X121.716 Y132.468 E9.88847
G1 X121.905 Y131.193 E9.93141
G1 X122.272 Y129.948 E9.97465
G1 X122.804 Y128.776 E10.01752
G1 X123.497 Y127.687 E10.06052
G1 X124.335 Y126.702 E10.10359
G1 X125.299 Y125.849 E10.14647
G1 X126.368 Y125.139 E10.18922
G1 X127.17 Y124.755 E10.21884
G1 X127.44 Y124.626 E10.22881
G1 X127.518 Y124.915 E10.23495
G1 X128.364 Y128.039 E10.34276
G1 X127.638 Y128.47 E10.37088
G1 X126.876 Y129.108 E10.40399
G1 X126.232 Y129.872 E10.43727
G1 X125.731 Y130.737 E10.47057
G1 X125.387 Y131.675 E10.50385
G1 X125.209 Y132.658 E10.53713
G1 X125.205 Y133.659 E10.57047
G1 X125.375 Y134.644 E10.60377
G1 X125.712 Y135.585 E10.63706
G1 X126.208 Y136.454 E10.67039
G1 X126.846 Y137.223 E10.70367
G1 X127.609 Y137.87 E10.737
G1 X128.47 Y138.375 E10.77025
G1 X129.406 Y138.724 E10.80352
G1 X130.389 Y138.906 E10.83682
G1 X131.389 Y138.913 E10.87013
G1 X132.376 Y138.749 E10.90346
G1 X133.319 Y138.415 E10.93679
G1 X134.189 Y137.923 E10.97008
G1 X134.961 Y137.288 E11.00338
G1 X135.611 Y136.529 E11.03666
G1 X136.121 Y135.671 E11.06991
G1 X136.474 Y134.735 E11.10323
G1 X136.659 Y133.752 E11.13655
G1 X136.671 Y132.751 E11.1699
G1 X136.51 Y131.766 E11.20314
G1 X136.182 Y130.821 E11.23647
G1 X135.694 Y129.949 E11.26975
G1 X135.071 Y129.181 E11.30269
G1 X134.468 Y128.643 E11.32961
G1 X135.913 Y125.746 E11.43745
G1 X136.045 Y125.48 E11.44734
G1 X136.283 Y125.656 E11.45342
G1 X136.284 Y125.657 E11.45347
G1 X136.904 Y126.117 E11.47918
G1 X137.762 Y126.942 E11.51883
G1 X138.928 Y128.386 E11.58066
G1 X139.407 Y128.797 E11.60168
G1 X139.936 Y129.12 E11.62233
G1 X140.526 Y129.353 E11.64346
G1 X141.126 Y129.483 E11.66391
G1 X141.766 Y129.51 E11.68524
G1 X142.404 Y129.427 E11.70667
G1 X165.355 Y124.729 E12.48703
G1 X167.011 Y132.812 E12.76187
G1 X167.061 Y133.056 E12.77017
G1 X166.817 Y133.106 E12.77553
G1 X138.18 Y138.969 E13.74923
G0 F2625 X138.43 Y139.428
;TYPE:WALL-OUTER
G1 F900 X137.412 Y140.468 E13.79771
G1 X136.333 Y141.299 E13.84307
G1 X135.149 Y141.972 E13.88844
G1 X133.89 Y142.471 E13.93355
G1 X132.566 Y142.793 E13.97894
G1 X131.211 Y142.925 E14.02429
G1 X129.85 Y142.869 E14.06966
G1 X128.51 Y142.623 E14.11504
G1 X127.223 Y142.195 E14.16022
G1 X126 Y141.588 E14.2057
G1 X124.881 Y140.822 E14.25087
G1 X123.877 Y139.903 E14.29621
G1 X123.008 Y138.854 E14.34159
G1 X122.295 Y137.694 E14.38694
G1 X121.752 Y136.45 E14.43216
G1 X121.386 Y135.138 E14.47753
G1 X121.206 Y133.787 E14.52293
G1 X121.216 Y132.427 E14.56823
G1 X121.415 Y131.086 E14.61339
G1 X121.801 Y129.776 E14.65888
G1 X122.364 Y128.537 E14.70421
G1 X123.095 Y127.388 E14.74958
G1 X123.974 Y126.355 E14.79476
G1 X124.996 Y125.45 E14.84023
G1 X126.122 Y124.702 E14.88526
G1 X127.333 Y124.123 E14.92997
G1 X127.355 Y124.113 E14.93078
G1 X127.478 Y124.076 E14.93506
G1 X127.599 Y124.061 E14.93912
G1 X127.732 Y124.067 E14.94355
G1 X127.812 Y124.084 E14.94628
G1 X127.818 Y124.108 E14.9471
G1 X128.944 Y128.266 E15.09059
G1 X128.835 Y128.357 E15.09532
G1 X128.553 Y128.505 E15.10593
G1 X127.929 Y128.879 E15.13016
G1 X127.23 Y129.463 E15.16051
G1 X126.643 Y130.161 E15.19088
G1 X126.185 Y130.95 E15.22127
G1 X125.871 Y131.806 E15.25165
G1 X125.709 Y132.704 E15.28204
G1 X125.705 Y133.617 E15.31245
G1 X125.86 Y134.516 E15.34284
G1 X126.168 Y135.375 E15.37324
G1 X126.621 Y136.168 E15.40366
G1 X127.203 Y136.87 E15.43404
G1 X127.899 Y137.461 E15.46445
G1 X128.685 Y137.922 E15.4948
G1 X129.54 Y138.24 E15.52519
G1 X130.437 Y138.406 E15.55558
G1 X131.35 Y138.413 E15.58599
G1 X132.25 Y138.263 E15.61638
G1 X133.111 Y137.958 E15.64681
G1 X133.905 Y137.509 E15.67719
G1 X134.61 Y136.93 E15.70758
G1 X135.203 Y136.237 E15.73796
G1 X135.669 Y135.453 E15.76834
G1 X135.991 Y134.599 E15.79875
G1 X136.16 Y133.702 E15.82915
G1 X136.171 Y132.789 E15.85957
G1 X136.024 Y131.889 E15.88994
G1 X135.724 Y131.027 E15.92034
G1 X135.279 Y130.231 E15.95072
G1 X134.708 Y129.527 E15.98092
G1 X134.173 Y129.047 E16.00486
G1 X133.946 Y128.867 E16.01451
G1 X133.855 Y128.754 E16.01934
G1 X135.777 Y124.9 E16.1628
G1 X135.789 Y124.875 E16.16372
G1 X135.872 Y124.873 E16.16649
G1 X135.992 Y124.892 E16.17053
G1 X136.116 Y124.932 E16.17487
G1 X136.226 Y124.991 E16.17903
G1 X136.248 Y125.007 E16.17994
G1 X137.225 Y125.732 E16.22046
G1 X138.131 Y126.603 E16.26233
G1 X139.288 Y128.036 E16.32368
G1 X139.702 Y128.391 E16.34184
G1 X140.16 Y128.671 E16.35973
G1 X140.672 Y128.873 E16.37806
G1 X141.19 Y128.985 E16.39571
G1 X141.744 Y129.009 E16.41419
G1 X142.322 Y128.934 E16.4336
G1 X165.745 Y124.139 E17.23001
G1 X167.601 Y133.202 E17.53817
G1 X167.651 Y133.446 E17.54646
G1 X167.407 Y133.496 E17.55183
G1 X138.43 Y139.428 E18.53708
G0 F2625 X138.256 Y139.606
G0 X137.828 Y139.187
G0 X137.935 Y138.519
;TYPE:SKIN
G1 F900 X136.748 Y139.731 E18.59359
G1 X135.784 Y140.473 E18.63411
G1 X134.718 Y141.078 E18.67494
G1 X133.593 Y141.524 E18.71525
G1 X132.404 Y141.814 E18.75602
G1 X131.185 Y141.932 E18.79681
G1 X129.955 Y141.882 E18.83782
G1 X128.754 Y141.662 E18.87849
G1 X127.604 Y141.279 E18.91887
G1 X126.5 Y140.732 E18.95991
G1 X125.499 Y140.046 E19.00033
G1 X124.595 Y139.218 E19.04116
G1 X123.818 Y138.281 E19.08171
G1 X123.172 Y137.228 E19.12286
G1 X122.688 Y136.12 E19.16314
G1 X122.359 Y134.943 E19.20385
G1 X122.196 Y133.719 E19.24498
G1 X122.206 Y132.501 E19.28555
G1 X122.383 Y131.305 E19.32582
G1 X122.731 Y130.122 E19.3669
G1 X123.239 Y129.005 E19.40778
G1 X123.893 Y127.978 E19.44833
G1 X124.682 Y127.049 E19.48893
G1 X125.601 Y126.237 E19.52978
G1 X126.608 Y125.568 E19.57005
G1 X127.121 Y125.322 E19.589
G1 X127.794 Y127.808 E19.6748
G1 X127.354 Y128.069 E19.69184
G1 X126.529 Y128.759 E19.72766
G1 X125.83 Y129.59 E19.76383
G1 X125.286 Y130.529 E19.79998
G1 X124.913 Y131.546 E19.83607
G1 X124.719 Y132.613 E19.87219
G1 X124.715 Y133.7 E19.9084
G1 X124.899 Y134.769 E19.94453
G1 X125.265 Y135.791 E19.98069
G1 X125.804 Y136.734 E20.01687
G1 X126.497 Y137.568 E20.05299
G1 X127.325 Y138.271 E20.08917
G1 X128.259 Y138.82 E20.12526
G1 X129.275 Y139.198 E20.16137
G1 X130.342 Y139.396 E20.19752
G1 X131.428 Y139.403 E20.2337
G1 X132.499 Y139.225 E20.26986
G1 X133.523 Y138.862 E20.30605
G1 X134.467 Y138.329 E20.34216
G1 X135.306 Y137.639 E20.37835
G1 X136.011 Y136.815 E20.41447
G1 X136.564 Y135.885 E20.45051
G1 X136.948 Y134.868 E20.48672
G1 X137.149 Y133.801 E20.52289
G1 X137.161 Y132.714 E20.5591
G1 X136.987 Y131.645 E20.59518
G1 X136.631 Y130.619 E20.63135
G1 X136.101 Y129.673 E20.66747
G1 X135.426 Y128.842 E20.70313
G1 X135.074 Y128.527 E20.71887
G1 X136.223 Y126.222 E20.80466
G1 X136.593 Y126.497 E20.82002
G1 X137.394 Y127.266 E20.857
G1 X138.575 Y128.729 E20.91963
G1 X139.118 Y129.195 E20.94347
G1 X139.717 Y129.561 E20.96685
G1 X140.383 Y129.823 E20.99069
G1 X141.063 Y129.971 E21.01387
G1 X141.787 Y130.002 E21.03801
G1 X142.485 Y129.911 E21.06146
G1 X164.973 Y125.307 E21.82608
G1 X166.483 Y132.674 E22.07658
G1 X137.935 Y138.519 E23.04725
G0 F2625 X131.392 Y138.952
G0 X130.578 Y138.947
G0 X123.993 Y138.135
G1 F900 X125.919 Y140.061 E23.13798
G1 X126.007 Y140.149
G0 F2625 X127.581 Y141.016
G1 F900 X123.127 Y136.562 E23.3478
G1 X123.039 Y136.474
G0 F2625 X122.738 Y135.466
G1 F900 X128.667 Y141.395 E23.6271
G0 F2625 X129.559 Y141.58
G1 F900 X122.533 Y134.554 E23.95808
G0 F2625 X122.424 Y133.738
G1 F900 X125.964 Y137.278 E24.12484
G1 X126.052 Y137.366
G0 F2625 X126.835 Y138.149
G1 F900 X130.358 Y141.672 E24.29081
G0 F2625 X131.094 Y141.701
G1 F900 X128.567 Y139.174 E24.40985
G1 X128.479 Y139.086
G0 F2625 X129.583 Y139.483
G1 F900 X131.75 Y141.649 E24.51191
G0 F2625 X132.392 Y141.584
G1 F900 X130.428 Y139.621 E24.6044
G0 F2625 X131.14 Y139.625
G1 F900 X132.96 Y141.446 E24.69016
G0 F2625 X133.528 Y141.306
G1 F900 X131.791 Y139.569 E24.77199
G0 F2625 X132.397 Y139.469
G1 F900 X134.034 Y141.105 E24.84908
G0 F2625 X134.541 Y140.905
G1 F900 X132.941 Y139.305 E24.92446
G0 F2625 X133.464 Y139.121
G1 F900 X135.001 Y140.658 E24.99686
G0 F2625 X135.451 Y140.401
G1 F900 X133.936 Y138.886 E25.06823
G0 F2625 X134.388 Y138.631
G1 F900 X135.875 Y140.118 E25.13828
G0 F2625 X136.275 Y139.81
G1 F900 X134.806 Y138.341 E25.20748
G0 F2625 X135.193 Y138.022
G1 F900 X136.665 Y139.493 E25.2768
G0 F2625 X137.015 Y139.136
G1 F900 X135.562 Y137.684 E25.34522
G0 F2625 X135.888 Y137.303
G1 F900 X137.365 Y138.779 E25.41478
G0 F2625 X137.714 Y138.421
G1 F900 X136.21 Y136.917 E25.48563
G0 F2625 X136.474 Y136.474
G1 F900 X138.227 Y138.227 E25.56821
G0 F2625 X138.814 Y138.107
G1 F900 X136.738 Y136.031 E25.66601
G0 F2625 X136.939 Y135.525
G1 F900 X139.401 Y137.986 E25.78196
G0 F2625 X139.988 Y137.866
G1 F900 X137.132 Y135.011 E25.91648
G0 F2625 X137.257 Y134.429
G1 F900 X140.575 Y137.747 E26.07278
G0 F2625 X141.162 Y137.627
G1 F900 X137.37 Y133.834 E26.25144
G0 F2625 X137.38 Y133.137
G1 F900 X141.749 Y137.506 E26.45725
G0 F2625 X142.336 Y137.386
G1 F900 X137.333 Y132.383 E26.69294
G0 F2625 X137.182 Y131.526
G1 F900 X142.923 Y137.266 E26.96336
G0 F2625 X143.51 Y137.146
G1 F900 X136.768 Y130.404 E27.28096
G1 X136.68 Y130.316
G0 F2625 X135.415 Y128.344
G1 F900 X144.097 Y137.025 E27.68993
G0 F2625 X144.683 Y136.905
G1 F900 X135.65 Y127.872 E28.11545
G0 F2625 X135.886 Y127.4
G1 F900 X145.27 Y136.785 E28.55754
G0 F2625 X145.857 Y136.665
G1 F900 X136.12 Y126.928 E29.01623
G1 X136.032 Y126.84
G0 F2625 X139.695 Y129.795
