;Generated by Cura LulzBot Edition GCodeWriter Version: 3.6.18
;FLAVOR:Marlin
;TIME:1318
;Filament used: 0.554685m
;Layer height: 0.25
;Generated with Cura_SteamEngine 3.6.18
M82 ;absolute extrusion mode
;This G-Code has been generated specifically for the LulzBot TAZ 5 with standard extruder
M75			 ; start GLCD timer
M140 S60.0    ; start bed heating up
G90                      ; absolute positioning
M107                     ; disable fans
M82                      ; set extruder to absolute mode
G28 X0 Y0                ; home X and Y
G28 Z0                   ; home Z
G1 Z15.0 F175 ; move extruder up
M117 Heating...                     ; progress indicator message on LCD
M109 R200  ; wait for extruder to reach printing temp
M190 R60.0    ; wait for bed to reach printing temp
G92 E0                   ; set extruder position to 0
G1 F200 E0               ; prime the nozzle with filament
G92 E0                   ; re-set extruder position to 0
G1 F175       ; set travel speed
M203 X192 Y208 Z3        ; set limits on travel speed
M117 TAZ 5 Printing...   ; progress indicator message on LCD

M221 S100 T0
G92 E0
G1 F600 E-1
;LAYER_COUNT:48
;LAYER:0
M107
G0 F2625 X129.905 Y133.282 Z0.425
;TYPE:SKIRT
G1 F600 E0
G1 F900 X131.464 Y131.912 E0.06913
G1 X131.766 Y131.672 E0.08198
G1 X133.429 Y130.49 E0.14994
G1 X133.752 Y130.285 E0.16269
G1 X135.542 Y129.27 E0.23123
G1 X135.891 Y129.096 E0.24422
G1 X137.77 Y128.275 E0.31253
G1 X138.103 Y128.148 E0.3244
G1 X139.396 Y127.724 E0.36972
G1 X139.713 Y127.635 E0.38069
G1 X142.417 Y127.005 E0.47318
G1 X142.86 Y126.929 E0.48815
G1 X144.138 Y126.789 E0.53097
G1 X144.406 Y126.77 E0.53992
G1 X146.517 Y126.691 E0.61029
G1 X146.908 Y126.696 E0.62332
G1 X148.907 Y126.83 E0.69005
G1 X149.286 Y126.875 E0.70277
G1 X151.353 Y127.227 E0.77261
G1 X151.633 Y127.286 E0.78214
G1 X152.768 Y127.57 E0.82111
G1 X153.084 Y127.664 E0.8321
G1 X155.056 Y128.346 E0.9016
G1 X155.405 Y128.487 E0.91414
G1 X157.212 Y129.323 E0.98046
G1 X157.565 Y129.509 E0.99375
G1 X159.427 Y130.625 E1.06606
G1 X159.746 Y130.84 E1.07888
G1 X161.353 Y132.043 E1.14574
G1 X161.649 Y132.289 E1.15857
G1 X163.172 Y133.694 E1.22759
G1 X163.422 Y133.947 E1.23944
G1 X164.648 Y135.315 E1.30063
G1 X164.867 Y135.585 E1.31221
G1 X165.942 Y137.035 E1.37233
G1 X166.146 Y137.339 E1.38453
G1 X167.187 Y139.074 E1.45193
G1 X167.378 Y139.436 E1.46556
G1 X168.346 Y141.541 E1.54274
G1 X168.487 Y141.894 E1.5554
G1 X169.089 Y143.654 E1.61736
G1 X169.205 Y144.07 E1.63174
G1 X169.739 Y146.522 E1.71534
G1 X169.805 Y146.933 E1.7292
G1 X170.018 Y148.984 E1.79789
G1 X170.038 Y149.362 E1.8105
G1 X170.043 Y151.366 E1.87725
G1 X170.024 Y151.748 E1.88999
G1 X169.819 Y153.799 E1.95865
G1 X169.767 Y154.151 E1.97051
G1 X169.412 Y155.953 E2.03168
G1 X169.328 Y156.294 E2.04338
G1 X168.808 Y158.047 E2.10429
G1 X168.687 Y158.392 E2.11647
G1 X167.912 Y160.3 E2.18507
G1 X167.749 Y160.65 E2.19793
G1 X166.797 Y162.44 E2.26546
G1 X166.564 Y162.82 E2.28031
G1 X165.09 Y164.939 E2.36629
G1 X164.832 Y165.27 E2.38027
G1 X163.479 Y166.813 E2.44863
G1 X163.236 Y167.065 E2.46029
G1 X161.922 Y168.308 E2.52054
G1 X161.659 Y168.535 E2.53212
G1 X160.237 Y169.65 E2.59231
G1 X159.935 Y169.863 E2.60462
G1 X158.185 Y170.976 E2.6737
G1 X157.851 Y171.166 E2.6865
G1 X156.03 Y172.077 E2.75433
G1 X155.677 Y172.231 E2.76716
G1 X153.739 Y172.963 E2.83616
G1 X153.369 Y173.081 E2.8491
G1 X151.398 Y173.6 E2.91699
G1 X151.022 Y173.679 E2.92979
G1 X148.974 Y173.999 E2.99884
G1 X148.619 Y174.037 E3.01073
G1 X147.301 Y174.116 E3.05471
G1 X147.023 Y174.123 E3.06398
G1 X144.958 Y174.093 E3.13277
G1 X144.572 Y174.067 E3.14566
G1 X142.55 Y173.828 E3.21348
G1 X142.168 Y173.763 E3.22639
G1 X140.089 Y173.296 E3.29736
G1 X139.809 Y173.221 E3.30702
G1 X138.716 Y172.885 E3.34511
G1 X138.42 Y172.781 E3.35556
G1 X136.563 Y172.035 E3.42222
G1 X136.213 Y171.872 E3.43508
G1 X134.363 Y170.897 E3.50474
G1 X134.036 Y170.703 E3.51741
G1 X132.361 Y169.59 E3.5844
G1 X132.064 Y169.371 E3.59669
G1 X130.563 Y168.145 E3.66125
G1 X130.28 Y167.889 E3.67396
G1 X128.825 Y166.43 E3.74259
G1 X128.569 Y166.146 E3.75533
G1 X127.279 Y164.557 E3.82351
G1 X127.067 Y164.269 E3.83542
G1 X126.056 Y162.748 E3.89625
G1 X125.867 Y162.431 E3.90855
G1 X124.92 Y160.648 E3.9758
G1 X124.74 Y160.256 E3.99017
G1 X123.835 Y157.945 E4.07284
G1 X123.704 Y157.545 E4.08686
G1 X123.163 Y155.518 E4.15674
G1 X123.087 Y155.169 E4.16864
G1 X122.785 Y153.361 E4.2297
G1 X122.742 Y152.985 E4.24231
G1 X122.607 Y150.901 E4.31187
G1 X122.601 Y150.542 E4.32383
G1 X122.657 Y148.75 E4.38355
G1 X122.686 Y148.386 E4.39572
G1 X122.95 Y146.346 E4.46424
G1 X123.03 Y145.92 E4.47867
G1 X123.624 Y143.538 E4.56045
G1 X123.738 Y143.164 E4.57347
G1 X124.387 Y141.378 E4.63677
G1 X124.524 Y141.051 E4.64858
G1 X125.315 Y139.384 E4.71004
G1 X125.489 Y139.061 E4.72227
G1 X126.538 Y137.315 E4.79011
G1 X126.754 Y136.994 E4.803
G1 X127.986 Y135.354 E4.87133
G1 X128.233 Y135.058 E4.88417
G1 X129.629 Y133.551 E4.9526
G1 X129.905 Y133.282 E4.96544
G0 F2625 X130.235 Y133.658
G1 F900 X131.794 Y132.288 E5.03457
G1 X132.056 Y132.08 E5.04571
G1 X133.719 Y130.898 E5.11367
G1 X133.999 Y130.72 E5.12473
G1 X135.789 Y129.705 E5.19327
G1 X136.091 Y129.554 E5.20452
G1 X137.97 Y128.733 E5.27282
G1 X138.258 Y128.623 E5.28309
G1 X139.551 Y128.199 E5.32842
G1 X139.827 Y128.122 E5.33796
G1 X142.531 Y127.492 E5.43045
G1 X142.914 Y127.426 E5.44339
G1 X144.192 Y127.286 E5.48622
G1 X144.424 Y127.269 E5.49397
G1 X146.535 Y127.19 E5.56433
G1 X146.874 Y127.195 E5.57563
G1 X148.873 Y127.329 E5.64236
G1 X149.202 Y127.368 E5.6534
G1 X151.269 Y127.72 E5.72324
G1 X151.512 Y127.771 E5.73151
G1 X152.647 Y128.055 E5.77049
G1 X152.92 Y128.136 E5.77997
G1 X154.892 Y128.818 E5.84948
G1 X155.195 Y128.94 E5.86036
G1 X157.002 Y129.776 E5.92668
G1 X157.308 Y129.938 E5.93821
G1 X159.17 Y131.054 E6.01052
G1 X159.447 Y131.24 E6.02164
G1 X161.054 Y132.443 E6.08851
G1 X161.31 Y132.656 E6.0996
G1 X162.833 Y134.061 E6.16862
G1 X163.049 Y134.281 E6.17889
G1 X164.275 Y135.649 E6.24008
G1 X164.466 Y135.882 E6.25012
G1 X165.541 Y137.332 E6.31024
G1 X165.717 Y137.596 E6.32081
G1 X166.758 Y139.331 E6.38821
G1 X166.924 Y139.645 E6.40004
G1 X167.892 Y141.75 E6.47722
G1 X168.014 Y142.056 E6.48819
G1 X168.616 Y143.816 E6.55015
G1 X168.717 Y144.176 E6.56261
G1 X169.251 Y146.628 E6.6462
G1 X169.308 Y146.984 E6.65821
G1 X169.521 Y149.035 E6.7269
G1 X169.538 Y149.363 E6.73784
G1 X169.543 Y151.367 E6.80459
G1 X169.527 Y151.698 E6.81563
G1 X169.322 Y153.749 E6.88429
G1 X169.277 Y154.054 E6.89456
G1 X168.922 Y155.856 E6.95574
G1 X168.849 Y156.152 E6.96589
G1 X168.329 Y157.905 E7.0268
G1 X168.224 Y158.204 E7.03736
G1 X167.449 Y160.112 E7.10596
G1 X167.307 Y160.415 E7.1171
G1 X166.355 Y162.205 E7.18464
G1 X166.154 Y162.535 E7.19751
G1 X164.68 Y164.654 E7.28349
G1 X164.456 Y164.941 E7.29562
G1 X163.103 Y166.484 E7.36398
G1 X162.892 Y166.702 E7.37408
G1 X161.578 Y167.945 E7.43433
G1 X161.35 Y168.142 E7.44437
G1 X159.928 Y169.257 E7.50456
G1 X159.667 Y169.441 E7.5152
G1 X157.917 Y170.554 E7.58428
G1 X157.627 Y170.719 E7.5954
G1 X155.806 Y171.63 E7.66322
G1 X155.5 Y171.763 E7.67434
G1 X153.562 Y172.495 E7.74334
G1 X153.242 Y172.598 E7.75454
G1 X151.271 Y173.117 E7.82243
G1 X150.945 Y173.185 E7.83353
G1 X148.897 Y173.505 E7.90257
G1 X148.589 Y173.538 E7.91289
G1 X147.271 Y173.617 E7.95687
G1 X147.03 Y173.623 E7.9649
G1 X144.965 Y173.593 E8.0337
G1 X144.631 Y173.571 E8.04485
G1 X142.609 Y173.332 E8.11267
G1 X142.278 Y173.275 E8.12386
G1 X140.199 Y172.808 E8.19484
G1 X139.956 Y172.744 E8.20321
G1 X138.863 Y172.408 E8.2413
G1 X138.607 Y172.317 E8.25035
G1 X136.75 Y171.571 E8.31701
G1 X136.446 Y171.43 E8.32817
G1 X134.596 Y170.455 E8.39783
G1 X134.312 Y170.287 E8.40882
G1 X132.637 Y169.174 E8.47581
G1 X132.38 Y168.984 E8.48646
G1 X130.879 Y167.758 E8.55101
G1 X130.634 Y167.536 E8.56203
G1 X129.179 Y166.077 E8.63066
G1 X128.957 Y165.83 E8.64173
G1 X127.667 Y164.241 E8.7099
G1 X127.483 Y163.992 E8.72022
G1 X126.472 Y162.471 E8.78105
G1 X126.309 Y162.196 E8.7917
G1 X125.362 Y160.413 E8.85895
G1 X125.206 Y160.074 E8.87138
G1 X124.301 Y157.763 E8.95405
G1 X124.187 Y157.416 E8.96622
G1 X123.646 Y155.389 E9.0361
G1 X123.58 Y155.086 E9.04643
G1 X123.278 Y153.278 E9.10749
G1 X123.241 Y152.953 E9.11839
G1 X123.106 Y150.869 E9.18795
G1 X123.101 Y150.557 E9.19835
G1 X123.157 Y148.765 E9.25807
G1 X123.182 Y148.45 E9.26859
G1 X123.446 Y146.41 E9.33711
G1 X123.516 Y146.041 E9.34962
G1 X124.11 Y143.659 E9.4314
G1 X124.208 Y143.335 E9.44268
G1 X124.857 Y141.549 E9.50597
G1 X124.976 Y141.266 E9.5162
G1 X125.767 Y139.599 E9.57766
G1 X125.917 Y139.318 E9.58827
G1 X126.966 Y137.572 E9.65612
G1 X127.154 Y137.294 E9.6673
G1 X128.386 Y135.654 E9.73563
G1 X128.6 Y135.397 E9.74677
G1 X129.996 Y133.89 E9.81519
G1 X130.235 Y133.658 E9.82629
G1 F600 E8.82629
;MESH:
G0 F2625 X135.187 Y133.017
G0 X136.016 Y134.185
G0 X149.284 Y131.491
G0 X149.299 Y131.393
;TYPE:WALL-INNER
G1 F600 E9.82629
G1 F900 X151.239 Y131.797 E9.8923
G1 X153.124 Y132.399 E9.95821
G1 X154.937 Y133.192 E10.02413
G1 X156.66 Y134.166 E10.09006
G1 X158.284 Y135.321 E10.15644
G1 X159.766 Y136.624 E10.22217
G1 X161.12 Y138.086 E10.28855
G1 X162.305 Y139.666 E10.35434
G1 X163.326 Y141.367 E10.42042
G1 X164.167 Y143.162 E10.48645
G1 X164.816 Y145.027 E10.55223
G1 X165.272 Y146.958 E10.61832
G1 X165.526 Y148.925 E10.68439
G1 X165.577 Y150.916 E10.75073
G1 X165.425 Y152.873 E10.81611
G1 X165.068 Y154.834 E10.88251
G1 X164.514 Y156.735 E10.94847
G1 X163.77 Y158.57 E11.01442
G1 X162.836 Y160.322 E11.08056
G1 X161.729 Y161.967 E11.14661
G1 X160.464 Y163.483 E11.21238
G1 X159.037 Y164.874 E11.27876
G1 X157.49 Y166.099 E11.34449
G1 X155.821 Y167.161 E11.41038
G1 X154.04 Y168.051 E11.4767
G1 X152.186 Y168.749 E11.54269
G1 X150.274 Y169.253 E11.60856
G1 X148.315 Y169.557 E11.67459
G1 X146.335 Y169.66 E11.74064
G1 X144.354 Y169.557 E11.80671
G1 X142.405 Y169.255 E11.87241
G1 X140.474 Y168.746 E11.93893
G1 X138.63 Y168.051 E12.00457
G1 X136.849 Y167.161 E12.07089
G1 X135.179 Y166.099 E12.13682
G1 X133.627 Y164.87 E12.20276
G1 X132.209 Y163.488 E12.26872
G1 X130.94 Y161.967 E12.3347
G1 X129.83 Y160.319 E12.40089
G1 X128.902 Y158.574 E12.46672
G1 X128.155 Y156.735 E12.53284
G1 X127.601 Y154.834 E12.5988
G1 X127.244 Y152.873 E12.66519
G1 X127.092 Y150.916 E12.73058
G1 X127.143 Y148.925 E12.79692
G1 X127.398 Y146.959 E12.86296
G1 X127.854 Y145.027 E12.92908
G1 X128.502 Y143.162 E12.99485
G1 X129.343 Y141.367 E13.06088
G1 X130.364 Y139.666 E13.12696
G1 X131.554 Y138.081 E13.19298
G1 X132.903 Y136.623 E13.25915
G1 X134.383 Y135.321 E13.32481
G1 X136.006 Y134.169 E13.39111
G1 X137.733 Y133.192 E13.4572
G1 X139.546 Y132.399 E13.52312
G1 X141.43 Y131.797 E13.589
G1 X143.37 Y131.393 E13.65501
G1 X145.344 Y131.188 E13.72112
G1 X147.325 Y131.188 E13.7871
G1 X149.299 Y131.393 E13.85321
G0 F2625 X149.374 Y130.898
;TYPE:WALL-OUTER
G1 F900 X151.368 Y131.314 E13.92106
G1 X153.301 Y131.931 E13.98865
G1 X155.161 Y132.744 E14.05627
G1 X156.935 Y133.748 E14.12417
G1 X158.593 Y134.926 E14.19192
G1 X160.116 Y136.265 E14.25947
G1 X161.503 Y137.763 E14.32747
G1 X162.721 Y139.387 E14.39509
G1 X163.768 Y141.132 E14.46288
G1 X164.629 Y142.969 E14.53046
G1 X165.299 Y144.894 E14.59835
G1 X165.764 Y146.866 E14.66584
G1 X166.025 Y148.887 E14.73372
G1 X166.078 Y150.923 E14.80157
G1 X165.921 Y152.943 E14.86906
G1 X165.556 Y154.948 E14.93694
G1 X164.988 Y156.897 E15.00456
G1 X164.223 Y158.782 E15.07233
G1 X163.263 Y160.583 E15.14031
G1 X162.131 Y162.266 E15.20787
G1 X160.831 Y163.824 E15.27546
G1 X159.369 Y165.249 E15.34347
G1 X157.779 Y166.508 E15.41103
G1 X156.067 Y167.597 E15.47861
G1 X154.24 Y168.51 E15.54665
G1 X152.344 Y169.224 E15.61413
G1 X150.371 Y169.744 E15.6821
G1 X148.369 Y170.055 E15.74959
G1 X146.335 Y170.16 E15.81743
G1 X144.3 Y170.055 E15.88531
G1 X142.299 Y169.744 E15.95276
G1 X140.325 Y169.224 E16.02076
G1 X138.43 Y168.51 E16.08821
G1 X136.603 Y167.597 E16.15625
G1 X134.89 Y166.508 E16.22386
G1 X133.295 Y165.245 E16.29163
G1 X131.842 Y163.829 E16.35922
G1 X130.538 Y162.266 E16.42702
G1 X129.403 Y160.58 E16.49472
G1 X128.449 Y158.786 E16.5624
G1 X127.681 Y156.897 E16.63033
G1 X127.113 Y154.948 E16.69795
G1 X126.748 Y152.943 E16.76584
G1 X126.591 Y150.923 E16.83333
G1 X126.644 Y148.887 E16.90117
G1 X126.906 Y146.866 E16.96905
G1 X127.371 Y144.894 E17.03654
G1 X128.04 Y142.969 E17.10443
G1 X128.901 Y141.132 E17.17201
G1 X129.948 Y139.387 E17.23979
G1 X131.171 Y137.758 E17.30765
G1 X132.548 Y136.27 E17.37518
G1 X134.076 Y134.926 E17.44296
G1 X135.735 Y133.748 E17.51074
G1 X137.509 Y132.744 E17.57864
G1 X139.369 Y131.931 E17.64626
G1 X141.301 Y131.314 E17.71381
G1 X143.295 Y130.898 E17.78167
G1 X145.321 Y130.688 E17.84951
G1 X147.348 Y130.688 E17.91703
G1 X149.374 Y130.898 E17.98488
G0 F2625 X149.618 Y130.949
G0 X149.495 Y131.535
G0 X149.226 Y131.879
;TYPE:SKIN
G1 F900 X151.115 Y132.272 E18.04915
G1 X152.953 Y132.859 E18.11342
G1 X154.714 Y133.629 E18.17745
G1 X156.395 Y134.58 E18.24178
G1 X157.982 Y135.707 E18.30662
G1 X159.428 Y136.98 E18.37079
G1 X160.741 Y138.398 E18.43516
G1 X161.899 Y139.942 E18.49945
G1 X162.895 Y141.601 E18.56391
G1 X163.71 Y143.34 E18.62788
G1 X164.346 Y145.166 E18.69229
G1 X164.789 Y147.045 E18.7566
G1 X165.036 Y148.962 E18.82098
G1 X165.087 Y150.91 E18.88589
G1 X164.939 Y152.805 E18.94921
G1 X164.59 Y154.725 E19.01421
G1 X164.051 Y156.571 E19.07827
G1 X163.331 Y158.349 E19.14217
G1 X162.41 Y160.077 E19.20739
G1 X161.337 Y161.673 E19.27145
G1 X160.111 Y163.142 E19.33519
G1 X158.705 Y164.512 E19.40058
G1 X157.205 Y165.701 E19.46434
G1 X155.588 Y166.73 E19.52818
G1 X153.843 Y167.601 E19.59315
G1 X152.034 Y168.282 E19.65754
G1 X150.17 Y168.774 E19.72175
G1 X148.273 Y169.067 E19.78569
G1 X146.335 Y169.168 E19.85033
G1 X144.395 Y169.067 E19.91504
G1 X142.509 Y168.776 E19.97861
G1 X140.626 Y168.279 E20.04348
G1 X138.827 Y167.601 E20.10752
G1 X137.09 Y166.733 E20.1722
G1 X135.454 Y165.693 E20.23678
G1 X133.953 Y164.504 E20.30056
G1 X132.567 Y163.153 E20.36504
G1 X131.332 Y161.673 E20.42925
G1 X130.253 Y160.07 E20.49361
G1 X129.345 Y158.362 E20.55805
G1 X128.618 Y156.571 E20.62243
G1 X128.079 Y154.725 E20.68649
G1 X127.73 Y152.805 E20.75149
G1 X127.582 Y150.91 E20.81481
G1 X127.633 Y148.962 E20.87972
G1 X127.881 Y147.046 E20.94408
G1 X128.324 Y145.166 E21.00841
G1 X128.959 Y143.339 E21.07284
G1 X129.774 Y141.601 E21.13679
G1 X130.77 Y139.942 E21.20124
G1 X131.928 Y138.398 E21.26553
G1 X133.247 Y136.974 E21.33019
G1 X134.685 Y135.707 E21.39403
G1 X136.271 Y134.583 E21.45878
G1 X137.956 Y133.629 E21.52328
G1 X139.717 Y132.859 E21.5873
G1 X141.554 Y132.272 E21.65154
G1 X143.443 Y131.879 E21.71581
G1 X145.375 Y131.678 E21.78051
G1 X147.294 Y131.678 E21.84444
G1 X149.226 Y131.879 E21.90914
G0 F2625 X157.708 Y135.787
G1 F900 X160.88 Y138.959 E22.05857
G1 X160.968 Y139.047
G0 F2625 X162.357 Y141.144
G1 F900 X155.608 Y134.395 E22.3765
G1 X155.52 Y134.307
G0 F2625 X154.123 Y133.617
G1 F900 X163.121 Y142.615 E22.80038
G1 X163.209 Y142.703
G0 F2625 X163.649 Y143.85
G1 F900 X152.868 Y133.069 E23.30825
G1 X152.78 Y132.981
G0 F2625 X151.829 Y132.737
G1 F900 X164.027 Y144.935 E23.88287
G1 X164.115 Y145.023
G0 F2625 X164.289 Y145.904
G1 F900 X150.827 Y132.443 E24.51701
G0 F2625 X149.934 Y132.257
G1 F900 X164.507 Y146.83 E25.20352
G0 F2625 X164.642 Y147.672
G1 F900 X149.058 Y132.088 E25.93765
G0 F2625 X148.269 Y132.006
G1 F900 X164.746 Y148.483 E26.71385
G0 F2625 X164.818 Y149.261
G1 F900 X147.48 Y131.924 E27.53058
G0 F2625 X146.752 Y131.902
G1 F900 X164.837 Y149.987 E28.38253
G0 F2625 X164.856 Y150.714
G1 F900 X146.045 Y131.902 E29.2687
G0 F2625 X145.342 Y131.907
G1 F900 X164.823 Y151.388 E30.18641
G0 F2625 X164.772 Y152.044
G1 F900 X144.702 Y131.974 E31.13187
G0 F2625 X144.061 Y132.04
G1 F900 X164.721 Y152.7 E32.10512
G0 F2625 X164.618 Y153.304
G1 F900 X143.426 Y132.112 E33.10343
G0 F2625 X142.841 Y132.234
G1 F900 X164.509 Y153.903 E34.12419
G0 F2625 X164.401 Y154.502
G1 F900 X142.255 Y132.356 E35.16744
G0 F2625 X141.67 Y132.478
G1 F900 X164.256 Y155.064 E36.23142
G0 F2625 X164.096 Y155.61
G1 F900 X141.13 Y132.644 E37.3133
