;Generated by Cura LulzBot Edition GCodeWriter Version: 3.6.18
;FLAVOR:Marlin
;TIME:529
;Filament used: 0.257176m
;Layer height: 0.25
;Generated with Cura_SteamEngine 3.6.18
M82 ;absolute extrusion mode
;This G-Code has been generated specifically for the LulzBot TAZ 5 with standard extruder
M75			 ; start GLCD timer
M140 S60.0    ; start bed heating up
G90                      ; absolute positioning
M107                     ; disable fans
M82                      ; set extruder to absolute mode
G28 X0 Y0                ; home X and Y
G28 Z0                   ; home Z
G1 Z15.0 F175 ; move extruder up
M117 Heating...                     ; progress indicator message on LCD
M109 R200  ; wait for extruder to reach printing temp
M190 R60.0    ; wait for bed to reach printing temp
G92 E0                   ; set extruder position to 0
G1 F200 E0               ; prime the nozzle with filament
G92 E0                   ; re-set extruder position to 0
G1 F175       ; set travel speed
M203 X192 Y208 Z3        ; set limits on travel speed
M117 TAZ 5 Printing...   ; progress indicator message on LCD

M221 S100 T0
G92 E0
G1 F600 E-1
;LAYER_COUNT:20
;LAYER:0
M107
G0 F2625 X119.474 Y130.756 Z0.425
;TYPE:SKIRT
G1 F600 E0
G1 F900 X120.108 Y130.266 E0.02669
G1 X120.763 Y129.864 E0.05229
G1 X121.28 Y129.6 E0.07163
G1 X121.996 Y129.301 E0.09747
G1 X122.674 Y129.09 E0.12113
G1 X123.717 Y128.872 E0.15662
G1 X124.481 Y128.793 E0.18221
G1 X169.988 Y128.76 E1.69806
G1 X170.534 Y128.8 E1.7163
G1 X171.069 Y128.918 E1.73455
G1 X171.58 Y129.113 E1.75276
G1 X172.058 Y129.381 E1.77102
G1 X172.491 Y129.715 E1.78923
G1 X172.871 Y130.109 E1.80747
G1 X173.19 Y130.554 E1.82571
G1 X173.441 Y131.04 E1.84393
G1 X173.618 Y131.558 E1.86216
G1 X173.718 Y132.096 E1.88039
G1 X173.741 Y132.51 E1.8942
G1 X173.741 Y142.491 E2.22667
G1 X173.701 Y143.037 E2.24491
G1 X173.582 Y143.571 E2.26313
G1 X173.387 Y144.082 E2.28135
G1 X173.119 Y144.56 E2.2996
G1 X172.784 Y144.993 E2.31784
G1 X172.39 Y145.373 E2.33607
G1 X171.945 Y145.692 E2.35431
G1 X171.458 Y145.942 E2.37255
G1 X170.94 Y146.119 E2.39078
G1 X170.402 Y146.218 E2.409
G1 X169.991 Y146.241 E2.42272
G1 X124.875 Y146.235 E3.92555
G1 X124.546 Y146.221 E3.93652
G1 X123.887 Y146.163 E3.95855
G1 X123.342 Y146.074 E3.97695
G1 X122.591 Y145.894 E4.00267
G1 X122.027 Y145.71 E4.02243
G1 X121.283 Y145.401 E4.04927
G1 X120.758 Y145.133 E4.0689
G1 X120.102 Y144.73 E4.09455
G1 X119.555 Y144.321 E4.1173
G1 X118.816 Y143.655 E4.15044
G1 X118.361 Y143.165 E4.17271
G1 X117.857 Y142.514 E4.20014
G1 X117.529 Y142.012 E4.22011
G1 X117.158 Y141.331 E4.24594
G1 X116.862 Y140.623 E4.2715
G1 X116.482 Y139.367 E4.31521
G1 X116.332 Y138.573 E4.34213
G1 X116.271 Y137.793 E4.36819
G1 X116.283 Y137.089 E4.39165
G1 X116.397 Y136.057 E4.42623
G1 X116.496 Y135.519 E4.44445
G1 X116.586 Y135.226 E4.45466
G1 X117.027 Y133.971 E4.49897
G1 X117.246 Y133.469 E4.51722
G1 X117.432 Y133.153 E4.52943
G1 X117.982 Y132.317 E4.56277
G1 X118.316 Y131.883 E4.58101
G1 X118.519 Y131.672 E4.59076
G1 X119.474 Y130.756 E4.63484
G0 F2625 X119.82 Y131.117
G1 F900 X120.37 Y130.692 E4.65799
G1 X121.025 Y130.29 E4.68359
G1 X121.473 Y130.061 E4.70035
G1 X122.189 Y129.762 E4.7262
G1 X122.776 Y129.58 E4.74667
G1 X123.819 Y129.362 E4.78216
G1 X124.482 Y129.293 E4.80437
G1 X169.989 Y129.26 E6.32022
G1 X170.497 Y129.3 E6.3372
G1 X170.992 Y129.418 E6.35415
G1 X171.463 Y129.613 E6.37113
G1 X171.898 Y129.878 E6.3881
G1 X172.286 Y130.209 E6.40508
G1 X172.617 Y130.595 E6.42202
G1 X172.884 Y131.029 E6.43899
G1 X173.08 Y131.5 E6.45599
G1 X173.2 Y131.995 E6.47295
G1 X173.241 Y132.51 E6.49016
G1 X173.241 Y142.491 E6.82263
G1 X173.201 Y142.999 E6.83961
G1 X173.082 Y143.494 E6.85657
G1 X172.887 Y143.965 E6.87355
G1 X172.621 Y144.4 E6.89053
G1 X172.291 Y144.787 E6.90747
G1 X171.904 Y145.119 E6.92446
G1 X171.469 Y145.385 E6.94144
G1 X170.999 Y145.581 E6.9584
G1 X170.504 Y145.7 E6.97536
G1 X169.991 Y145.741 E6.99251
G1 X124.875 Y145.735 E8.49534
G1 X124.59 Y145.722 E8.50484
G1 X123.931 Y145.664 E8.52688
G1 X123.458 Y145.587 E8.54284
G1 X122.707 Y145.407 E8.56856
G1 X122.218 Y145.248 E8.58569
G1 X121.474 Y144.939 E8.61253
G1 X121.02 Y144.707 E8.62951
G1 X120.364 Y144.304 E8.65516
G1 X119.889 Y143.949 E8.67491
G1 X119.15 Y143.283 E8.70805
G1 X118.756 Y142.859 E8.72733
G1 X118.252 Y142.208 E8.75475
G1 X117.968 Y141.773 E8.77206
G1 X117.597 Y141.092 E8.79789
G1 X117.34 Y140.478 E8.82006
G1 X116.96 Y139.222 E8.86377
G1 X116.831 Y138.534 E8.88709
G1 X116.77 Y137.754 E8.91315
G1 X116.78 Y137.144 E8.93347
G1 X116.894 Y136.112 E8.96806
G1 X117.058 Y135.392 E8.99265
G1 X117.499 Y134.137 E9.03697
G1 X117.705 Y133.671 E9.05394
G1 X117.85 Y133.428 E9.06336
G1 X118.4 Y132.592 E9.0967
G1 X118.865 Y132.033 E9.12092
G1 X119.82 Y131.117 E9.165
G1 F600 E8.165
;MESH:
G0 F2625 X124.907 Y131.841
G0 X125.021 Y133.269
G0 X130.357 Y134.111
G0 X131.471 Y134.549
G0 X131.415 Y134.631
;TYPE:WALL-INNER
G1 F600 E9.165
G1 F900 X130.901 Y134.345 E9.18459
G1 X130.347 Y134.149 E9.20416
G1 X129.785 Y134.053 E9.22316
G1 X129.475 Y134.04 E9.23349
G1 X129.166 Y134.053 E9.24379
G1 X128.604 Y134.149 E9.26278
G1 X128.049 Y134.345 E9.28239
G1 X127.537 Y134.631 E9.30193
G1 X127.079 Y135.001 E9.32154
G1 X126.691 Y135.442 E9.34111
G1 X126.384 Y135.941 E9.36062
G1 X126.164 Y136.487 E9.38023
G1 X126.041 Y137.06 E9.39975
G1 X126.016 Y137.646 E9.41929
G1 X126.09 Y138.23 E9.4389
G1 X126.262 Y138.791 E9.45844
G1 X126.527 Y139.316 E9.47803
G1 X126.877 Y139.788 E9.49761
G1 X127.3 Y140.193 E9.51711
G1 X127.787 Y140.523 E9.53671
G1 X128.322 Y140.765 E9.55627
G1 X128.889 Y140.913 E9.57579
G1 X129.475 Y140.963 E9.59538
G1 X130.06 Y140.913 E9.61494
G1 X130.629 Y140.765 E9.63452
G1 X131.164 Y140.523 E9.65408
G1 X131.651 Y140.193 E9.67368
G1 X132.074 Y139.788 E9.69318
G1 X132.424 Y139.316 E9.71276
G1 X132.689 Y138.789 E9.73241
G1 X132.859 Y138.23 E9.75187
G1 X132.935 Y137.648 E9.77142
G1 X132.91 Y137.06 E9.79102
G1 X132.786 Y136.487 E9.81055
G1 X132.567 Y135.941 E9.83015
G1 X132.259 Y135.442 E9.84968
G1 X131.871 Y135.001 E9.86925
G1 X131.415 Y134.631 E9.88881
G0 F2625 X131.471 Y134.549
G0 X169.18 Y141.68
G0 X169.25 Y141.75
G1 F900 X125.021 Y141.75 E11.36209
G1 X124.338 Y141.696 E11.38491
G1 X123.689 Y141.54 E11.40715
G1 X123.069 Y141.283 E11.4295
G1 X122.503 Y140.937 E11.4516
G1 X121.996 Y140.505 E11.47379
G1 X121.562 Y139.995 E11.4961
G1 X121.217 Y139.431 E11.51812
G1 X120.96 Y138.811 E11.54048
G1 X120.804 Y138.162 E11.56271
G1 X120.752 Y137.5 E11.58483
G1 X120.804 Y136.838 E11.60695
G1 X120.96 Y136.189 E11.62918
G1 X121.217 Y135.569 E11.65154
G1 X121.563 Y135.003 E11.67364
G1 X121.996 Y134.496 E11.69585
G1 X122.503 Y134.063 E11.71806
G1 X123.069 Y133.717 E11.74015
G1 X123.689 Y133.46 E11.76251
G1 X124.338 Y133.304 E11.78474
G1 X125.021 Y133.25 E11.80757
G1 X169.25 Y133.25 E13.28085
G1 X169.25 Y141.75 E13.56399
G0 F2625 X169.75 Y142.25
;TYPE:WALL-OUTER
G1 F900 X125.007 Y142.25 E15.05439
G1 X124.257 Y142.191 E15.07945
G1 X123.534 Y142.017 E15.10422
G1 X122.843 Y141.731 E15.12914
G1 X122.206 Y141.341 E15.15401
G1 X121.641 Y140.859 E15.17875
G1 X121.158 Y140.292 E15.20356
G1 X120.769 Y139.657 E15.22837
G1 X120.483 Y138.966 E15.25328
G1 X120.309 Y138.243 E15.27805
G1 X120.251 Y137.5 E15.30288
G1 X120.309 Y136.757 E15.3277
G1 X120.483 Y136.034 E15.35247
G1 X120.769 Y135.343 E15.37738
G1 X121.159 Y134.706 E15.40226
G1 X121.641 Y134.141 E15.427
G1 X122.206 Y133.659 E15.45174
G1 X122.843 Y133.269 E15.47662
G1 X123.534 Y132.983 E15.50153
G1 X124.257 Y132.809 E15.5263
G1 X125.007 Y132.75 E15.55136
G1 X169.75 Y132.75 E17.04177
G1 X169.75 Y142.25 E17.35822
G0 F2625 X169.5 Y142.25
G0 X169.18 Y141.68
G0 X133.028 Y137.702
G0 X132.434 Y137.626
G1 F900 X132.412 Y137.124 E17.37495
G1 X132.306 Y136.634 E17.39165
G1 X132.119 Y136.167 E17.40841
G1 X131.856 Y135.74 E17.42511
G1 X131.524 Y135.363 E17.44185
G1 X131.134 Y135.047 E17.45857
G1 X130.695 Y134.802 E17.47531
G1 X130.221 Y134.635 E17.49206
G1 X129.732 Y134.551 E17.50858
G1 X129.475 Y134.54 E17.51715
G1 X129.219 Y134.551 E17.52569
G1 X128.73 Y134.635 E17.54221
G1 X128.256 Y134.802 E17.55895
G1 X127.818 Y135.047 E17.57567
G1 X127.426 Y135.363 E17.59244
G1 X127.095 Y135.74 E17.60915
G1 X126.832 Y136.167 E17.62586
G1 X126.644 Y136.634 E17.64263
G1 X126.539 Y137.124 E17.65932
G1 X126.517 Y137.625 E17.67603
G1 X126.581 Y138.124 E17.69278
G1 X126.728 Y138.604 E17.70951
G1 X126.954 Y139.053 E17.72625
G1 X127.253 Y139.456 E17.74297
G1 X127.615 Y139.803 E17.75967
G1 X128.032 Y140.085 E17.77644
G1 X128.489 Y140.292 E17.79315
G1 X128.974 Y140.418 E17.80984
G1 X129.475 Y140.461 E17.82659
G1 X129.975 Y140.418 E17.84331
G1 X130.462 Y140.292 E17.86006
G1 X130.919 Y140.085 E17.87678
G1 X131.336 Y139.803 E17.89354
G1 X131.698 Y139.456 E17.91025
G1 X131.997 Y139.053 E17.92696
G1 X132.223 Y138.603 E17.94374
G1 X132.369 Y138.124 E17.96042
G1 X132.434 Y137.626 E17.97715
G0 F2625 X132.424 Y137.376
G0 X133.023 Y137.351
G0 X133.398 Y136.997
;TYPE:SKIN
G1 F900 X133.256 Y136.343 E17.99944
G1 X133.006 Y135.72 E18.0218
G1 X132.655 Y135.15 E18.0441
G1 X132.212 Y134.646 E18.06645
G1 X131.691 Y134.223 E18.0888
G1 X131.103 Y133.896 E18.11122
G1 X130.661 Y133.74 E18.12683
G1 X168.76 Y133.74 E19.39592
G1 X168.76 Y141.26 E19.64641
G1 X130.673 Y141.26 E20.91511
G1 X130.793 Y141.229 E20.91923
G1 X131.405 Y140.952 E20.94161
G1 X131.96 Y140.575 E20.96396
G1 X132.443 Y140.113 E20.98622
G1 X132.843 Y139.574 E21.00858
G1 X133.146 Y138.971 E21.03106
G1 X133.339 Y138.334 E21.05323
G1 X133.427 Y137.67 E21.07554
G1 X133.398 Y136.997 E21.09798
G0 F2625 X132.291 Y135.419
G0 X131.898 Y134.973
G0 X131.437 Y134.598
G0 X130.917 Y134.309
G0 X130.601 Y134.198
G0 X128.29 Y133.74
G1 F900 X127.847 Y133.896 E21.11363
G1 X127.261 Y134.223 E21.13598
G1 X126.738 Y134.646 E21.15839
G1 X126.295 Y135.15 E21.18074
G1 X125.945 Y135.72 E21.20302
G1 X125.694 Y136.343 E21.22539
G1 X125.553 Y136.997 E21.24768
G1 X125.524 Y137.666 E21.26998
G1 X125.61 Y138.334 E21.29242
G1 X125.805 Y138.975 E21.31474
G1 X126.108 Y139.575 E21.33713
G1 X126.508 Y140.113 E21.35946
G1 X126.991 Y140.575 E21.38172
G1 X127.546 Y140.952 E21.40407
G1 X128.158 Y141.229 E21.42645
G1 X128.277 Y141.26 E21.43055
G1 X125.034 Y141.26 E21.53857
G1 X124.414 Y141.211 E21.55929
G1 X123.848 Y141.074 E21.57869
G1 X123.287 Y140.843 E21.5989
G1 X122.794 Y140.541 E21.61815
G1 X122.341 Y140.155 E21.63798
G1 X121.96 Y139.707 E21.65757
G1 X121.657 Y139.213 E21.67687
G1 X121.426 Y138.652 E21.69708
G1 X121.289 Y138.086 E21.71648
G1 X121.243 Y137.5 E21.73606
G1 X121.289 Y136.914 E21.75564
G1 X121.427 Y136.343 E21.77521
G1 X121.657 Y135.787 E21.79525
G1 X121.959 Y135.294 E21.81451
G1 X122.344 Y134.844 E21.83424
G1 X122.794 Y134.459 E21.85396
G1 X123.287 Y134.157 E21.87322
G1 X123.848 Y133.926 E21.89343
G1 X124.414 Y133.789 E21.91283
G1 X125.034 Y133.74 E21.93354
G1 X128.29 Y133.74 E22.042
G0 F2625 X121.66 Y138.631
G1 F900 X123.867 Y140.837 E22.14595
G0 F2625 X124.747 Y141.011
G1 F900 X121.488 Y137.751 E22.2995
G0 F2625 X121.502 Y137.059
G1 F900 X125.477 Y141.033 E22.48673
G0 F2625 X126.184 Y141.033
G1 F900 X121.625 Y136.474 E22.70149
G0 F2625 X121.825 Y135.967
G1 F900 X126.891 Y141.033 E22.94014
G1 X126.979 Y141.121
G0 F2625 X125.582 Y139.017
G1 F900 X122.084 Y135.519 E23.10492
G0 F2625 X122.398 Y135.125
G1 F900 X125.35 Y138.078 E23.24401
G0 F2625 X125.313 Y137.334
G1 F900 X122.762 Y134.783 E23.36418
G0 F2625 X123.175 Y134.489
G1 F900 X125.386 Y136.7 E23.46834
G0 F2625 X125.532 Y136.139
G1 F900 X123.646 Y134.252 E23.55721
G0 F2625 X124.177 Y134.077
G1 F900 X125.735 Y135.635 E23.6306
G0 F2625 X126.002 Y135.195
G1 F900 X124.791 Y133.984 E23.68765
G0 F2625 X125.478 Y133.964
G1 F900 X126.308 Y134.793 E23.72673
G0 F2625 X126.417 Y134.195
G1 F900 X126.966 Y134.037 E23.75535
G0 F2625 X127.039 Y134.11
G0 X131.843 Y133.964
G1 F900 X132.328 Y134.449 E23.7782
G0 F2625 X132.417 Y134.539
G1 F900 X138.913 Y141.034 E24.08419
G0 F2625 X139.62 Y141.034
G1 F900 X132.55 Y133.964 E24.41724
G0 F2625 X133.257 Y133.964
G1 F900 X140.327 Y141.034 E24.7503
G0 F2625 X141.034 Y141.034
G1 F900 X133.964 Y133.964 E25.08335
G0 F2625 X134.672 Y133.964
G1 F900 X141.741 Y141.034 E25.41638
G0 F2625 X142.448 Y141.034
G1 F900 X135.379 Y133.964 E25.74941
G0 F2625 X136.086 Y133.964
G1 F900 X143.155 Y141.034 E26.08244
G0 F2625 X143.862 Y141.034
G1 F900 X136.793 Y133.964 E26.41547
G0 F2625 X137.5 Y133.964
G1 F900 X144.57 Y141.034 E26.74852
G0 F2625 X145.277 Y141.034
G1 F900 X138.207 Y133.964 E27.08158
G0 F2625 X138.914 Y133.964
G1 F900 X145.984 Y141.034 E27.41463
G0 F2625 X146.691 Y141.034
G1 F900 X139.621 Y133.964 E27.74768
G0 F2625 X140.328 Y133.964
G1 F900 X147.398 Y141.034 E28.08074
G0 F2625 X148.105 Y141.034
G1 F900 X141.035 Y133.964 E28.41379
G0 F2625 X141.743 Y133.964
G1 F900 X148.812 Y141.034 E28.74682
G0 F2625 X149.519 Y141.034
G1 F900 X142.45 Y133.964 E29.07985
G0 F2625 X143.157 Y133.964
G1 F900 X150.226 Y141.034 E29.41288
G0 F2625 X150.934 Y141.034
G1 F900 X143.864 Y133.964 E29.74593
G0 F2625 X144.571 Y133.964
G1 F900 X151.641 Y141.034 E30.07899
G0 F2625 X152.348 Y141.034
G1 F900 X145.278 Y133.964 E30.41204
G0 F2625 X145.985 Y133.964
G1 F900 X153.055 Y141.034 E30.74509
G0 F2625 X153.762 Y141.034
G1 F900 X146.692 Y133.964 E31.07814
G0 F2625 X147.399 Y133.964
G1 F900 X154.469 Y141.034 E31.4112
G0 F2625 X155.176 Y141.034
G1 F900 X148.107 Y133.964 E31.74423
G0 F2625 X148.814 Y133.964
G1 F900 X155.883 Y141.034 E32.07726
G0 F2625 X156.59 Y141.034
G1 F900 X149.521 Y133.964 E32.41029
G0 F2625 X150.228 Y133.964
G1 F900 X157.298 Y141.034 E32.74334
G0 F2625 X158.005 Y141.034
G1 F900 X150.935 Y133.964 E33.07639
G0 F2625 X151.642 Y133.964
G1 F900 X158.712 Y141.034 E33.40945
G0 F2625 X159.419 Y141.034
G1 F900 X152.349 Y133.964 E33.7425
G0 F2625 X153.056 Y133.964
G1 F900 X160.126 Y141.034 E34.07555
G0 F2625 X160.833 Y141.034
G1 F900 X153.763 Y133.964 E34.40861
G0 F2625 X154.471 Y133.964
G1 F900 X161.54 Y141.034 E34.74164
G0 F2625 X162.247 Y141.034
G1 F900 X155.178 Y133.964 E35.07467
G0 F2625 X155.885 Y133.964
G1 F900 X162.954 Y141.034 E35.4077
G0 F2625 X163.661 Y141.034
G1 F900 X156.592 Y133.964 E35.74073
G0 F2625 X157.299 Y133.964
G1 F900 X164.369 Y141.034 E36.07378
G0 F2625 X165.076 Y141.034
G1 F900 X158.006 Y133.964 E36.40683
G0 F2625 X158.713 Y133.964
G1 F900 X165.783 Y141.034 E36.73989
G0 F2625 X166.49 Y141.034
G1 F900 X159.42 Y133.964 E37.07294
G0 F2625 X160.127 Y133.964
G1 F900 X167.197 Y141.034 E37.40599
G0 F2625 X167.904 Y141.034
G1 F900 X160.834 Y133.964 E37.73905
G0 F2625 X161.542 Y133.964
G1 F900 X168.534 Y140.957 E38.06845
G0 F2625 X168.534 Y140.25
G1 F900 X162.249 Y133.964 E38.36455
G0 F2625 X162.956 Y133.964
G1 F900 X168.534 Y139.543 E38.62734
G0 F2625 X168.534 Y138.836
G1 F900 X163.663 Y133.964 E38.85682
G0 F2625 X164.37 Y133.964
G1 F900 X168.534 Y138.129 E39.053
G0 F2625 X168.534 Y137.421
G1 F900 X165.077 Y133.964 E39.21586
G0 F2625 X165.784 Y133.964
G1 F900 X168.534 Y136.714 E39.3454
G0 F2625 X168.534 Y136.007
G1 F900 X166.491 Y133.964 E39.44165
G0 F2625 X167.198 Y133.964
G1 F900 X168.534 Y135.3 E39.50458
G0 F2625 X168.534 Y134.593
G1 F900 X167.906 Y133.964 E39.53419
G0 F2625 X138.206 Y141.034
G1 F900 X133.479 Y136.307 E39.75687
G0 F2625 X133.63 Y137.165
G1 F900 X137.499 Y141.034 E39.93913
G0 F2625 X136.791 Y141.034
G1 F900 X133.626 Y137.869 E40.08823
G0 F2625 X133.529 Y138.479
G1 F900 X136.084 Y141.034 E40.20859
G0 F2625 X135.377 Y141.034
M104 S195
G1 F900 X133.365 Y139.022 E40.30337
G0 F2625 X133.133 Y139.497
G1 F900 X134.67 Y141.034 E40.37577
G0 F2625 X133.963 Y141.034
G1 F900 X132.858 Y139.929 E40.42783
G0 F2625 X132.547 Y140.325
G1 F900 X133.256 Y141.034 E40.46123
G0 F2625 X132.549 Y141.034
G1 F900 X132.185 Y140.671 E40.47835
G0 F2625 X130.45 Y141.41
G0 X130.304 Y141.264
;TYPE:SKIN
G1 F900 X130.026 Y141.339 E40.48727
G1 X128.939 Y141.313 E40.52097
G1 X128.657 Y141.385 E40.52999
G0 F2625 X128.795 Y141.523
G0 X126.847 Y139.814
G0 X126.493 Y139.337
G0 X126.225 Y138.805
G0 X126.051 Y138.238
G0 X125.977 Y137.647
G0 X126.002 Y137.055
G0 X126.126 Y136.476
G0 X126.349 Y135.923
G0 X126.659 Y135.419
G0 X127.052 Y134.973
