;Generated by Cura LulzBot Edition GCodeWriter Version: 3.6.18
;FLAVOR:Marlin
;TIME:1657
;Filament used: 0.875488m
;Layer height: 0.25
;Generated with Cura_SteamEngine 3.6.18
M82 ;absolute extrusion mode
;This G-Code has been generated specifically for the LulzBot TAZ 5 with standard extruder
M75			 ; start GLCD timer
M140 S60.0    ; start bed heating up
G90                      ; absolute positioning
M107                     ; disable fans
M82                      ; set extruder to absolute mode
G28 X0 Y0                ; home X and Y
G28 Z0                   ; home Z
G1 Z15.0 F175 ; move extruder up
M117 Heating...                     ; progress indicator message on LCD
M109 R200  ; wait for extruder to reach printing temp
M190 R60.0    ; wait for bed to reach printing temp
G92 E0                   ; set extruder position to 0
G1 F200 E0               ; prime the nozzle with filament
G92 E0                   ; re-set extruder position to 0
G1 F175       ; set travel speed
M203 X192 Y208 Z3        ; set limits on travel speed
M117 TAZ 5 Printing...   ; progress indicator message on LCD

M221 S100 T0
G92 E0
G1 F600 E-1
;LAYER_COUNT:60
;LAYER:0
M107
G0 F2625 X125.716 Y113.009 Z0.425
;TYPE:SKIRT
G1 F600 E0
G1 F900 X126.11 Y112.629 E0.01823
G1 X126.555 Y112.31 E0.03647
G1 X127.042 Y112.06 E0.05471
G1 X127.56 Y111.883 E0.07294
G1 X128.098 Y111.784 E0.09116
G1 X128.509 Y111.761 E0.10487
G1 X161.491 Y111.762 E1.20352
G1 X162.037 Y111.802 E1.22175
G1 X162.571 Y111.921 E1.23998
G1 X163.083 Y112.116 E1.25823
G1 X163.56 Y112.384 E1.27645
G1 X163.993 Y112.719 E1.29469
G1 X164.373 Y113.113 E1.31292
G1 X164.692 Y113.558 E1.33116
G1 X164.942 Y114.045 E1.3494
G1 X165.119 Y114.563 E1.36763
G1 X165.218 Y115.101 E1.38585
G1 X165.241 Y115.512 E1.39956
G1 X165.241 Y145.493 E2.39824
G1 X165.201 Y146.039 E2.41648
G1 X165.082 Y146.573 E2.4347
G1 X164.887 Y147.084 E2.45292
G1 X164.619 Y147.562 E2.47118
G1 X164.284 Y147.995 E2.48941
G1 X163.89 Y148.375 E2.50764
G1 X163.445 Y148.694 E2.52588
G1 X162.958 Y148.944 E2.54412
G1 X162.44 Y149.121 E2.56235
G1 X161.902 Y149.22 E2.58057
G1 X161.491 Y149.243 E2.59429
G1 X128.509 Y149.243 E3.69293
G1 X127.963 Y149.203 E3.71116
G1 X127.429 Y149.084 E3.72939
G1 X126.918 Y148.889 E3.74761
G1 X126.44 Y148.621 E3.76586
G1 X126.007 Y148.286 E3.7841
G1 X125.627 Y147.892 E3.80233
G1 X125.308 Y147.447 E3.82057
G1 X125.058 Y146.96 E3.8388
G1 X124.881 Y146.442 E3.85704
G1 X124.782 Y145.904 E3.87526
G1 X124.759 Y145.493 E3.88897
G1 X124.759 Y115.511 E4.88768
G1 X124.799 Y114.965 E4.90592
G1 X124.918 Y114.431 E4.92414
G1 X125.113 Y113.92 E4.94236
G1 X125.381 Y113.442 E4.96062
G1 X125.716 Y113.009 E4.97885
G0 F2625 X126.209 Y113.215
G1 F900 X126.596 Y112.883 E4.99584
G1 X127.031 Y112.617 E5.01282
G1 X127.501 Y112.421 E5.02979
G1 X127.996 Y112.302 E5.04674
G1 X128.509 Y112.261 E5.06389
G1 X161.491 Y112.262 E6.16253
G1 X161.999 Y112.302 E6.1795
G1 X162.494 Y112.421 E6.19646
G1 X162.965 Y112.616 E6.21344
G1 X163.4 Y112.882 E6.23043
G1 X163.787 Y113.212 E6.24737
G1 X164.119 Y113.599 E6.26435
G1 X164.385 Y114.034 E6.28134
G1 X164.581 Y114.504 E6.2983
G1 X164.7 Y114.999 E6.31526
G1 X164.741 Y115.512 E6.3324
G1 X164.741 Y145.493 E7.33108
G1 X164.701 Y146.001 E7.34805
G1 X164.582 Y146.496 E7.36501
G1 X164.387 Y146.967 E7.38199
G1 X164.121 Y147.402 E7.39898
G1 X163.791 Y147.789 E7.41592
G1 X163.404 Y148.121 E7.4329
G1 X162.969 Y148.387 E7.44989
G1 X162.499 Y148.583 E7.46685
G1 X162.004 Y148.702 E7.48381
G1 X161.491 Y148.743 E7.50095
G1 X128.509 Y148.743 E8.59959
G1 X128.001 Y148.703 E8.61657
G1 X127.506 Y148.584 E8.63353
G1 X127.035 Y148.389 E8.65051
G1 X126.6 Y148.123 E8.66749
G1 X126.213 Y147.793 E8.68443
G1 X125.881 Y147.406 E8.70142
G1 X125.615 Y146.971 E8.7184
G1 X125.419 Y146.501 E8.73536
G1 X125.3 Y146.006 E8.75232
G1 X125.259 Y145.493 E8.76946
G1 X125.259 Y115.511 E9.76818
G1 X125.299 Y115.003 E9.78515
G1 X125.418 Y114.508 E9.80211
G1 X125.613 Y114.037 E9.81909
G1 X125.879 Y113.602 E9.83607
G1 X126.209 Y113.215 E9.85302
G1 F600 E8.85302
;MESH:
G0 F2625 X129.264 Y114.837
G0 X129.264 Y116.266
G0 X160.68 Y144.682
G0 X160.75 Y144.752
;TYPE:WALL-INNER
G1 F600 E9.85302
G1 F900 X129.25 Y144.752 E10.90229
G1 X129.25 Y116.252 E11.85164
G1 X160.75 Y116.252 E12.90091
G1 X160.75 Y144.752 E13.85026
G0 F2625 X161.25 Y145.252
;TYPE:WALL-OUTER
G1 F900 X128.75 Y145.252 E14.93285
G1 X128.75 Y115.752 E15.9155
G1 X161.25 Y115.752 E16.99809
G1 X161.25 Y145.252 E17.98074
G0 F2625 X161 Y145.252
G0 X160.68 Y144.682
G0 X160.26 Y144.262
;TYPE:SKIN
G1 F900 X129.74 Y144.262 E18.99738
G1 X129.74 Y116.742 E19.91408
G1 X160.26 Y116.742 E20.93071
G1 X160.26 Y144.262 E21.84741
G0 F2625 X160.034 Y117.608
G1 F900 X159.393 Y116.967 E21.87761
G0 F2625 X158.686 Y116.967
G1 F900 X160.034 Y118.315 E21.94111
G0 F2625 X160.034 Y119.022
G1 F900 X157.979 Y116.967 E22.03791
G0 F2625 X157.272 Y116.967
G1 F900 X160.034 Y119.729 E22.16803
G0 F2625 X160.034 Y120.436
G1 F900 X156.565 Y116.967 E22.33144
G0 F2625 X155.858 Y116.967
G1 F900 X160.034 Y121.143 E22.52817
G0 F2625 X160.034 Y121.85
G1 F900 X155.151 Y116.967 E22.7582
G0 F2625 X154.444 Y116.967
G1 F900 X160.034 Y122.557 E23.02153
G0 F2625 X160.034 Y123.264
G1 F900 X153.737 Y116.967 E23.31817
G0 F2625 X153.029 Y116.967
G1 F900 X160.034 Y123.972 E23.64816
G0 F2625 X160.034 Y124.679
G1 F900 X152.322 Y116.967 E24.01146
G0 F2625 X151.615 Y116.967
G1 F900 X160.034 Y125.386 E24.40806
G0 F2625 X160.034 Y126.093
G1 F900 X150.908 Y116.967 E24.83796
G0 F2625 X150.201 Y116.967
G1 F900 X160.034 Y126.8 E25.30118
G0 F2625 X160.034 Y127.507
G1 F900 X149.494 Y116.967 E25.7977
G0 F2625 X148.787 Y116.967
G1 F900 X160.034 Y128.214 E26.32752
G0 F2625 X160.034 Y128.921
G1 F900 X148.08 Y116.967 E26.89065
G0 F2625 X147.373 Y116.967
G1 F900 X160.034 Y129.628 E27.48708
G0 F2625 X160.034 Y130.336
G1 F900 X146.665 Y116.967 E28.11687
G0 F2625 X145.958 Y116.967
G1 F900 X160.034 Y131.043 E28.77996
G0 F2625 X160.034 Y131.75
G1 F900 X145.251 Y116.967 E29.47636
G0 F2625 X144.544 Y116.967
G1 F900 X160.034 Y132.457 E30.20606
G0 F2625 X160.034 Y133.164
G1 F900 X143.837 Y116.967 E30.96907
G0 F2625 X143.13 Y116.967
G1 F900 X160.034 Y133.871 E31.76538
G0 F2625 X160.034 Y134.578
G1 F900 X142.423 Y116.967 E32.595
G0 F2625 X141.716 Y116.967
G1 F900 X160.034 Y135.285 E33.45792
G0 F2625 X160.034 Y135.992
G1 F900 X141.009 Y116.967 E34.35415
G0 F2625 X140.302 Y116.967
G1 F900 X160.034 Y136.7 E35.28371
G0 F2625 X160.034 Y137.407
G1 F900 X139.594 Y116.967 E36.24659
G0 F2625 X138.887 Y116.967
G1 F900 X160.034 Y138.114 E37.24279
G0 F2625 X160.034 Y138.821
G1 F900 X138.18 Y116.967 E38.27228
G0 F2625 X137.473 Y116.967
G1 F900 X160.034 Y139.528 E39.33509
G0 F2625 X160.034 Y140.235
G1 F900 X136.766 Y116.967 E40.4312
G0 F2625 X136.059 Y116.967
G1 F900 X160.034 Y140.942 E41.56061
G0 F2625 X160.034 Y141.649
G1 F900 X135.352 Y116.967 E42.72333
G0 F2625 X134.645 Y116.967
G1 F900 X160.034 Y142.356 E43.91935
G0 F2625 X160.034 Y143.063
G1 F900 X133.938 Y116.967 E45.14868
G0 F2625 X133.23 Y116.967
G1 F900 X160.034 Y143.771 E46.41136
G0 F2625 X159.592 Y144.036
G1 F900 X132.523 Y116.967 E47.68653
G0 F2625 X131.816 Y116.967
G1 F900 X158.885 Y144.036 E48.96169
G0 F2625 X158.178 Y144.036
G1 F900 X131.109 Y116.967 E50.23686
G0 F2625 X130.402 Y116.967
G1 F900 X157.471 Y144.036 E51.51202
G0 F2625 X156.764 Y144.036
G1 F900 X129.964 Y117.236 E52.77452
G0 F2625 X129.964 Y117.943
G1 F900 X156.057 Y144.036 E54.00371
G0 F2625 X155.349 Y144.036
G1 F900 X129.964 Y118.65 E55.19957
G0 F2625 X129.964 Y119.357
G1 F900 X154.642 Y144.036 E56.36212
G0 F2625 X153.935 Y144.036
G1 F900 X129.964 Y120.064 E57.49137
G0 F2625 X129.964 Y120.771
G1 F900 X153.228 Y144.036 E58.58731
G0 F2625 X152.521 Y144.036
G1 F900 X129.964 Y121.478 E59.64995
G0 F2625 X129.964 Y122.185
G1 F900 X151.814 Y144.036 E60.67928
G0 F2625 X151.107 Y144.036
G1 F900 X129.964 Y122.893 E61.67528
G0 F2625 X129.964 Y123.6
G1 F900 X150.4 Y144.036 E62.63798
G0 F2625 X149.693 Y144.036
G1 F900 X129.964 Y124.307 E63.56738
G0 F2625 X129.964 Y125.014
G1 F900 X148.985 Y144.036 E64.46344
G0 F2625 X148.278 Y144.036
G1 F900 X129.964 Y125.721 E65.3262
G0 F2625 X129.964 Y126.428
G1 F900 X147.571 Y144.036 E66.15565
G0 F2625 X146.864 Y144.036
G1 F900 X129.964 Y127.135 E66.9518
G0 F2625 X129.964 Y127.842
G1 F900 X146.157 Y144.036 E67.71464
G0 F2625 X145.45 Y144.036
G1 F900 X129.964 Y128.549 E68.44418
G0 F2625 X129.964 Y129.256
G1 F900 X144.743 Y144.036 E69.14041
G0 F2625 X144.036 Y144.036
G1 F900 X129.964 Y129.964 E69.80332
G0 F2625 X129.964 Y130.671
G1 F900 X143.329 Y144.036 E70.43291
G0 F2625 X142.622 Y144.036
G1 F900 X129.964 Y131.378 E71.02921
G0 F2625 X129.964 Y132.085
G1 F900 X141.914 Y144.036 E71.59217
G0 F2625 X141.207 Y144.036
G1 F900 X129.964 Y132.792 E72.12183
G0 F2625 X129.964 Y133.499
G1 F900 X140.5 Y144.036 E72.61818
G0 F2625 X139.793 Y144.036
G1 F900 X129.964 Y134.206 E73.08123
G0 F2625 X129.964 Y134.913
G1 F900 X139.086 Y144.036 E73.51097
G0 F2625 X138.379 Y144.036
G1 F900 X129.964 Y135.62 E73.90741
G0 F2625 X129.964 Y136.328
G1 F900 X137.672 Y144.036 E74.27052
G0 F2625 X136.965 Y144.036
G1 F900 X129.964 Y137.035 E74.60032
G0 F2625 X129.964 Y137.742
G1 F900 X136.258 Y144.036 E74.89682
G0 F2625 X135.55 Y144.036
G1 F900 X129.964 Y138.449 E75.15999
G0 F2625 X129.964 Y139.156
G1 F900 X134.843 Y144.036 E75.38985
G0 F2625 X134.136 Y144.036
G1 F900 X129.964 Y139.863 E75.58641
G0 F2625 X129.964 Y140.57
M104 S195
G1 F900 X133.429 Y144.036 E75.74966
G0 F2625 X132.722 Y144.036
G1 F900 X129.964 Y141.277 E75.87961
G0 F2625 X129.964 Y141.984
G1 F900 X132.015 Y144.036 E75.97625
G0 F2625 X131.308 Y144.036
G1 F900 X129.964 Y142.692 E76.03956
G0 F2625 X129.964 Y143.399
G1 F900 X130.601 Y144.036 E76.06957
;MESH:NONMESH
G0 F2625 X160.68 Y144.682
G0 X160.75 Y144.752
;TIME_ELAPSED:172.434779
;LAYER:1
M140 S60
M221 S100 T0
M106 S68
;MESH:
G0 F6562.5 X160.75 Y144.752 Z0.675
;TYPE:WALL-INNER
G1 F1800 X129.25 Y144.752 E76.68679
G1 X129.25 Y116.252 E77.24523
G1 X160.75 Y116.252 E77.86245
G1 X160.75 Y144.752 E78.42089
G0 F6562.5 X161.25 Y145.252
;TYPE:WALL-OUTER
G1 F1650 X128.75 Y145.252 E79.05771
G1 X128.75 Y115.752 E79.63574
G1 X161.25 Y115.752 E80.27255
G1 X161.25 Y145.252 E80.85059
G0 F6562.5 X161 Y145.252
G0 X160.68 Y144.682
G0 X160.26 Y144.262
;TYPE:SKIN
G1 F1350 X129.74 Y144.262 E81.44861
G1 X129.74 Y116.742 E81.98784
G1 X160.26 Y116.742 E82.58586
G1 X160.26 Y144.262 E83.1251
G0 F6562.5 X160.033 Y143.314
G1 F1350 X159.311 Y144.036 E83.1451
G0 F6562.5 X158.604 Y144.036
G1 F1350 X160.033 Y142.607 E83.1847
G0 F6562.5 X160.033 Y141.9
G1 F1350 X157.897 Y144.036 E83.24389
G0 F6562.5 X157.19 Y144.036
G1 F1350 X160.033 Y141.193 E83.32267
G0 F6562.5 X160.033 Y140.486
G1 F1350 X156.483 Y144.036 E83.42105
G0 F6562.5 X155.776 Y144.036
G1 F1350 X160.033 Y139.779 E83.53901
G0 F6562.5 X160.033 Y139.072
G1 F1350 X155.069 Y144.036 E83.67657
G0 F6562.5 X154.362 Y144.036
G1 F1350 X160.033 Y138.365 E83.83371
G0 F6562.5 X160.033 Y137.658
G1 F1350 X153.655 Y144.036 E84.01045
G0 F6562.5 X152.947 Y144.036
G1 F1350 X160.033 Y136.951 E84.20679
G0 F6562.5 X160.033 Y136.243
G1 F1350 X152.24 Y144.036 E84.42274
G0 F6562.5 X151.533 Y144.036
G1 F1350 X160.033 Y135.536 E84.65828
G0 F6562.5 X160.033 Y134.829
G1 F1350 X150.826 Y144.036 E84.91341
G0 F6562.5 X150.119 Y144.036
G1 F1350 X160.033 Y134.122 E85.18813
G0 F6562.5 X160.033 Y133.415
G1 F1350 X149.412 Y144.036 E85.48245
G0 F6562.5 X148.705 Y144.036
G1 F1350 X160.033 Y132.708 E85.79635
G0 F6562.5 X160.033 Y132.001
G1 F1350 X147.998 Y144.036 E86.12985
G0 F6562.5 X147.291 Y144.036
G1 F1350 X160.033 Y131.294 E86.48294
G0 F6562.5 X160.033 Y130.587
G1 F1350 X146.583 Y144.036 E86.85563
G0 F6562.5 X145.876 Y144.036
G1 F1350 X160.033 Y129.879 E87.24793
G0 F6562.5 X160.033 Y129.172
G1 F1350 X145.169 Y144.036 E87.65982
G0 F6562.5 X144.462 Y144.036
G1 F1350 X160.033 Y128.465 E88.0913
G0 F6562.5 X160.033 Y127.758
G1 F1350 X143.755 Y144.036 E88.54237
G0 F6562.5 X143.048 Y144.036
G1 F1350 X160.033 Y127.051 E89.01304
G0 F6562.5 X160.033 Y126.344
G1 F1350 X142.341 Y144.036 E89.50329
G0 F6562.5 X141.634 Y144.036
G1 F1350 X160.033 Y125.637 E90.01314
G0 F6562.5 X160.033 Y124.93
G1 F1350 X140.927 Y144.036 E90.54258
G0 F6562.5 X140.219 Y144.036
G1 F1350 X160.033 Y124.223 E91.09162
G0 F6562.5 X160.033 Y123.515
G1 F1350 X139.512 Y144.036 E91.66027
G0 F6562.5 X138.805 Y144.036
G1 F1350 X160.033 Y122.808 E92.24851
G0 F6562.5 X160.033 Y122.101
G1 F1350 X138.098 Y144.036 E92.85634
G0 F6562.5 X137.391 Y144.036
G1 F1350 X160.033 Y121.394 E93.48376
G0 F6562.5 X160.033 Y120.687
G1 F1350 X136.684 Y144.036 E94.13078
G0 F6562.5 X135.977 Y144.036
G1 F1350 X160.033 Y119.98 E94.79738
G0 F6562.5 X160.033 Y119.273
G1 F1350 X135.27 Y144.036 E95.48358
G0 F6562.5 X134.563 Y144.036
G1 F1350 X160.033 Y118.566 E96.18937
G0 F6562.5 X160.033 Y117.859
G1 F1350 X133.856 Y144.036 E96.91475
G0 F6562.5 X133.148 Y144.036
G1 F1350 X160.033 Y117.152 E97.65973
G0 F6562.5 X159.511 Y116.966
G1 F1350 X132.441 Y144.036 E98.40986
G0 F6562.5 X131.734 Y144.036
G1 F1350 X158.804 Y116.966 E99.15998
G0 F6562.5 X158.097 Y116.966
G1 F1350 X131.027 Y144.036 E99.91011
G0 F6562.5 X130.32 Y144.036
G1 F1350 X157.39 Y116.966 E100.66023
G0 F6562.5 X156.683 Y116.966
G1 F1350 X129.964 Y143.685 E101.40063
G0 F6562.5 X129.964 Y142.978
G1 F1350 X155.976 Y116.966 E102.12144
G0 F6562.5 X155.269 Y116.966
G1 F1350 X129.964 Y142.271 E102.82265
G0 F6562.5 X129.964 Y141.564
G1 F1350 X154.562 Y116.966 E103.50428
G0 F6562.5 X153.855 Y116.966
G1 F1350 X129.964 Y140.857 E104.16631
G0 F6562.5 X129.964 Y140.149
G1 F1350 X153.148 Y116.966 E104.80874
G0 F6562.5 X152.44 Y116.966
G1 F1350 X129.964 Y139.442 E105.43156
G0 F6562.5 X129.964 Y138.735
G1 F1350 X151.733 Y116.966 E106.03479
G0 F6562.5 X151.026 Y116.966
G1 F1350 X129.964 Y138.028 E106.61843
G0 F6562.5 X129.964 Y137.321
G1 F1350 X150.319 Y116.966 E107.18248
G0 F6562.5 X149.612 Y116.966
G1 F1350 X129.964 Y136.614 E107.72694
G0 F6562.5 X129.964 Y135.907
G1 F1350 X148.905 Y116.966 E108.25181
G0 F6562.5 X148.198 Y116.966
G1 F1350 X129.964 Y135.2 E108.75708
G0 F6562.5 X129.964 Y134.493
G1 F1350 X147.491 Y116.966 E109.24276
G0 F6562.5 X146.784 Y116.966
G1 F1350 X129.964 Y133.786 E109.70886
G0 F6562.5 X129.964 Y133.078
G1 F1350 X146.076 Y116.966 E110.15533
G0 F6562.5 X145.369 Y116.966
G1 F1350 X129.964 Y132.371 E110.58221
G0 F6562.5 X129.964 Y131.664
G1 F1350 X144.662 Y116.966 E110.9895
G0 F6562.5 X143.955 Y116.966
G1 F1350 X129.964 Y130.957 E111.3772
G0 F6562.5 X129.964 Y130.25
G1 F1350 X143.248 Y116.966 E111.7453
G0 F6562.5 X142.541 Y116.966
G1 F1350 X129.964 Y129.543 E112.09382
G0 F6562.5 X129.964 Y128.836
G1 F1350 X141.834 Y116.966 E112.42275
G0 F6562.5 X141.127 Y116.966
G1 F1350 X129.964 Y128.129 E112.73208
G0 F6562.5 X129.964 Y127.422
G1 F1350 X140.42 Y116.966 E113.02182
G0 F6562.5 X139.712 Y116.966
G1 F1350 X129.964 Y126.714 E113.29194
G0 F6562.5 X129.964 Y126.007
G1 F1350 X139.005 Y116.966 E113.54247
G0 F6562.5 X138.298 Y116.966
G1 F1350 X129.964 Y125.3 E113.77341
G0 F6562.5 X129.964 Y124.593
G1 F1350 X137.591 Y116.966 E113.98476
G0 F6562.5 X136.884 Y116.966
G1 F1350 X129.964 Y123.886 E114.17652
G0 F6562.5 X129.964 Y123.179
G1 F1350 X136.177 Y116.966 E114.34868
G0 F6562.5 X135.47 Y116.966
G1 F1350 X129.964 Y122.472 E114.50126
G0 F6562.5 X129.964 Y121.765
G1 F1350 X134.763 Y116.966 E114.63424
G0 F6562.5 X134.056 Y116.966
G1 F1350 X129.964 Y121.058 E114.74763
G0 F6562.5 X129.964 Y120.35
G1 F1350 X133.349 Y116.966 E114.84142
G0 F6562.5 X132.641 Y116.966
G1 F1350 X129.964 Y119.643 E114.9156
G0 F6562.5 X129.964 Y118.936
G1 F1350 X131.934 Y116.966 E114.97019
G0 F6562.5 X131.227 Y116.966
G1 F1350 X129.964 Y118.229 E115.00519
G0 F6562.5 X129.964 Y117.522
G1 F1350 X130.52 Y116.966 E115.0206
;MESH:NONMESH
G0 F6562.5 X160.68 Y144.682
G0 X160.75 Y144.752
;TIME_ELAPSED:264.392114
;LAYER:2
M106 S136
;MESH:
G0 F10500 X160.75 Y144.752 Z0.925
;TYPE:WALL-INNER
G1 F2700 X129.25 Y144.752 E115.63782
G1 X129.25 Y116.252 E116.19626
G1 X160.75 Y116.252 E116.81348
G1 X160.75 Y144.752 E117.37192
G0 F10500 X161.25 Y145.252
;TYPE:WALL-OUTER
