;Generated by Cura LulzBot Edition GCodeWriter Version: 3.6.18
;FLAVOR:Marlin
;TIME:520
;Filament used: 0.131179m
;Layer height: 0.25
;Generated with Cura_SteamEngine 3.6.18
M82 ;absolute extrusion mode
;This G-Code has been generated specifically for the LulzBot TAZ 5 with standard extruder
M75			 ; start GLCD timer
M140 S60.0    ; start bed heating up
G90                      ; absolute positioning
M107                     ; disable fans
M82                      ; set extruder to absolute mode
G28 X0 Y0                ; home X and Y
G28 Z0                   ; home Z
G1 Z15.0 F175 ; move extruder up
M117 Heating...                     ; progress indicator message on LCD
M109 R200  ; wait for extruder to reach printing temp
M190 R60.0    ; wait for bed to reach printing temp
G92 E0                   ; set extruder position to 0
G1 F200 E0               ; prime the nozzle with filament
G92 E0                   ; re-set extruder position to 0
G1 F175       ; set travel speed
M203 X192 Y208 Z3        ; set limits on travel speed
M117 TAZ 5 Printing...   ; progress indicator message on LCD

M221 S100 T0
G92 E0
G1 F600 E-1
;LAYER_COUNT:28
;LAYER:0
M107
G0 F2625 X131.596 Y108.403 Z0.425
;TYPE:SKIRT
G1 F600 E0
G1 F900 X132.013 Y107.902 E0.02171
G1 X133.609 Y106.294 E0.09718
G1 X134.022 Y105.935 E0.11541
G1 X134.483 Y105.64 E0.13364
G1 X134.982 Y105.414 E0.15189
G1 X135.508 Y105.264 E0.17011
G1 X136.271 Y105.186 E0.19565
G1 X153.722 Y105.185 E0.77695
G1 X154.268 Y105.225 E0.79519
G1 X154.802 Y105.344 E0.81341
G1 X155.313 Y105.539 E0.83163
G1 X155.791 Y105.807 E0.84989
G1 X156.369 Y106.278 E0.87472
G1 X157.934 Y107.837 E0.94831
G1 X158.292 Y108.251 E0.96654
G1 X158.638 Y108.81 E0.98844
G1 X161.031 Y113.572 E1.16596
G1 X161.24 Y114.078 E1.1842
G1 X161.374 Y114.609 E1.20244
G1 X161.43 Y115.255 E1.22404
G1 X161.44 Y141.429 E2.09591
G1 X161.4 Y141.974 E2.11411
G1 X161.235 Y142.652 E2.13735
G1 X158.979 Y149.196 E2.36793
G1 X157.526 Y154.45 E2.54951
G1 X156.916 Y157.092 E2.63983
G1 X155.912 Y162.463 E2.82184
G1 X155.341 Y166.581 E2.96032
G1 X155.227 Y167.116 E2.97854
G1 X155.036 Y167.629 E2.99678
G1 X154.772 Y168.109 E3.01502
G1 X154.441 Y168.545 E3.03326
G1 X154.05 Y168.928 E3.05149
G1 X153.608 Y169.25 E3.06971
G1 X153.123 Y169.505 E3.08796
G1 X152.607 Y169.686 E3.10617
G1 X152.069 Y169.79 E3.12443
G1 X151.615 Y169.816 E3.13957
G1 X138.4 Y169.775 E3.57977
G1 X137.855 Y169.733 E3.59798
G1 X137.321 Y169.613 E3.61621
G1 X136.81 Y169.416 E3.63446
G1 X136.334 Y169.146 E3.65268
G1 X135.901 Y168.81 E3.67094
G1 X135.523 Y168.415 E3.68915
G1 X135.205 Y167.969 E3.7074
G1 X134.957 Y167.482 E3.7256
G1 X134.781 Y166.963 E3.74386
G1 X134.711 Y166.629 E3.75523
G1 X133.371 Y158.419 E4.03232
G1 X132.812 Y155.83 E4.12055
G1 X131.426 Y150.524 E4.30322
G1 X129.746 Y145.312 E4.48563
G1 X128.792 Y142.724 E4.57751
G1 X128.64 Y142.198 E4.59575
G1 X128.56 Y141.427 E4.62157
G1 X128.56 Y115.3 E5.49187
G1 X128.6 Y114.754 E5.51011
G1 X128.719 Y114.22 E5.52833
G1 X128.952 Y113.63 E5.54946
G1 X131.317 Y108.874 E5.72639
G1 X131.596 Y108.403 E5.74463
G0 F2625 X132.027 Y108.66
G1 F900 X132.368 Y108.255 E5.76226
G1 X133.964 Y106.647 E5.83773
G1 X134.35 Y106.314 E5.85471
G1 X134.784 Y106.046 E5.8717
G1 X135.254 Y105.849 E5.88868
G1 X135.749 Y105.728 E5.90565
G1 X136.271 Y105.686 E5.9231
G1 X153.722 Y105.685 E6.50439
G1 X154.23 Y105.725 E6.52137
G1 X154.725 Y105.844 E6.53833
G1 X155.196 Y106.038 E6.5553
G1 X155.631 Y106.304 E6.57228
G1 X156.016 Y106.632 E6.58913
G1 X157.581 Y108.191 E6.66271
G1 X157.912 Y108.578 E6.67967
G1 X158.191 Y109.035 E6.69751
G1 X160.584 Y113.797 E6.87503
G1 X160.776 Y114.268 E6.89198
G1 X160.893 Y114.765 E6.90899
G1 X160.93 Y115.255 E6.92535
G1 X160.94 Y141.429 E7.79722
G1 X160.9 Y141.937 E7.81419
G1 X160.763 Y142.489 E7.83314
G1 X158.499 Y149.058 E8.06459
G1 X157.042 Y154.325 E8.24662
G1 X156.428 Y156.981 E8.33743
G1 X155.418 Y162.388 E8.52065
G1 X154.846 Y166.512 E8.65934
G1 X154.737 Y167.01 E8.67632
G1 X154.551 Y167.484 E8.69328
G1 X154.294 Y167.924 E8.71025
G1 X153.97 Y168.318 E8.72724
G1 X153.59 Y168.656 E8.74419
G1 X153.161 Y168.931 E8.76116
G1 X152.694 Y169.136 E8.77815
G1 X152.201 Y169.265 E8.79512
G1 X151.617 Y169.316 E8.81465
G1 X138.402 Y169.275 E9.25485
G1 X137.894 Y169.233 E9.27183
G1 X137.399 Y169.113 E9.28879
G1 X136.929 Y168.917 E9.30576
G1 X136.495 Y168.649 E9.32275
G1 X136.108 Y168.318 E9.33971
G1 X135.778 Y167.929 E9.3567
G1 X135.513 Y167.494 E9.37367
G1 X135.319 Y167.023 E9.39064
G1 X135.204 Y166.549 E9.40689
G1 X133.859 Y158.308 E9.68503
G1 X133.299 Y155.714 E9.77343
G1 X131.908 Y150.391 E9.95669
G1 X130.22 Y145.151 E10.14007
G1 X129.261 Y142.551 E10.23238
G1 X129.122 Y142.061 E10.24935
G1 X129.06 Y141.427 E10.27057
G1 X129.06 Y115.3 E11.14087
G1 X129.1 Y114.792 E11.15784
G1 X129.219 Y114.297 E11.1748
G1 X129.4 Y113.853 E11.19077
G1 X131.765 Y109.097 E11.3677
G1 X132.027 Y108.66 E11.38467
G1 F600 E10.38467
;MESH:
G0 F2625 X134.037 Y110.33
G0 X135.314 Y110.97
G0 X138.65 Y111.796
G0 X138.65 Y111.895
;TYPE:WALL-INNER
G1 F600 E11.38467
G1 F900 X138.186 Y111.958 E11.40027
G1 X137.754 Y112.136 E11.41583
G1 X137.382 Y112.422 E11.43147
G1 X137.099 Y112.792 E11.44698
G1 X136.919 Y113.224 E11.46257
G1 X136.859 Y113.688 E11.47816
G1 X136.919 Y114.151 E11.49371
G1 X137.099 Y114.583 E11.5093
G1 X137.382 Y114.953 E11.52481
G1 X137.754 Y115.239 E11.54044
G1 X138.186 Y115.417 E11.55601
G1 X138.65 Y115.48 E11.57161
G1 X139.114 Y115.417 E11.5872
G1 X139.546 Y115.239 E11.60277
G1 X139.918 Y114.953 E11.6184
G1 X140.201 Y114.583 E11.63391
G1 X140.381 Y114.151 E11.6495
G1 X140.441 Y113.688 E11.66505
G1 X140.381 Y113.224 E11.68064
G1 X140.201 Y112.792 E11.69623
G1 X139.918 Y112.422 E11.71175
G1 X139.546 Y112.136 E11.72738
G1 X139.114 Y111.958 E11.74294
G1 X138.65 Y111.895 E11.75854
G0 F2625 X138.65 Y111.796
G0 X139.567 Y112.103
G0 X145.918 Y114.484
G0 X146.294 Y114.773
G0 X146.585 Y115.154
G0 X146.769 Y115.596
G0 X146.827 Y116.562
G0 X146.731 Y116.534
G1 F900 X146.791 Y116.069 E11.77415
G1 X146.731 Y115.605 E11.78974
G1 X146.551 Y115.173 E11.80533
G1 X146.268 Y114.803 E11.82085
G1 X145.896 Y114.517 E11.83648
G1 X145.463 Y114.338 E11.85208
G1 X145 Y114.278 E11.86763
G1 X144.537 Y114.338 E11.88319
G1 X144.104 Y114.517 E11.89879
G1 X143.732 Y114.803 E11.91442
G1 X143.449 Y115.173 E11.92994
G1 X143.269 Y115.605 E11.94553
G1 X143.209 Y116.069 E11.96111
G1 X143.269 Y116.534 E11.97673
G1 X143.45 Y116.964 E11.99227
G1 X143.732 Y117.335 E12.0078
G1 X144.104 Y117.619 E12.02339
G1 X144.536 Y117.8 E12.03899
G1 X145 Y117.86 E12.05457
G1 X145.464 Y117.8 E12.07016
G1 X145.896 Y117.619 E12.08576
G1 X146.268 Y117.335 E12.10135
G1 X146.55 Y116.964 E12.11687
G1 X146.731 Y116.534 E12.13241
G0 F2625 X146.827 Y116.562
G0 X150.057 Y112.392
G0 X150.433 Y112.103
G0 X151.35 Y111.796
G0 X151.35 Y111.895
G1 F900 X150.886 Y111.958 E12.14801
G1 X150.454 Y112.136 E12.16357
G1 X150.082 Y112.422 E12.1792
G1 X149.799 Y112.792 E12.19472
G1 X149.619 Y113.224 E12.21031
G1 X149.559 Y113.688 E12.2259
G1 X149.619 Y114.151 E12.24145
G1 X149.799 Y114.583 E12.25704
G1 X150.082 Y114.953 E12.27255
G1 X150.454 Y115.239 E12.28818
G1 X150.886 Y115.417 E12.30375
G1 X151.35 Y115.48 E12.31934
G1 X151.814 Y115.417 E12.33494
G1 X152.246 Y115.239 E12.35051
G1 X152.618 Y114.953 E12.36614
G1 X152.901 Y114.583 E12.38165
G1 X153.081 Y114.151 E12.39724
G1 X153.141 Y113.688 E12.41279
G1 X153.081 Y113.224 E12.42838
G1 X152.901 Y112.792 E12.44397
G1 X152.618 Y112.422 E12.45948
G1 X152.246 Y112.136 E12.47512
G1 X151.814 Y111.958 E12.49068
G1 X151.35 Y111.895 E12.50628
G0 F2625 X151.35 Y111.796
G0 X152.267 Y112.103
G0 X152.643 Y112.392
G0 X152.935 Y112.773
G0 X155.125 Y118.813
G0 X155.269 Y119.418
G0 X155.318 Y120.038
G0 X155.269 Y120.657
G0 X155.125 Y121.262
G0 X154.882 Y121.843
G0 X154.563 Y122.364
G0 X154.151 Y122.846
G0 X153.68 Y123.248
G0 X153.155 Y123.569
G0 X152.686 Y123.763
G0 X151.35 Y124.066
G0 X151.35 Y123.966
G1 F900 X151.965 Y123.916 E12.52683
G1 X152.564 Y123.772 E12.54735
G1 X153.133 Y123.536 E12.56787
G1 X153.658 Y123.215 E12.58837
G1 X154.126 Y122.815 E12.60888
G1 X154.528 Y122.346 E12.62945
G1 X154.849 Y121.821 E12.64995
G1 X155.086 Y121.251 E12.67051
G1 X155.229 Y120.651 E12.69106
G1 X155.278 Y120.038 E12.71154
G1 X155.229 Y119.424 E12.73206
G1 X155.086 Y118.824 E12.75261
G1 X154.849 Y118.254 E12.77317
G1 X154.528 Y117.729 E12.79367
G1 X154.126 Y117.26 E12.81424
G1 X153.658 Y116.86 E12.83475
G1 X153.133 Y116.539 E12.85525
G1 X152.564 Y116.303 E12.87577
G1 X151.965 Y116.159 E12.89629
G1 X151.35 Y116.11 E12.91684
G1 X150.735 Y116.159 E12.93739
G1 X150.136 Y116.303 E12.95791
G1 X149.567 Y116.539 E12.97843
G1 X149.042 Y116.86 E12.99893
G1 X148.574 Y117.26 E13.01944
G1 X148.172 Y117.729 E13.04001
G1 X147.851 Y118.254 E13.06051
G1 X147.614 Y118.824 E13.08107
G1 X147.471 Y119.424 E13.10162
G1 X147.422 Y120.038 E13.12214
G1 X147.471 Y120.651 E13.14262
G1 X147.614 Y121.251 E13.16317
G1 X147.851 Y121.821 E13.18373
G1 X148.172 Y122.346 E13.20423
G1 X148.574 Y122.815 E13.2248
G1 X149.042 Y123.215 E13.24531
G1 X149.567 Y123.536 E13.26581
G1 X150.136 Y123.772 E13.28633
G1 X150.735 Y123.916 E13.30685
G1 X151.35 Y123.966 E13.3274
G0 F2625 X151.35 Y124.066
G0 X154.525 Y124.496
G0 X154.525 Y124.595
G1 F900 X154.061 Y124.658 E13.343
G1 X153.629 Y124.836 E13.35856
G1 X153.257 Y125.122 E13.3742
G1 X152.974 Y125.492 E13.38971
G1 X152.794 Y125.924 E13.4053
G1 X152.734 Y126.388 E13.42089
G1 X152.794 Y126.851 E13.43644
G1 X152.974 Y127.283 E13.45203
G1 X153.257 Y127.653 E13.46754
G1 X153.629 Y127.939 E13.48317
G1 X154.061 Y128.117 E13.49874
G1 X154.525 Y128.18 E13.51434
G1 X154.989 Y128.117 E13.52993
G1 X155.421 Y127.939 E13.5455
G1 X155.793 Y127.653 E13.56113
G1 X156.076 Y127.283 E13.57664
G1 X156.256 Y126.851 E13.59223
G1 X156.316 Y126.388 E13.60778
G1 X156.256 Y125.924 E13.62337
G1 X156.076 Y125.492 E13.63896
G1 X155.793 Y125.122 E13.65448
G1 X155.421 Y124.836 E13.67011
G1 X154.989 Y124.658 E13.68567
G1 X154.525 Y124.595 E13.70127
G0 F2625 X154.525 Y124.496
G0 X155.442 Y124.803
G0 X155.818 Y125.092
G0 X156.11 Y125.473
G0 X156.294 Y125.915
G0 X156.356 Y126.388
G0 X156.339 Y126.521
G0 X155.182 Y131.495
G0 X155.086 Y131.524
G1 F900 X154.849 Y130.954 E13.72183
G1 X154.528 Y130.429 E13.74233
G1 X154.126 Y129.96 E13.7629
G1 X153.658 Y129.56 E13.78341
G1 X153.133 Y129.239 E13.80391
G1 X152.564 Y129.003 E13.82443
G1 X151.965 Y128.859 E13.84495
G1 X151.35 Y128.81 E13.8655
G1 X150.735 Y128.859 E13.88605
G1 X150.136 Y129.003 E13.90657
G1 X149.567 Y129.239 E13.92709
G1 X149.042 Y129.56 E13.94759
G1 X148.574 Y129.96 E13.9681
G1 X148.172 Y130.429 E13.98867
G1 X147.851 Y130.954 E14.00917
G1 X147.614 Y131.524 E14.02973
G1 X147.471 Y132.124 E14.05028
G1 X147.422 Y132.738 E14.0708
G1 X147.471 Y133.351 E14.09128
G1 X147.614 Y133.951 E14.11183
G1 X147.851 Y134.521 E14.13239
G1 X148.172 Y135.046 E14.15289
G1 X148.574 Y135.515 E14.17346
G1 X149.042 Y135.915 E14.19397
G1 X149.567 Y136.236 E14.21447
G1 X150.136 Y136.472 E14.23499
G1 X150.735 Y136.616 E14.25551
G1 X151.35 Y136.665 E14.27606
G1 X151.965 Y136.616 E14.29661
G1 X152.564 Y136.472 E14.31713
G1 X153.133 Y136.236 E14.33765
G1 X153.658 Y135.915 E14.35815
G1 X154.126 Y135.515 E14.37866
G1 X154.528 Y135.046 E14.39923
G1 X154.849 Y134.521 E14.41973
G1 X155.086 Y133.951 E14.44029
G1 X155.229 Y133.351 E14.46084
G1 X155.278 Y132.738 E14.48133
G1 X155.229 Y132.124 E14.50184
G1 X155.086 Y131.524 E14.52239
G0 F2625 X155.182 Y131.495
G0 X155.318 Y132.738
G0 X155.269 Y133.357
G0 X155.125 Y133.962
G0 X154.882 Y134.543
G0 X154.563 Y135.064
G0 X154.447 Y135.2
G0 X152.549 Y137.112
G0 X152.619 Y137.182
G1 F900 X152.619 Y140.993 E14.64933
G1 X156.38 Y140.993 E14.77461
G1 X156.431 Y140.993 E14.77631
G1 X156.431 Y140.942 E14.77801
G1 X156.431 Y137.182 E14.90326
G1 X152.619 Y137.182 E15.03024
G0 F2625 X152.549 Y137.112
G0 X146.199 Y137.112
G0 X146.269 Y137.182
G1 F900 X146.269 Y140.993 E15.15718
G1 X150.081 Y140.993 E15.28416
G1 X150.081 Y137.182 E15.41111
G1 X146.269 Y137.182 E15.53809
G0 F2625 X146.199 Y137.112
G0 X146.769 Y134.798
G0 X146.831 Y134.325
G0 X146.769 Y133.852
G0 X146.584 Y133.409
G0 X146.294 Y133.031
G0 X145.916 Y132.741
G0 X145.473 Y132.556
G0 X144.512 Y132.498
G0 X144.536 Y132.594
G1 F900 X144.103 Y132.775 E15.55372
G1 X143.733 Y133.058 E15.56924
G1 X143.45 Y133.428 E15.58475
G1 X143.269 Y133.861 E15.60039
G1 X143.209 Y134.325 E15.61597
G1 X143.269 Y134.789 E15.63156
G1 X143.45 Y135.222 E15.64719
G1 X143.733 Y135.592 E15.66271
G1 X144.103 Y135.875 E15.67822
G1 X144.536 Y136.056 E15.69386
G1 X145 Y136.116 E15.70944
G1 X145.464 Y136.056 E15.72503
G1 X145.897 Y135.875 E15.74066
G1 X146.267 Y135.592 E15.75617
G1 X146.55 Y135.222 E15.77169
G1 X146.731 Y134.789 E15.78732
G1 X146.791 Y134.325 E15.80291
G1 X146.731 Y133.861 E15.81849
G1 X146.55 Y133.428 E15.83413
G1 X146.267 Y133.058 E15.84964
G1 X145.897 Y132.775 E15.86516
G1 X145.464 Y132.594 E15.88079
G1 X145 Y132.534 E15.89638
G1 X144.536 Y132.594 E15.91196
G0 F2625 X144.512 Y132.498
G0 X145 Y130.416
G0 X145 Y130.316
G1 F900 X145.615 Y130.266 E15.93252
G1 X146.214 Y130.122 E15.95304
G1 X146.783 Y129.886 E15.97356
G1 X147.308 Y129.565 E15.99405
G1 X147.776 Y129.165 E16.01456
G1 X148.178 Y128.696 E16.03514
G1 X148.499 Y128.171 E16.05563
G1 X148.736 Y127.601 E16.0762
G1 X148.879 Y127.001 E16.09674
G1 X148.928 Y126.388 E16.11723
G1 X148.879 Y125.774 E16.13775
G1 X148.736 Y125.174 E16.15829
G1 X148.499 Y124.604 E16.17885
G1 X148.178 Y124.079 E16.19935
G1 X147.776 Y123.61 E16.21993
G1 X147.308 Y123.21 E16.24044
G1 X146.783 Y122.889 E16.26093
G1 X146.214 Y122.653 E16.28145
G1 X145.615 Y122.509 E16.30197
G1 X145 Y122.46 E16.32253
G1 X144.385 Y122.509 E16.34308
G1 X143.786 Y122.653 E16.3636
G1 X143.217 Y122.889 E16.38412
G1 X142.692 Y123.21 E16.40461
G1 X142.224 Y123.61 E16.42512
G1 X141.822 Y124.079 E16.4457
G1 X141.501 Y124.604 E16.4662
G1 X141.264 Y125.174 E16.48676
G1 X141.121 Y125.774 E16.5073
G1 X141.072 Y126.388 E16.52782
G1 X141.121 Y127.001 E16.54831
G1 X141.264 Y127.601 E16.56885
G1 X141.501 Y128.171 E16.58942
G1 X141.822 Y128.696 E16.60991
G1 X142.224 Y129.165 E16.63049
G1 X142.692 Y129.565 E16.651
G1 X143.217 Y129.886 E16.67149
G1 X143.786 Y130.122 E16.69201
G1 X144.385 Y130.266 E16.71254
G1 X145 Y130.316 E16.73309
G0 F2625 X145 Y130.416
G0 X142.482 Y131.495
G0 X142.386 Y131.524
G1 F900 X142.149 Y130.954 E16.75365
G1 X141.828 Y130.429 E16.77415
G1 X141.426 Y129.96 E16.79473
G1 X140.958 Y129.56 E16.81523
G1 X140.433 Y129.239 E16.83573
G1 X139.864 Y129.003 E16.85625
G1 X139.265 Y128.859 E16.87677
G1 X138.65 Y128.81 E16.89732
G1 X138.035 Y128.859 E16.91787
G1 X137.436 Y129.003 E16.93839
G1 X136.867 Y129.239 E16.95891
G1 X136.342 Y129.56 E16.97941
G1 X135.874 Y129.96 E16.99992
G1 X135.472 Y130.429 E17.02049
G1 X135.151 Y130.954 E17.04099
G1 X134.914 Y131.524 E17.06156
G1 X134.771 Y132.124 E17.0821
G1 X134.722 Y132.738 E17.10262
G1 X134.771 Y133.351 E17.1231
G1 X134.914 Y133.951 E17.14365
G1 X135.151 Y134.521 E17.16421
G1 X135.472 Y135.046 E17.18471
G1 X135.874 Y135.515 E17.20529
G1 X136.342 Y135.915 E17.22579
G1 X136.867 Y136.236 E17.24629
G1 X137.436 Y136.472 E17.26681
G1 X138.035 Y136.616 E17.28733
G1 X138.65 Y136.665 E17.30788
G1 X139.265 Y136.616 E17.32843
G1 X139.864 Y136.472 E17.34895
G1 X140.433 Y136.236 E17.36947
G1 X140.958 Y135.915 E17.38997
G1 X141.426 Y135.515 E17.41048
G1 X141.828 Y135.046 E17.43106
G1 X142.149 Y134.521 E17.45155
G1 X142.386 Y133.951 E17.47212
G1 X142.529 Y133.351 E17.49266
G1 X142.578 Y132.738 E17.51315
G1 X142.529 Y132.124 E17.53366
G1 X142.386 Y131.524 E17.55421
G0 F2625 X142.482 Y131.495
G0 X142.618 Y132.738
G0 X142.569 Y133.357
G0 X142.425 Y133.962
G0 X142.182 Y134.543
G0 X141.863 Y135.064
G0 X141.747 Y135.2
G0 X139.849 Y137.112
G0 X139.919 Y137.182
G1 F900 X139.919 Y140.993 E17.68116
G1 X143.731 Y140.993 E17.80813
G1 X143.731 Y137.182 E17.93508
G1 X139.919 Y137.182 E18.06206
G0 F2625 X139.849 Y137.112
G0 X133.499 Y137.112
G0 X133.569 Y137.182
G1 F900 X133.569 Y140.942 E18.18731
G1 X133.569 Y140.993 E18.18901
G1 X133.62 Y140.993 E18.1907
G1 X137.381 Y140.993 E18.31598
