;Generated by Cura LulzBot Edition GCodeWriter Version: 3.6.18
;FLAVOR:Marlin
;TIME:606
;Filament used: 0.205368m
;Layer height: 0.25
;Generated with Cura_SteamEngine 3.6.18
M82 ;absolute extrusion mode
;This G-Code has been generated specifically for the LulzBot TAZ 5 with standard extruder
M75			 ; start GLCD timer
M140 S60.0    ; start bed heating up
G90                      ; absolute positioning
M107                     ; disable fans
M82                      ; set extruder to absolute mode
G28 X0 Y0                ; home X and Y
G28 Z0                   ; home Z
G1 Z15.0 F175 ; move extruder up
M117 Heating...                     ; progress indicator message on LCD
M109 R200  ; wait for extruder to reach printing temp
M190 R60.0    ; wait for bed to reach printing temp
G92 E0                   ; set extruder position to 0
G1 F200 E0               ; prime the nozzle with filament
G92 E0                   ; re-set extruder position to 0
G1 F175       ; set travel speed
M203 X192 Y208 Z3        ; set limits on travel speed
M117 TAZ 5 Printing...   ; progress indicator message on LCD

M221 S100 T0
G92 E0
G1 F600 E-1
;LAYER_COUNT:28
;LAYER:0
M107
G0 F2625 X126.06 Y125.745 Z0.425
;TYPE:SKIRT
G1 F600 E0
G1 F900 X126.588 Y125.25 E0.02411
G1 X127.901 Y124.213 E0.07984
G1 X128.453 Y123.843 E0.10198
G1 X129.448 Y123.284 E0.13999
G1 X130.009 Y123.021 E0.16063
G1 X132.38 Y122.112 E0.24522
G1 X132.937 Y121.941 E0.26462
G1 X133.512 Y121.848 E0.28403
G1 X134.244 Y121.844 E0.30841
G1 X137.88 Y122.138 E0.42992
G1 X138.409 Y122.214 E0.44772
G1 X140.093 Y122.567 E0.50504
G1 X140.503 Y122.675 E0.51916
G1 X143.508 Y123.626 E0.62415
G1 X144.19 Y123.909 E0.64875
G1 X149.108 Y126.472 E0.83348
G1 X151.534 Y127.608 E0.92271
G1 X156.551 Y129.703 E1.10381
G1 X161.684 Y131.513 E1.28512
G1 X164.2 Y132.287 E1.3728
G1 X164.744 Y132.496 E1.39221
G1 X165.254 Y132.778 E1.41162
G1 X165.725 Y133.13 E1.43121
G1 X166.247 Y133.58 E1.45417
G1 X166.661 Y133.99 E1.47358
G1 X166.871 Y134.247 E1.48463
G1 X167.097 Y134.548 E1.49717
G1 X167.414 Y135.037 E1.51658
G1 X167.638 Y135.508 E1.53396
G1 X168.011 Y136.431 E1.56712
G1 X168.192 Y136.985 E1.58653
G1 X168.275 Y137.402 E1.60069
G1 X168.346 Y137.883 E1.61689
G1 X168.392 Y138.464 E1.6363
G1 X168.357 Y139.046 E1.65572
G1 X168.299 Y139.386 E1.66721
G1 X168.103 Y140.31 E1.69868
G1 X167.944 Y140.87 E1.71807
G1 X167.709 Y141.404 E1.7375
G1 X167.555 Y141.672 E1.7478
G1 X167.037 Y142.505 E1.78047
G1 X166.696 Y142.978 E1.7999
G1 X166.294 Y143.399 E1.81929
G1 X165.948 Y143.683 E1.8342
G1 X165.307 Y144.155 E1.86071
G1 X164.815 Y144.468 E1.88014
G1 X164.259 Y144.72 E1.90047
G1 X163.541 Y144.985 E1.92597
G1 X162.981 Y145.149 E1.9454
G1 X162.51 Y145.225 E1.9613
G1 X160.006 Y145.486 E2.04516
G1 X154.577 Y146.239 E2.22773
G1 X149.245 Y147.288 E2.40874
G1 X146.678 Y147.907 E2.4967
G1 X139.862 Y149.886 E2.73312
G1 X139.36 Y150 E2.75027
G1 X137.781 Y150.257 E2.80356
G1 X137.103 Y150.312 E2.82622
G1 X136.187 Y150.313 E2.85673
G1 X135.767 Y150.293 E2.87074
G1 X134.382 Y150.157 E2.91709
G1 X134.002 Y150.102 E2.92988
G1 X132.574 Y149.83 E2.97831
G1 X131.874 Y149.633 E3.00253
G1 X130.466 Y149.104 E3.05263
G1 X129.818 Y148.796 E3.07653
G1 X128.386 Y147.96 E3.13176
G1 X127.806 Y147.553 E3.15537
G1 X126.142 Y146.164 E3.22757
G1 X125.565 Y145.579 E3.25494
G1 X124.638 Y144.437 E3.30393
G1 X124.238 Y143.85 E3.3276
G1 X123.207 Y142.026 E3.39739
G1 X122.883 Y141.302 E3.42381
G1 X122.308 Y139.61 E3.48334
G1 X122.134 Y138.904 E3.50756
G1 X121.889 Y137.348 E3.56003
G1 X121.837 Y136.713 E3.58125
G1 X121.828 Y135.219 E3.63102
G1 X121.898 Y134.426 E3.65753
G1 X122.297 Y132.252 E3.73116
G1 X122.53 Y131.442 E3.75924
G1 X123.189 Y129.793 E3.81839
G1 X123.526 Y129.127 E3.84325
G1 X124.458 Y127.627 E3.90208
G1 X124.906 Y127.03 E3.92694
G1 X126.06 Y125.745 E3.98447
G0 F2625 X126.432 Y126.079
G1 F900 X126.898 Y125.642 E4.00575
G1 X128.211 Y124.605 E4.06148
G1 X128.698 Y124.279 E4.081
G1 X129.693 Y123.72 E4.11902
G1 X130.188 Y123.488 E4.13723
G1 X132.559 Y122.579 E4.22181
G1 X133.083 Y122.42 E4.24005
G1 X133.624 Y122.34 E4.25827
G1 X134.203 Y122.342 E4.27756
G1 X137.839 Y122.636 E4.39907
G1 X138.306 Y122.704 E4.41479
G1 X139.99 Y123.057 E4.4721
G1 X140.352 Y123.152 E4.48457
G1 X143.357 Y124.103 E4.58956
G1 X143.959 Y124.352 E4.61126
G1 X148.898 Y126.926 E4.79678
G1 X151.334 Y128.067 E4.88639
G1 X156.356 Y130.164 E5.06767
G1 X161.544 Y131.993 E5.25091
G1 X164.053 Y132.765 E5.33835
G1 X164.563 Y132.964 E5.35659
G1 X165.039 Y133.235 E5.37483
G1 X165.399 Y133.509 E5.3899
G1 X165.921 Y133.959 E5.41286
G1 X166.471 Y134.547 E5.43968
G1 X166.697 Y134.848 E5.45222
G1 X166.993 Y135.309 E5.47047
G1 X167.175 Y135.695 E5.48468
G1 X167.548 Y136.618 E5.51784
G1 X167.715 Y137.139 E5.53607
G1 X167.781 Y137.475 E5.54747
G1 X167.852 Y137.956 E5.56367
G1 X167.892 Y138.502 E5.58191
G1 X167.81 Y139.282 E5.60803
G1 X167.614 Y140.206 E5.63949
G1 X167.462 Y140.732 E5.65773
G1 X167.13 Y141.408 E5.68282
G1 X166.612 Y142.241 E5.71549
G1 X166.29 Y142.684 E5.73374
G1 X165.907 Y143.075 E5.75197
G1 X165.652 Y143.281 E5.76289
G1 X165.011 Y143.753 E5.7894
G1 X164.547 Y144.044 E5.80765
G1 X164.085 Y144.251 E5.82451
G1 X163.367 Y144.516 E5.85001
G1 X162.841 Y144.668 E5.86824
G1 X162.458 Y144.728 E5.88116
G1 X159.914 Y144.994 E5.96636
G1 X154.499 Y145.744 E6.14846
G1 X149.153 Y146.797 E6.32996
G1 X146.554 Y147.423 E6.41901
G1 X139.723 Y149.406 E6.65594
G1 X139.279 Y149.506 E6.6711
G1 X137.7 Y149.763 E6.72439
G1 X137.102 Y149.812 E6.74438
G1 X136.186 Y149.813 E6.77489
G1 X135.816 Y149.795 E6.78723
G1 X134.431 Y149.659 E6.83359
G1 X134.095 Y149.611 E6.84489
G1 X132.667 Y149.339 E6.89332
G1 X132.05 Y149.165 E6.91467
G1 X130.642 Y148.636 E6.96477
G1 X130.07 Y148.365 E6.98586
G1 X128.638 Y147.529 E7.04109
G1 X128.126 Y147.169 E7.06194
G1 X126.462 Y145.78 E7.13414
G1 X125.953 Y145.264 E7.15828
G1 X125.026 Y144.122 E7.20728
G1 X124.673 Y143.604 E7.22816
G1 X123.642 Y141.78 E7.29795
G1 X123.356 Y141.142 E7.32124
G1 X122.781 Y139.45 E7.38077
G1 X122.628 Y138.826 E7.40217
G1 X122.383 Y137.27 E7.45464
G1 X122.337 Y136.71 E7.47336
G1 X122.328 Y135.216 E7.52312
G1 X122.39 Y134.516 E7.54653
G1 X122.789 Y132.342 E7.62016
G1 X122.995 Y131.627 E7.64494
G1 X123.654 Y129.978 E7.7041
G1 X123.951 Y129.391 E7.72601
G1 X124.883 Y127.891 E7.78483
G1 X125.278 Y127.364 E7.80677
G1 X126.432 Y126.079 E7.8643
G0 F2625 X126.804 Y126.413
G1 F900 X127.208 Y126.035 E7.88273
G1 X128.521 Y124.998 E7.93847
G1 X128.943 Y124.715 E7.95539
G1 X129.938 Y124.156 E7.99341
G1 X130.367 Y123.954 E8.0092
G1 X132.738 Y123.045 E8.09379
G1 X133.226 Y122.901 E8.11073
G1 X133.731 Y122.834 E8.1277
G1 X134.163 Y122.841 E8.1421
G1 X137.799 Y123.135 E8.26361
G1 X138.204 Y123.193 E8.27724
G1 X139.888 Y123.546 E8.33455
G1 X140.202 Y123.628 E8.34536
G1 X143.207 Y124.579 E8.45035
G1 X143.728 Y124.796 E8.46915
G1 X148.669 Y127.371 E8.65475
G1 X151.124 Y128.521 E8.74505
G1 X156.186 Y130.634 E8.92777
G1 X161.382 Y132.466 E9.11129
G1 X163.906 Y133.243 E9.19926
G1 X164.38 Y133.43 E9.21623
G1 X164.818 Y133.69 E9.2332
G1 X165.072 Y133.887 E9.24391
G1 X165.594 Y134.337 E9.26687
G1 X166.071 Y134.848 E9.29015
G1 X166.297 Y135.149 E9.30269
G1 X166.57 Y135.579 E9.31966
G1 X166.711 Y135.882 E9.33079
G1 X167.084 Y136.805 E9.36395
G1 X167.238 Y137.291 E9.38093
G1 X167.286 Y137.548 E9.38964
G1 X167.357 Y138.029 E9.40584
G1 X167.392 Y138.538 E9.42283
G1 X167.321 Y139.178 E9.44428
G1 X167.125 Y140.102 E9.47574
G1 X166.981 Y140.591 E9.49272
G1 X166.706 Y141.144 E9.5133
G1 X166.188 Y141.977 E9.54597
G1 X165.886 Y142.387 E9.56293
G1 X165.355 Y142.878 E9.58702
G1 X164.714 Y143.35 E9.61354
G1 X164.281 Y143.619 E9.63052
G1 X163.912 Y143.782 E9.64396
G1 X163.194 Y144.047 E9.66945
G1 X162.704 Y144.185 E9.68641
G1 X162.406 Y144.23 E9.69645
G1 X159.881 Y144.494 E9.78101
G1 X154.425 Y145.25 E9.96449
G1 X149.027 Y146.312 E10.14775
G1 X146.428 Y146.939 E10.23681
G1 X139.583 Y148.926 E10.47423
G1 X139.199 Y149.013 E10.48734
G1 X137.62 Y149.27 E10.54063
G1 X137.102 Y149.312 E10.55794
G1 X136.186 Y149.313 E10.58846
G1 X135.864 Y149.297 E10.5992
G1 X134.479 Y149.161 E10.64555
G1 X134.189 Y149.12 E10.65531
G1 X132.761 Y148.848 E10.70373
G1 X132.226 Y148.697 E10.72225
G1 X130.818 Y148.168 E10.77235
G1 X130.322 Y147.933 E10.79063
G1 X128.89 Y147.097 E10.84587
G1 X128.446 Y146.785 E10.86394
G1 X126.782 Y145.396 E10.93614
G1 X126.342 Y144.949 E10.95704
G1 X125.415 Y143.807 E11.00603
G1 X125.109 Y143.358 E11.02413
G1 X124.078 Y141.534 E11.09392
G1 X123.83 Y140.981 E11.11411
G1 X123.255 Y139.289 E11.17364
G1 X123.122 Y138.749 E11.19216
G1 X122.877 Y137.193 E11.24463
G1 X122.837 Y136.707 E11.26088
G1 X122.828 Y135.213 E11.31064
G1 X122.881 Y134.606 E11.33094
G1 X123.28 Y132.432 E11.40457
G1 X123.459 Y131.813 E11.42603
G1 X124.118 Y130.164 E11.48518
G1 X124.375 Y129.655 E11.50418
G1 X125.307 Y128.155 E11.563
G1 X125.65 Y127.698 E11.58204
G1 X126.804 Y126.413 E11.63957
G1 F600 E10.63957
G0 F2625 X129.358 Y128.789
;TYPE:SUPPORT
G1 F600 E11.63957
G1 F900 X129.843 Y128.706 E11.65596
G1 X130.33 Y128.303 E11.67701
G1 X130.489 Y127.876 E11.69219
G1 X130.712 Y127.718 E11.70129
G1 X131.21 Y127.726 E11.71789
G1 X131.761 Y127.413 E11.73899
G1 X131.989 Y127.02 E11.75413
G1 X132.237 Y126.904 E11.76325
G1 X132.719 Y126.988 E11.77955
G1 X133.311 Y126.771 E11.80055
G1 X133.626 Y126.4 E11.81676
G1 X133.888 Y126.331 E11.82579
G1 X134.672 Y126.626 E11.85369
G1 X134.847 Y126.611 E11.85954
G1 X134.822 Y126.958 E11.87113
G1 X135.056 Y127.258 E11.8838
G1 X135.883 Y127.412 E11.91182
G1 X136.249 Y127.085 E11.92817
G1 X136.227 Y126.77 E11.93869
G1 X136.189 Y126.603 E11.94439
G1 X136.474 Y126.659 E11.95407
G1 X136.452 Y126.745 E11.95703
G1 X136.414 Y127.244 E11.9737
G1 X136.649 Y127.547 E11.98647
G1 X137.429 Y127.688 E12.01287
G1 X137.775 Y127.436 E12.02713
G1 X137.845 Y126.899 E12.04517
G1 X137.837 Y126.745 E12.05031
G1 X138.104 Y126.847 E12.05983
G1 X138.07 Y126.923 E12.0626
G1 X137.937 Y127.461 E12.08106
G1 X138.172 Y127.824 E12.09547
G1 X138.953 Y127.965 E12.1219
G1 X139.277 Y127.767 E12.13455
G1 X139.417 Y127.312 E12.15041
G1 X139.449 Y127.042 E12.15946
G1 X139.608 Y127.086 E12.16496
G1 X139.775 Y127.166 E12.17113
G1 X139.486 Y127.611 E12.1888
G1 X139.7 Y128.101 E12.20661
G1 X140.55 Y128.255 E12.23539
G1 X140.874 Y128.055 E12.24807
G1 X140.97 Y127.735 E12.2592
G1 X141.115 Y127.804 E12.26455
G1 X141.964 Y127.816 E12.29283
G1 X142.182 Y127.972 E12.30176
G1 X142.351 Y128.443 E12.31843
G1 X142.832 Y128.853 E12.33948
G1 X143.304 Y128.94 E12.35547
G1 X143.495 Y129.136 E12.36459
G1 X143.568 Y129.575 E12.37941
G1 X143.968 Y130.063 E12.40043
G1 X144.435 Y130.239 E12.41705
G1 X144.592 Y130.472 E12.42641
G1 X144.585 Y130.911 E12.44104
G1 X144.893 Y131.465 E12.46215
G1 X145.323 Y131.725 E12.47889
G1 X145.435 Y131.973 E12.48795
G1 X145.06 Y134.083 E12.55934
G1 X145.496 Y134.655 E12.5833
G1 X158.823 Y135.904 E13.02917
G1 X158.728 Y136.594 E13.05237
G1 X163.098 Y137.389 E13.20033
G1 X163.284 Y136.951 E13.21618
G1 X163.496 Y137.226 E13.22774
G1 X163.663 Y137.531 E13.23933
G1 X163.784 Y137.862 E13.25107
G1 X163.902 Y138.422 E13.27013
G1 X163.879 Y138.606 E13.27631
G1 X163.885 Y138.731 E13.28047
G1 X163.76 Y139.243 E13.29803
G1 X163.624 Y139.568 E13.30977
G1 X163.445 Y139.863 E13.32126
G1 X163.167 Y140.194 E13.33566
G1 X162.664 Y140.526 E13.35573
G1 X162.364 Y140.662 E13.36671
G1 X162.014 Y140.765 E13.37886
G1 X161.682 Y140.807 E13.39001
G1 X161.329 Y140.8 E13.40177
G1 X153.942 Y140.11 E13.6489
G1 X151.066 Y139.588 E13.74627
G1 X150.588 Y139.753 E13.76311
G1 X145.066 Y139.233 E13.94787
G1 X144.534 Y139.719 E13.97187
G1 X144.534 Y141.58 E14.03386
G1 X144.377 Y141.805 E14.043
G1 X143.906 Y141.969 E14.05961
G1 X143.5 Y142.458 E14.08078
G1 X143.431 Y142.897 E14.09558
G1 X143.231 Y143.092 E14.10489
G1 X142.746 Y143.182 E14.12132
G1 X142.264 Y143.584 E14.14223
G1 X142.103 Y144.006 E14.15727
G1 X141.884 Y144.157 E14.16613
G1 X141.409 Y144.149 E14.18196
G1 X140.857 Y144.457 E14.20301
G1 X140.588 Y144.907 E14.22048
G1 X140.338 Y145.024 E14.22967
G1 X139.875 Y144.934 E14.24538
G1 X139.278 Y145.137 E14.26639
G1 X138.973 Y145.48 E14.28168
G1 X138.694 Y145.553 E14.29128
G1 X138.24 Y145.383 E14.30743
G1 X137.616 Y145.492 E14.32853
G1 X137.244 Y145.807 E14.34477
G1 X136.978 Y145.829 E14.35366
G1 X136.577 Y145.587 E14.36926
G1 X135.948 Y145.569 E14.39022
G1 X135.501 Y145.804 E14.40704
G1 X135.205 Y145.751 E14.41706
G1 X134.869 Y145.447 E14.43215
G1 X134.237 Y145.333 E14.45355
G1 X133.822 Y145.499 E14.46844
G1 X133.529 Y145.445 E14.47836
G1 X133.177 Y145.062 E14.49569
G1 X132.583 Y144.861 E14.51658
G1 X132.14 Y144.94 E14.53157
G1 X131.903 Y144.828 E14.5403
G1 X131.655 Y144.387 E14.55715
G1 X131.113 Y144.064 E14.57817
G1 X130.616 Y144.056 E14.59472
G1 X130.405 Y143.904 E14.60339
G1 X130.258 Y143.501 E14.61768
G1 X129.782 Y143.091 E14.6386
G1 X129.283 Y142.991 E14.65556
G1 X129.089 Y142.787 E14.66493
G1 X129.01 Y142.303 E14.68127
G1 X128.61 Y141.812 E14.70236
G1 X128.151 Y141.639 E14.7187
G1 X128 Y141.415 E14.7277
G1 X128.007 Y140.96 E14.74286
G1 X127.694 Y140.408 E14.764
G1 X127.268 Y140.158 E14.78045
G1 X127.161 Y139.916 E14.78926
G1 X127.257 Y139.441 E14.80541
G1 X127.036 Y138.841 E14.82671
G1 X126.657 Y138.541 E14.84281
G1 X126.589 Y138.28 E14.85179
G1 X126.763 Y137.834 E14.86774
G1 X126.65 Y137.205 E14.88903
G1 X126.341 Y136.854 E14.9046
G1 X126.321 Y136.569 E14.91412
G1 X126.563 Y136.156 E14.93006
G1 X126.557 Y135.521 E14.95122
G1 X126.325 Y135.136 E14.96619
G1 X126.354 Y134.843 E14.976
G1 X126.651 Y134.497 E14.99119
G1 X126.77 Y133.876 E15.01225
G1 X126.614 Y133.428 E15.02805
G1 X126.687 Y133.161 E15.03727
G1 X127.057 Y132.855 E15.05327
G1 X127.277 Y132.26 E15.0744
G1 X127.197 Y131.804 E15.08982
G1 X127.315 Y131.553 E15.09906
G1 X127.733 Y131.316 E15.11506
G1 X128.054 Y130.772 E15.1361
G1 X128.061 Y130.298 E15.15189
G1 X128.214 Y130.08 E15.16077
G1 X128.701 Y129.906 E15.17799
G1 X129.104 Y129.412 E15.19923
G1 X129.165 Y128.981 E15.21373
G1 X129.358 Y128.789 E15.2228
G1 F600 E14.2228
G0 F2625 X132.566 Y133.9
G1 F600 E15.2228
G1 F900 X133.198 Y136.39 E15.30837
G1 X133.633 Y136.469 E15.3231
G1 X133.693 Y136.882 E15.337
G1 X133.915 Y137.114 E15.34769
G1 X135.309 Y137.368 E15.39489
G1 X135.681 Y136.896 E15.41491
G1 X135.656 Y136.839 E15.41699
G1 X136.54 Y137 E15.44692
G1 X136.689 Y137.62 E15.46816
G1 X138.094 Y137.875 E15.51572
G1 X138.371 Y137.759 E15.52573
G1 X138.541 Y137.499 E15.53607
G1 X138.598 Y137.375 E15.54062
G1 X138.97 Y137.442 E15.55321
G1 X140.465 Y135.49 E15.63511
G1 X139.797 Y134.125 E15.68573
G1 X139.436 Y133.604 E15.70685
G1 X138.998 Y133.148 E15.72791
G1 X138.505 Y132.765 E15.7487
G1 X137.956 Y132.461 E15.76961
G1 X137.376 Y132.247 E15.7902
G1 X136.773 Y132.124 E15.8107
G1 X136.204 Y132.089 E15.82969
G1 X135.599 Y132.14 E15.84991
G1 X135.019 Y132.279 E15.86978
G1 X134.453 Y132.503 E15.89006
G1 X133.912 Y132.818 E15.91091
G1 X132.566 Y133.9 E15.96844
G0 F2625 X132.918 Y133.36
G1 F900 X126.839 Y133.36 E16.17093
G1 F600 E15.17093
G0 F2625 X126.692 Y134.756
G1 F600 E16.17093
G1 F900 X126.692 Y135.358 E16.19098
G0 F2625 X126.537 Y135.027
G1 F900 X132.645 Y135.027 E16.39444
G1 F600 E15.39444
G0 F2625 X133.36 Y136.623
G1 F600 E16.39444
G1 F900 X133.36 Y144.966 E16.67235
G0 F2625 X133.417 Y145.029
G1 F900 X139.106 Y145.029 E16.86185
G0 F2625 X138.361 Y145.215
G1 F900 X138.361 Y137.979 E17.10289
G1 F600 E16.10289
G0 F2625 X139.796 Y136.694
G1 F600 E17.10289
G1 F900 X158.513 Y136.694 E17.72636
G0 F2625 X158.365 Y136.063
G1 F900 X158.365 Y140.322 E17.86823
G1 F600 E16.86823
G0 F2625 X160.032 Y140.477
G1 F600 E17.86823
G1 F900 X160.032 Y137.035 E17.98288
G1 F600 E16.98288
G0 F2625 X161.699 Y137.339
G1 F600 E17.98288
G1 F900 X161.699 Y140.604 E18.09164
G1 F600 E17.09164
G0 F2625 X163.046 Y140.028
G1 F600 E18.09164
G1 F900 X155.211 Y140.028 E18.35263
G0 F2625 X155.031 Y140.011
G1 F900 X155.031 Y135.75 E18.49456
G1 F600 E17.49456
G0 F2625 X153.364 Y135.594
G1 F600 E18.49456
G1 F900 X153.364 Y139.801 E18.6347
G1 F600 E17.6347
G0 F2625 X151.697 Y139.498
G1 F600 E18.6347
G1 F900 X151.697 Y135.438 E18.76994
