;Generated by Cura LulzBot Edition GCodeWriter Version: 3.6.18
;FLAVOR:Marlin
;TIME:2071
;Filament used: 1.03568m
;Layer height: 0.25
;Generated with Cura_SteamEngine 3.6.18
M82 ;absolute extrusion mode
;This G-Code has been generated specifically for the LulzBot TAZ 5 with standard extruder
M75			 ; start GLCD timer
M140 S60.0    ; start bed heating up
G90                      ; absolute positioning
M107                     ; disable fans
M82                      ; set extruder to absolute mode
G28 X0 Y0                ; home X and Y
G28 Z0                   ; home Z
G1 Z15.0 F175 ; move extruder up
M117 Heating...                     ; progress indicator message on LCD
M109 R200  ; wait for extruder to reach printing temp
M190 R60.0    ; wait for bed to reach printing temp
G92 E0                   ; set extruder position to 0
G1 F200 E0               ; prime the nozzle with filament
G92 E0                   ; re-set extruder position to 0
G1 F175       ; set travel speed
M203 X192 Y208 Z3        ; set limits on travel speed
M117 TAZ 5 Printing...   ; progress indicator message on LCD

M221 S100 T0
G92 E0
G1 F600 E-1
;LAYER_COUNT:20
;LAYER:0
M107
G0 F3937.5 X47.223 Y129.749 Z0.425
;TYPE:SKIRT
G1 F600 E0
G1 F900 X47.7 Y129.594 E0.01671
G1 X48.457 Y129.412 E0.04264
G1 X49.044 Y129.327 E0.0624
G1 X50.395 Y129.255 E0.10746
G1 X50.568 Y129.25 E0.11323
G1 X240.299 Y129.277 E6.43324
G1 X240.726 Y129.305 E6.44749
G1 X241.458 Y129.402 E6.47209
G1 X242.102 Y129.555 E6.49414
G1 X243.343 Y129.988 E6.53792
G1 X243.809 Y130.193 E6.55488
G1 X244.186 Y130.43 E6.56971
G1 X245.442 Y131.345 E6.62147
G1 X245.999 Y131.861 E6.64677
G1 X246.509 Y132.458 E6.67292
G1 X246.808 Y132.869 E6.68985
G1 X247.212 Y133.527 E6.71557
G1 X247.444 Y133.982 E6.73258
G1 X247.748 Y134.715 E6.75902
G1 X247.906 Y135.199 E6.77598
G1 X248.088 Y135.955 E6.80188
G1 X248.174 Y136.552 E6.82197
G1 X248.225 Y137.563 E6.85569
G1 X248.203 Y138.135 E6.87476
G1 X248.103 Y138.925 E6.90128
G1 X247.948 Y139.587 E6.92393
G1 X247.508 Y140.849 E6.96845
G1 X247.206 Y141.483 E6.99184
G1 X246.802 Y142.139 E7.0175
G1 X246.449 Y142.611 E7.03714
G1 X245.783 Y143.35 E7.07028
G1 X245.234 Y143.835 E7.09468
G1 X244.141 Y144.601 E7.13914
G1 X243.702 Y144.86 E7.15611
G1 X243.286 Y145.029 E7.17107
G1 X241.793 Y145.517 E7.22339
G1 X241.298 Y145.637 E7.24036
G1 X240.956 Y145.673 E7.25181
G1 X239.605 Y145.745 E7.29688
G1 X239.432 Y145.75 E7.30265
G1 X49.701 Y145.723 E13.62265
G1 X49.274 Y145.695 E13.63691
G1 X48.542 Y145.598 E13.6615
G1 X47.895 Y145.443 E13.68367
G1 X46.653 Y145.008 E13.7275
G1 X46.187 Y144.803 E13.74446
G1 X45.946 Y144.66 E13.75379
G1 X45.097 Y144.104 E13.7876
G1 X44.533 Y143.635 E13.81203
G1 X43.614 Y142.677 E13.85625
G1 X43.188 Y142.126 E13.87945
G1 X42.784 Y141.467 E13.9052
G1 X42.552 Y141.011 E13.92224
G1 X42.249 Y140.279 E13.94863
G1 X42.092 Y139.794 E13.96561
G1 X41.911 Y139.039 E13.99148
G1 X41.831 Y138.534 E14.00851
G1 X41.77 Y137.754 E14.03457
G1 X41.78 Y137.144 E14.05489
G1 X41.894 Y136.112 E14.08948
G1 X42.058 Y135.392 E14.11407
G1 X42.499 Y134.137 E14.15838
G1 X42.705 Y133.671 E14.17536
G1 X42.85 Y133.428 E14.18478
G1 X43.4 Y132.592 E14.21812
G1 X43.864 Y132.034 E14.24229
G1 X44.818 Y131.118 E14.28634
G1 X45.377 Y130.687 E14.30986
G1 X46.061 Y130.27 E14.33654
G1 X46.516 Y130.04 E14.35352
G1 X47.223 Y129.749 E14.37899
G1 F600 E13.37899
;MESH:
G0 F3937.5 X49.907 Y131.841
G0 X50.021 Y133.269
G0 X53.683 Y134.563
G0 X53.635 Y134.65
;TYPE:WALL-INNER
G1 F600 E14.37899
G1 F900 X53.13 Y134.427 E14.39738
G1 X52.594 Y134.291 E14.4158
G1 X52.044 Y134.249 E14.43417
G1 X51.497 Y134.3 E14.45247
G1 X50.965 Y134.442 E14.47082
G1 X50.462 Y134.673 E14.48925
G1 X50.008 Y134.985 E14.5076
G1 X49.612 Y135.369 E14.52598
G1 X49.288 Y135.815 E14.54434
G1 X49.043 Y136.309 E14.56271
G1 X48.886 Y136.838 E14.58109
G1 X48.82 Y137.385 E14.59944
G1 X48.847 Y137.938 E14.61788
G1 X48.967 Y138.474 E14.63618
G1 X49.175 Y138.984 E14.65453
G1 X49.469 Y139.452 E14.67294
G1 X49.837 Y139.864 E14.69134
G1 X50.268 Y140.207 E14.70969
G1 X50.751 Y140.472 E14.72804
G1 X51.27 Y140.651 E14.74633
G1 X51.787 Y140.738 E14.76379
G1 X52.081 Y140.751 E14.77359
G1 X52.385 Y140.735 E14.78373
G1 X52.91 Y140.64 E14.80151
G1 X53.429 Y140.453 E14.81988
G1 X53.908 Y140.181 E14.83823
G1 X54.335 Y139.832 E14.8566
G1 X54.695 Y139.416 E14.87493
G1 X54.983 Y138.943 E14.89337
G1 X55.184 Y138.429 E14.91176
G1 X55.296 Y137.891 E14.93006
G1 X55.316 Y137.339 E14.94846
G1 X55.242 Y136.791 E14.96688
G1 X55.076 Y136.266 E14.98522
G1 X54.824 Y135.776 E15.00358
G1 X54.493 Y135.335 E15.02194
G1 X54.093 Y134.957 E15.04028
G1 X53.635 Y134.65 E15.05864
G0 F3937.5 X53.683 Y134.563
G0 X237.908 Y134.209
G0 X238.222 Y134.232
G0 X239.546 Y134.563
G0 X239.498 Y134.65
G1 F900 X238.993 Y134.427 E15.07703
G1 X238.457 Y134.291 E15.09545
G1 X237.908 Y134.249 E15.11379
G1 X237.36 Y134.3 E15.13212
G1 X236.828 Y134.442 E15.15047
G1 X236.325 Y134.673 E15.1689
G1 X235.871 Y134.985 E15.18725
G1 X235.475 Y135.369 E15.20563
G1 X235.151 Y135.815 E15.22399
G1 X234.906 Y136.309 E15.24236
G1 X234.749 Y136.838 E15.26074
G1 X234.683 Y137.385 E15.27909
G1 X234.71 Y137.938 E15.29753
G1 X234.83 Y138.474 E15.31583
G1 X235.039 Y138.985 E15.33422
G1 X235.333 Y139.453 E15.35263
G1 X235.699 Y139.863 E15.37094
G1 X236.131 Y140.207 E15.38933
G1 X236.614 Y140.472 E15.40769
G1 X237.136 Y140.651 E15.42607
G1 X237.678 Y140.741 E15.44437
G1 X238.231 Y140.738 E15.46279
G1 X238.774 Y140.64 E15.48117
G1 X239.292 Y140.453 E15.49951
G1 X239.771 Y140.181 E15.51786
G1 X240.197 Y139.832 E15.53621
G1 X240.56 Y139.416 E15.5546
G1 X240.846 Y138.942 E15.57304
G1 X241.047 Y138.429 E15.59139
G1 X241.159 Y137.891 E15.6097
G1 X241.179 Y137.339 E15.6281
G1 X241.105 Y136.791 E15.64652
G1 X240.939 Y136.266 E15.66486
G1 X240.687 Y135.776 E15.68321
G1 X240.356 Y135.335 E15.70158
G1 X239.956 Y134.957 E15.71991
G1 X239.498 Y134.65 E15.73828
G0 F3937.5 X239.546 Y134.563
G0 X240.647 Y133.402
G0 X240.662 Y133.304
G1 F900 X241.311 Y133.46 E15.76051
G1 X241.931 Y133.717 E15.78287
G1 X242.497 Y134.063 E15.80497
G1 X243.004 Y134.496 E15.82717
G1 X243.437 Y135.003 E15.84938
G1 X243.783 Y135.569 E15.87148
G1 X244.04 Y136.189 E15.89384
G1 X244.196 Y136.838 E15.91607
G1 X244.248 Y137.5 E15.93819
G1 X244.196 Y138.162 E15.96031
G1 X244.04 Y138.811 E15.98254
G1 X243.783 Y139.431 E16.0049
G1 X243.437 Y139.997 E16.027
G1 X243.004 Y140.504 E16.04921
G1 X242.497 Y140.937 E16.07142
G1 X241.931 Y141.283 E16.09351
G1 X241.311 Y141.54 E16.11587
G1 X240.662 Y141.696 E16.1381
G1 X239.979 Y141.75 E16.16093
G1 X50.021 Y141.75 E22.4885
G1 X49.338 Y141.696 E22.51132
G1 X48.689 Y141.54 E22.53355
G1 X48.069 Y141.283 E22.55591
G1 X47.503 Y140.937 E22.57801
G1 X46.996 Y140.504 E22.60022
G1 X46.563 Y139.997 E22.62242
G1 X46.217 Y139.431 E22.64452
G1 X45.96 Y138.811 E22.66688
G1 X45.804 Y138.162 E22.68911
G1 X45.752 Y137.5 E22.71123
G1 X45.804 Y136.838 E22.73335
G1 X45.96 Y136.189 E22.75559
G1 X46.217 Y135.569 E22.77794
G1 X46.563 Y135.003 E22.80004
G1 X46.996 Y134.496 E22.82225
G1 X47.503 Y134.063 E22.84446
G1 X48.069 Y133.717 E22.86656
G1 X48.689 Y133.46 E22.88891
G1 X49.338 Y133.304 E22.91115
G1 X50.021 Y133.25 E22.93397
G1 X239.979 Y133.25 E29.26154
G1 X240.662 Y133.304 E29.28436
G0 F3937.5 X240.743 Y132.809
;TYPE:WALL-OUTER
G1 F900 X241.466 Y132.983 E29.30913
G1 X242.157 Y133.269 E29.33404
G1 X242.794 Y133.659 E29.35892
G1 X243.359 Y134.141 E29.38366
G1 X243.841 Y134.706 E29.4084
G1 X244.231 Y135.343 E29.43328
G1 X244.517 Y136.034 E29.45819
G1 X244.691 Y136.757 E29.48296
G1 X244.749 Y137.5 E29.50778
G1 X244.691 Y138.243 E29.53261
G1 X244.517 Y138.966 E29.55738
G1 X244.231 Y139.657 E29.58229
G1 X243.841 Y140.294 E29.60717
G1 X243.359 Y140.859 E29.63191
G1 X242.794 Y141.341 E29.65665
G1 X242.157 Y141.731 E29.68153
G1 X241.466 Y142.017 E29.70644
G1 X240.743 Y142.191 E29.73121
G1 X239.993 Y142.25 E29.75627
G1 X50.007 Y142.25 E36.08477
G1 X49.257 Y142.191 E36.10983
G1 X48.534 Y142.017 E36.1346
G1 X47.843 Y141.731 E36.15951
G1 X47.206 Y141.341 E36.18439
G1 X46.641 Y140.859 E36.20913
G1 X46.159 Y140.294 E36.23387
G1 X45.769 Y139.657 E36.25875
G1 X45.483 Y138.966 E36.28366
G1 X45.309 Y138.243 E36.30843
G1 X45.251 Y137.5 E36.33326
G1 X45.309 Y136.757 E36.35808
G1 X45.483 Y136.034 E36.38285
G1 X45.769 Y135.343 E36.40776
G1 X46.159 Y134.706 E36.43264
G1 X46.641 Y134.141 E36.45738
G1 X47.206 Y133.659 E36.48212
G1 X47.843 Y133.269 E36.507
G1 X48.534 Y132.983 E36.53191
G1 X49.257 Y132.809 E36.55668
G1 X50.007 Y132.75 E36.58174
G1 X239.993 Y132.75 E42.91024
G1 X240.743 Y132.809 E42.9353
G0 F3937.5 X240.986 Y132.867
G0 X240.846 Y133.45
G0 X236.815 Y134.405
G0 X236.306 Y134.639
G0 X235.846 Y134.955
G0 X235.445 Y135.343
G0 X235.117 Y135.795
G0 X234.869 Y136.295
G0 X234.71 Y136.83
G0 X234.644 Y137.384
G0 X234.665 Y137.836
G0 X234.977 Y139.074
G0 X235.485 Y138.756
G1 F900 X235.734 Y139.151 E42.95086
G1 X236.044 Y139.498 E42.96636
G1 X236.409 Y139.789 E42.98191
G1 X236.817 Y140.013 E42.99741
G1 X237.259 Y140.165 E43.01298
G1 X237.718 Y140.241 E43.02848
G1 X238.185 Y140.238 E43.04404
G1 X238.644 Y140.155 E43.05957
G1 X239.082 Y139.997 E43.07508
G1 X239.487 Y139.767 E43.0906
G1 X239.848 Y139.472 E43.10613
G1 X240.154 Y139.12 E43.12166
G1 X240.396 Y138.72 E43.13724
G1 X240.566 Y138.286 E43.15276
G1 X240.661 Y137.83 E43.16828
G1 X240.678 Y137.364 E43.18381
G1 X240.615 Y136.901 E43.19938
G1 X240.475 Y136.457 E43.21488
G1 X240.262 Y136.042 E43.23042
G1 X239.982 Y135.669 E43.24596
G1 X239.643 Y135.349 E43.26149
G1 X239.256 Y135.09 E43.277
G1 X238.829 Y134.901 E43.29255
G1 X238.376 Y134.786 E43.30812
G1 X237.912 Y134.751 E43.32362
G1 X237.448 Y134.794 E43.33914
G1 X236.998 Y134.914 E43.35466
G1 X236.573 Y135.109 E43.37023
G1 X236.189 Y135.373 E43.38575
G1 X235.854 Y135.698 E43.4013
G1 X235.58 Y136.075 E43.41683
G1 X235.373 Y136.493 E43.43236
G1 X235.24 Y136.94 E43.4479
G1 X235.184 Y137.403 E43.46343
G1 X235.207 Y137.87 E43.47901
G1 X235.309 Y138.324 E43.49451
G1 X235.485 Y138.756 E43.51005
G0 F3937.5 X235.618 Y138.967
G0 X235.111 Y139.286
G0 X52.659 Y134.205
G0 X52.513 Y134.786
G1 F900 X52.048 Y134.751 E43.52558
G1 X51.585 Y134.794 E43.54107
G1 X51.135 Y134.914 E43.55658
G1 X50.71 Y135.109 E43.57216
G1 X50.326 Y135.373 E43.58768
G1 X49.991 Y135.698 E43.60323
G1 X49.717 Y136.075 E43.61875
G1 X49.51 Y136.493 E43.63429
G1 X49.377 Y136.94 E43.64982
G1 X49.321 Y137.403 E43.66536
G1 X49.344 Y137.87 E43.68093
G1 X49.446 Y138.324 E43.69643
G1 X49.622 Y138.755 E43.71194
G1 X49.87 Y139.151 E43.72751
G1 X50.181 Y139.499 E43.74305
G1 X50.546 Y139.789 E43.75858
G1 X50.954 Y140.013 E43.77409
G1 X51.394 Y140.165 E43.78959
G1 X51.839 Y140.24 E43.80462
G1 X52.078 Y140.25 E43.81259
G1 X52.327 Y140.237 E43.8209
G1 X52.78 Y140.155 E43.83623
G1 X53.219 Y139.997 E43.85177
G1 X53.624 Y139.767 E43.86729
G1 X53.985 Y139.472 E43.88282
G1 X54.29 Y139.12 E43.89833
G1 X54.533 Y138.72 E43.91392
G1 X54.703 Y138.286 E43.92945
G1 X54.798 Y137.83 E43.94496
G1 X54.815 Y137.364 E43.9605
G1 X54.752 Y136.901 E43.97606
G1 X54.612 Y136.457 E43.99157
G1 X54.399 Y136.042 E44.00711
G1 X54.119 Y135.669 E44.02264
G1 X53.78 Y135.349 E44.03817
G1 X53.393 Y135.09 E44.05368
G1 X52.966 Y134.901 E44.06924
G1 X52.513 Y134.786 E44.08481
G0 F3937.5 X52.264 Y134.768
G0 X52.309 Y134.17
G0 X52.04 Y133.757
;TYPE:SKIN
G1 F900 X51.411 Y133.816 E44.10585
G1 X50.798 Y133.979 E44.12698
G1 X50.219 Y134.246 E44.14822
G1 X49.696 Y134.605 E44.16935
G1 X49.24 Y135.047 E44.1905
G1 X48.867 Y135.56 E44.21163
G1 X48.585 Y136.129 E44.23279
G1 X48.404 Y136.738 E44.25395
G1 X48.328 Y137.367 E44.27505
G1 X48.359 Y138.004 E44.2963
G1 X48.498 Y138.621 E44.31736
G1 X48.738 Y139.209 E44.33852
G1 X49.077 Y139.748 E44.35973
G1 X49.5 Y140.221 E44.38087
G1 X49.996 Y140.617 E44.40201
G1 X50.551 Y140.921 E44.42309
G1 X51.149 Y141.127 E44.44416
G1 X51.736 Y141.226 E44.46399
G1 X52.083 Y141.241 E44.47555
G1 X52.442 Y141.223 E44.48753
G1 X53.037 Y141.115 E44.50767
G1 X53.635 Y140.9 E44.52884
G1 X54.186 Y140.587 E44.54995
G1 X54.678 Y140.185 E44.57111
G1 X55.093 Y139.706 E44.59222
G1 X55.424 Y139.161 E44.61346
G1 X55.655 Y138.57 E44.6346
G1 X55.784 Y137.95 E44.65569
G1 X55.808 Y137.315 E44.67686
G1 X55.722 Y136.683 E44.69811
G1 X55.531 Y136.078 E44.71924
G1 X55.241 Y135.515 E44.74034
G1 X54.86 Y135.008 E44.76146
G1 X54.4 Y134.573 E44.78255
G1 X53.872 Y134.219 E44.80373
G1 X53.291 Y133.962 E44.82489
G1 X52.674 Y133.805 E44.8461
G1 X52.04 Y133.757 E44.86727
G0 F3937.5 X50.034 Y133.74
G1 F900 X239.966 Y133.74 E51.19398
G1 X240.586 Y133.789 E51.21469
G1 X241.152 Y133.926 E51.23409
G1 X241.713 Y134.157 E51.2543
G1 X242.206 Y134.459 E51.27356
G1 X242.656 Y134.844 E51.29329
G1 X243.041 Y135.294 E51.31301
G1 X243.343 Y135.787 E51.33227
G1 X243.574 Y136.348 E51.35248
G1 X243.711 Y136.914 E51.37188
G1 X243.757 Y137.5 E51.39146
G1 X243.711 Y138.086 E51.41104
G1 X243.574 Y138.652 E51.43044
G1 X243.344 Y139.21 E51.45054
G1 X243.041 Y139.706 E51.4699
G1 X242.656 Y140.156 E51.48963
G1 X242.206 Y140.541 E51.50936
G1 X241.713 Y140.843 E51.52862
G1 X241.152 Y141.074 E51.54883
G1 X240.586 Y141.211 E51.56822
G1 X239.966 Y141.26 E51.58894
G1 X50.034 Y141.26 E57.91564
G1 X49.414 Y141.211 E57.93636
G1 X48.848 Y141.074 E57.95576
G1 X48.287 Y140.843 E57.97597
G1 X47.794 Y140.541 E57.99523
G1 X47.344 Y140.156 E58.01495
G1 X46.959 Y139.706 E58.03468
G1 X46.656 Y139.21 E58.05404
G1 X46.426 Y138.652 E58.07415
G1 X46.289 Y138.086 E58.09354
G1 X46.243 Y137.5 E58.11312
G1 X46.289 Y136.914 E58.1327
G1 X46.426 Y136.348 E58.1521
G1 X46.657 Y135.787 E58.17231
G1 X46.959 Y135.294 E58.19157
G1 X47.344 Y134.844 E58.2113
G1 X47.794 Y134.459 E58.23102
G1 X48.287 Y134.157 E58.25028
G1 X48.848 Y133.926 E58.27049
G1 X49.414 Y133.789 E58.28989
G1 X50.034 Y133.74 E58.31061
G0 F3937.5 X234.191 Y137.367
G1 F900 X234.222 Y138.004 E58.33185
G1 X234.361 Y138.621 E58.35292
G1 X234.602 Y139.21 E58.37412
G1 X234.94 Y139.749 E58.39531
G1 X235.362 Y140.22 E58.41637
G1 X235.858 Y140.616 E58.43752
G1 X236.416 Y140.922 E58.45871
G1 X237.016 Y141.128 E58.47985
G1 X237.639 Y141.231 E58.50088
G1 X238.276 Y141.228 E58.5221
G1 X238.901 Y141.115 E58.54325
G1 X239.498 Y140.9 E58.56439
G1 X240.049 Y140.587 E58.5855
G1 X240.54 Y140.185 E58.60664
G1 X240.958 Y139.706 E58.62781
G1 X241.287 Y139.159 E58.64908
G1 X241.518 Y138.57 E58.67015
G1 X241.647 Y137.95 E58.69125
G1 X241.671 Y137.315 E58.71241
G1 X241.585 Y136.683 E58.73366
G1 X241.394 Y136.078 E58.75479
G1 X241.104 Y135.515 E58.77589
G1 X240.723 Y135.008 E58.79701
G1 X240.263 Y134.573 E58.8181
G1 X239.735 Y134.219 E58.83928
G1 X239.154 Y133.962 E58.86044
G1 X238.537 Y133.805 E58.88165
G1 X237.904 Y133.757 E58.90279
G1 X237.274 Y133.816 E58.92387
G1 X236.661 Y133.979 E58.945
G1 X236.082 Y134.246 E58.96624
G1 X235.559 Y134.605 E58.98737
G1 X235.103 Y135.047 E59.00852
G1 X234.73 Y135.56 E59.02965
G1 X234.448 Y136.129 E59.0508
G1 X234.267 Y136.738 E59.07197
G1 X234.191 Y137.367 E59.09307
G0 F3937.5 X235.117 Y135.795
G0 X235.445 Y135.343
G0 X235.846 Y134.955
G0 X236.306 Y134.639
G0 X236.815 Y134.405
G0 X237.353 Y134.261
G0 X237.908 Y134.209
G0 X238.222 Y134.232
G0 X242.563 Y135.082
G1 F900 X242.416 Y134.936 E59.09997
G0 F3937.5 X241.716 Y136.357
G1 F900 X243.473 Y138.114 E59.18274
G0 F3937.5 X243.323 Y138.671
G1 F900 X241.887 Y137.235 E59.25039
G0 F3937.5 X241.871 Y137.926
G1 F900 X243.108 Y139.163 E59.30866
G0 F3937.5 X242.836 Y139.598
G1 F900 X241.757 Y138.52 E59.35947
G0 F3937.5 X241.573 Y139.042
G1 F900 X242.51 Y139.979 E59.40361
G0 F3937.5 X242.131 Y140.307
G1 F900 X241.336 Y139.512 E59.44106
G0 F3937.5 X241.054 Y139.937
G1 F900 X241.701 Y140.584 E59.47154
G0 F3937.5 X241.213 Y140.804
G1 F900 X240.724 Y140.315 E59.49457
G0 F3937.5 X240.502 Y140.8
G1 F900 X239.97 Y140.975 E59.51476
G0 F3937.5 X239.917 Y140.922
G0 X235.786 Y141.034
G1 F900 X228.717 Y133.964 E59.84779
G0 F3937.5 X229.424 Y133.964
G1 F900 X234.143 Y138.684 E60.07012
G0 F3937.5 X233.987 Y137.82
G1 F900 X230.131 Y133.964 E60.25177
G0 F3937.5 X230.838 Y133.964
G1 F900 X233.993 Y137.12 E60.40041
G0 F3937.5 X234.096 Y136.516
G1 F900 X231.545 Y133.964 E60.52061
