;Generated by Cura LulzBot Edition GCodeWriter Version: 3.6.18
;FLAVOR:Marlin
;TIME:3013
;Filament used: 1.3179m
;Layer height: 0.25
;Generated with Cura_SteamEngine 3.6.18
M82 ;absolute extrusion mode
;This G-Code has been generated specifically for the LulzBot TAZ 5 with standard extruder
M75			 ; start GLCD timer
M140 S60.0    ; start bed heating up
G90                      ; absolute positioning
M107                     ; disable fans
M82                      ; set extruder to absolute mode
G28 X0 Y0                ; home X and Y
G28 Z0                   ; home Z
G1 Z15.0 F175 ; move extruder up
M117 Heating...                     ; progress indicator message on LCD
M109 R200  ; wait for extruder to reach printing temp
M190 R60.0    ; wait for bed to reach printing temp
G92 E0                   ; set extruder position to 0
G1 F200 E0               ; prime the nozzle with filament
G92 E0                   ; re-set extruder position to 0
G1 F175       ; set travel speed
M203 X192 Y208 Z3        ; set limits on travel speed
M117 TAZ 5 Printing...   ; progress indicator message on LCD

M221 S100 T0
G92 E0
G1 F600 E-1
;LAYER_COUNT:220
;LAYER:0
M107
G0 F2625 X131.295 Y122.906 Z0.425
;TYPE:SKIRT
G1 F600 E0
G1 F900 X131.738 Y122.485 E0.02036
G1 X132.388 Y121.95 E0.0484
G1 X132.862 Y121.611 E0.06781
G1 X133.379 Y121.34 E0.08726
G1 X133.8 Y121.181 E0.10225
G1 X134.422 Y120.983 E0.12399
G1 X134.988 Y120.845 E0.1434
G1 X135.709 Y120.783 E0.1675
G1 X154.202 Y120.774 E0.78351
G1 X154.783 Y120.814 E0.80291
G1 X155.399 Y120.946 E0.82389
G1 X156.112 Y121.155 E0.84864
G1 X156.659 Y121.356 E0.86805
G1 X157.238 Y121.673 E0.89004
G1 X157.557 Y121.881 E0.90273
G1 X158.022 Y122.232 E0.92214
G1 X158.522 Y122.746 E0.94602
G1 X159.056 Y123.397 E0.97407
G1 X159.394 Y123.871 E0.99346
G1 X159.663 Y124.388 E1.01287
G1 X159.81 Y124.773 E1.0266
G1 X160.004 Y125.367 E1.04742
G1 X160.147 Y125.932 E1.06683
G1 X160.214 Y126.679 E1.09181
G1 X160.25 Y147.236 E1.77657
G1 X160.245 Y147.449 E1.78367
G1 X160.188 Y148.623 E1.82282
G1 X160.12 Y149.202 E1.84224
G1 X159.973 Y149.766 E1.86166
G1 X159.83 Y150.136 E1.87487
G1 X159.496 Y150.891 E1.90237
G1 X159.224 Y151.407 E1.9218
G1 X158.884 Y151.88 E1.94121
G1 X158.521 Y152.268 E1.9589
G1 X157.998 Y152.76 E1.98282
G1 X157.547 Y153.129 E2.00223
G1 X157.003 Y153.457 E2.02339
G1 X156.621 Y153.65 E2.03765
G1 X156.084 Y153.877 E2.05707
G1 X155.691 Y153.991 E2.0707
G1 X155.197 Y154.109 E2.08762
G1 X154.623 Y154.205 E2.107
G1 X154.21 Y154.225 E2.12078
G1 X135.796 Y154.226 E2.73415
G1 X135.215 Y154.186 E2.75355
G1 X134.598 Y154.054 E2.77457
G1 X133.883 Y153.844 E2.79939
G1 X133.337 Y153.642 E2.81879
G1 X132.755 Y153.323 E2.84089
G1 X132.437 Y153.115 E2.85355
G1 X131.972 Y152.763 E2.87298
G1 X131.475 Y152.251 E2.89675
G1 X130.941 Y151.599 E2.92482
G1 X130.604 Y151.124 E2.94422
G1 X130.334 Y150.607 E2.96365
G1 X130.19 Y150.227 E2.97719
G1 X129.996 Y149.634 E2.99797
G1 X129.853 Y149.069 E3.01738
G1 X129.785 Y148.319 E3.04247
G1 X129.757 Y127.284 E3.74315
G1 X129.777 Y126.868 E3.75702
G1 X129.855 Y126.064 E3.78393
G1 X129.951 Y125.489 E3.80335
G1 X130.124 Y124.933 E3.82275
G1 X130.284 Y124.573 E3.83587
G1 X130.638 Y123.865 E3.86224
G1 X130.933 Y123.363 E3.88163
G1 X131.295 Y122.906 E3.90105
G0 F2625 X131.71 Y123.194
G1 F900 X132.056 Y122.871 E3.91682
G1 X132.706 Y122.336 E3.94486
G1 X133.153 Y122.02 E3.9631
G1 X133.641 Y121.772 E3.98133
G1 X133.952 Y121.658 E3.99236
G1 X134.574 Y121.46 E4.01411
G1 X135.106 Y121.332 E4.03233
G1 X135.709 Y121.283 E4.05249
G1 X154.202 Y121.274 E4.6685
G1 X154.748 Y121.314 E4.68673
G1 X155.259 Y121.425 E4.70415
G1 X155.972 Y121.634 E4.7289
G1 X156.484 Y121.826 E4.74711
G1 X156.965 Y122.092 E4.76542
G1 X157.284 Y122.3 E4.77811
G1 X157.72 Y122.631 E4.79634
G1 X158.135 Y123.063 E4.8163
G1 X158.669 Y123.714 E4.84434
G1 X158.985 Y124.161 E4.86258
G1 X159.232 Y124.65 E4.88083
G1 X159.335 Y124.928 E4.8907
G1 X159.529 Y125.522 E4.91152
G1 X159.66 Y126.053 E4.92974
G1 X159.714 Y126.679 E4.95067
G1 X159.75 Y147.236 E5.63543
G1 X159.746 Y147.425 E5.64173
G1 X159.689 Y148.599 E5.68088
G1 X159.622 Y149.142 E5.6991
G1 X159.477 Y149.67 E5.71734
G1 X159.372 Y149.934 E5.72681
G1 X159.038 Y150.689 E5.75431
G1 X158.781 Y151.172 E5.77253
G1 X158.456 Y151.613 E5.79078
G1 X158.178 Y151.903 E5.80416
G1 X157.655 Y152.395 E5.82808
G1 X157.23 Y152.74 E5.84631
G1 X156.777 Y153.011 E5.8639
G1 X156.395 Y153.204 E5.87815
G1 X155.89 Y153.415 E5.89638
G1 X155.575 Y153.504 E5.90729
G1 X155.081 Y153.622 E5.92421
G1 X154.541 Y153.71 E5.94243
G1 X154.21 Y153.725 E5.95347
G1 X135.796 Y153.726 E6.56684
G1 X135.25 Y153.686 E6.58508
G1 X134.739 Y153.574 E6.60251
G1 X134.024 Y153.364 E6.62733
G1 X133.512 Y153.172 E6.64554
G1 X133.028 Y152.904 E6.66397
G1 X132.71 Y152.696 E6.67663
G1 X132.275 Y152.364 E6.69486
G1 X131.862 Y151.934 E6.71472
G1 X131.328 Y151.282 E6.74279
G1 X131.013 Y150.834 E6.76103
G1 X130.766 Y150.346 E6.77925
G1 X130.665 Y150.072 E6.78898
G1 X130.471 Y149.479 E6.80976
G1 X130.339 Y148.948 E6.82799
G1 X130.285 Y148.318 E6.84905
G1 X130.257 Y127.283 E7.54974
G1 X130.275 Y126.916 E7.56198
G1 X130.353 Y126.112 E7.58888
G1 X130.445 Y125.572 E7.60713
G1 X130.615 Y125.052 E7.62535
G1 X130.731 Y124.797 E7.63469
G1 X131.085 Y124.089 E7.66105
G1 X131.365 Y123.619 E7.67928
G1 X131.71 Y123.194 E7.69751
G0 F2625 X132.123 Y123.486
G1 F900 X132.374 Y123.257 E7.70883
G1 X133.024 Y122.722 E7.73687
G1 X133.441 Y122.43 E7.75383
G1 X134.103 Y122.134 E7.77798
G1 X134.725 Y121.936 E7.79973
G1 X135.221 Y121.82 E7.81669
G1 X135.709 Y121.783 E7.833
G1 X154.202 Y121.774 E8.44901
G1 X154.71 Y121.814 E8.46598
G1 X155.118 Y121.905 E8.4799
G1 X155.831 Y122.114 E8.50465
G1 X156.307 Y122.295 E8.52162
G1 X156.692 Y122.511 E8.53632
G1 X157.011 Y122.719 E8.54901
G1 X157.415 Y123.029 E8.56597
G1 X157.749 Y123.38 E8.58211
G1 X158.283 Y124.031 E8.61016
G1 X158.574 Y124.449 E8.62712
G1 X158.859 Y125.083 E8.65028
G1 X159.053 Y125.677 E8.67109
G1 X159.173 Y126.172 E8.68806
G1 X159.214 Y126.68 E8.70503
G1 X159.25 Y147.237 E9.3898
G1 X159.246 Y147.401 E9.39526
G1 X159.189 Y148.575 E9.43441
G1 X159.125 Y149.08 E9.45137
G1 X158.915 Y149.732 E9.47419
G1 X158.581 Y150.487 E9.50169
G1 X158.339 Y150.935 E9.51865
G1 X158.03 Y151.34 E9.53562
G1 X157.836 Y151.539 E9.54487
G1 X157.313 Y152.031 E9.56879
G1 X156.916 Y152.35 E9.58576
G1 X156.552 Y152.565 E9.59984
G1 X156.17 Y152.758 E9.6141
G1 X155.459 Y153.018 E9.63931
G1 X154.965 Y153.136 E9.65623
G1 X154.21 Y153.225 E9.68156
G1 X135.796 Y153.226 E10.29493
G1 X135.288 Y153.186 E10.31191
G1 X134.88 Y153.094 E10.32584
G1 X134.165 Y152.884 E10.35066
G1 X133.689 Y152.703 E10.36762
G1 X133.302 Y152.486 E10.3824
G1 X132.984 Y152.278 E10.39506
G1 X132.581 Y151.966 E10.41204
G1 X132.249 Y151.617 E10.42808
G1 X131.715 Y150.965 E10.45616
G1 X131.424 Y150.547 E10.47312
G1 X131.14 Y149.917 E10.49614
G1 X130.946 Y149.324 E10.51692
G1 X130.826 Y148.828 E10.53392
G1 X130.785 Y148.317 E10.551
G1 X130.757 Y127.282 E11.25168
G1 X130.772 Y126.964 E11.26229
G1 X130.85 Y126.16 E11.2892
G1 X130.939 Y125.658 E11.30618
G1 X131.178 Y125.021 E11.32884
G1 X131.532 Y124.313 E11.35521
G1 X131.795 Y123.876 E11.3722
G1 X132.123 Y123.486 E11.38917
G1 F600 E10.38917
;MESH:
G0 F2625 X135.593 Y124.367
G0 X136.019 Y125.77
G0 X154.178 Y125.865
G0 X154.193 Y125.767
;TYPE:WALL-INNER
G1 F600 E11.38917
G1 F900 X154.384 Y125.813 E11.39572
G1 X154.569 Y125.889 E11.40238
G1 X154.729 Y125.988 E11.40865
G1 X154.881 Y126.119 E11.41533
G1 X155.012 Y126.271 E11.42201
G1 X155.111 Y126.431 E11.42828
G1 X155.187 Y126.616 E11.43494
G1 X155.232 Y126.801 E11.44129
G1 X155.25 Y127.072 E11.45033
G1 X155.25 Y147.931 E12.14515
G1 X155.232 Y148.198 E12.15407
G1 X155.187 Y148.384 E12.16044
G1 X155.112 Y148.567 E12.16703
G1 X155.014 Y148.728 E12.17331
G1 X154.883 Y148.879 E12.17997
G1 X154.731 Y149.01 E12.18665
G1 X154.573 Y149.108 E12.19284
G1 X154.385 Y149.185 E12.19961
G1 X154.191 Y149.232 E12.20626
G1 X153.981 Y149.249 E12.21328
G1 X136.02 Y149.25 E12.81157
G1 X135.807 Y149.233 E12.81868
G1 X135.616 Y149.187 E12.82523
G1 X135.431 Y149.111 E12.83189
G1 X135.271 Y149.012 E12.83816
G1 X135.119 Y148.881 E12.84484
G1 X134.988 Y148.729 E12.85153
G1 X134.889 Y148.569 E12.85779
G1 X134.813 Y148.384 E12.86446
G1 X134.768 Y148.2 E12.87077
G1 X134.75 Y147.928 E12.87985
G1 X134.75 Y127.07 E13.57463
G1 X134.768 Y126.802 E13.58358
G1 X134.813 Y126.616 E13.58996
G1 X134.888 Y126.433 E13.59654
G1 X134.986 Y126.272 E13.60282
G1 X135.117 Y126.121 E13.60948
G1 X135.269 Y125.99 E13.61616
G1 X135.427 Y125.892 E13.62236
G1 X135.615 Y125.815 E13.62912
G1 X135.809 Y125.768 E13.63577
G1 X136.019 Y125.751 E13.64279
G1 X153.98 Y125.75 E14.24108
G1 X154.193 Y125.767 E14.2482
G0 F2625 X154.274 Y125.272
;TYPE:WALL-OUTER
G1 F900 X154.539 Y125.336 E14.25728
G1 X154.798 Y125.443 E14.26661
G1 X155.024 Y125.582 E14.27545
G1 X155.236 Y125.764 E14.28476
G1 X155.418 Y125.976 E14.29407
G1 X155.557 Y126.202 E14.3029
G1 X155.664 Y126.461 E14.31224
G1 X155.728 Y126.726 E14.32132
G1 X155.75 Y127.054 E14.33227
G1 X155.75 Y147.95 E15.02832
G1 X155.728 Y148.272 E15.03907
G1 X155.664 Y148.539 E15.04822
G1 X155.56 Y148.794 E15.05739
G1 X155.42 Y149.022 E15.0663
G1 X155.238 Y149.234 E15.07561
G1 X155.026 Y149.416 E15.08492
G1 X154.8 Y149.555 E15.09376
G1 X154.542 Y149.662 E15.10306
G1 X154.274 Y149.727 E15.11225
G1 X153.995 Y149.749 E15.12157
G1 X136.007 Y149.75 E15.72076
G1 X135.726 Y149.728 E15.73015
G1 X135.461 Y149.664 E15.73923
G1 X135.202 Y149.557 E15.74856
G1 X134.976 Y149.418 E15.7574
G1 X134.764 Y149.236 E15.76671
G1 X134.582 Y149.024 E15.77601
G1 X134.443 Y148.798 E15.78485
G1 X134.336 Y148.539 E15.79419
G1 X134.272 Y148.274 E15.80327
G1 X134.25 Y147.947 E15.81418
G1 X134.25 Y127.051 E16.51024
G1 X134.272 Y126.728 E16.52102
G1 X134.336 Y126.461 E16.53017
G1 X134.44 Y126.206 E16.53934
G1 X134.58 Y125.978 E16.54825
G1 X134.762 Y125.766 E16.55756
G1 X134.974 Y125.584 E16.56687
G1 X135.2 Y125.445 E16.57571
G1 X135.458 Y125.338 E16.58501
G1 X135.726 Y125.273 E16.59419
G1 X136.005 Y125.251 E16.60352
G1 X153.993 Y125.25 E17.2027
G1 X154.274 Y125.272 E17.21209
G0 F2625 X154.517 Y125.33
G0 X154.233 Y126.28
;TYPE:SKIN
G1 F900 X154.341 Y126.325 E17.21599
G1 X154.441 Y126.386 E17.21989
G1 X154.534 Y126.466 E17.22398
G1 X154.614 Y126.559 E17.22806
G1 X154.675 Y126.658 E17.23194
G1 X154.719 Y126.767 E17.23585
G1 X154.747 Y126.881 E17.23976
G1 X154.76 Y127.072 E17.24614
G1 X154.76 Y147.931 E17.94096
G1 X154.747 Y148.119 E17.94724
G1 X154.719 Y148.234 E17.95118
G1 X154.676 Y148.339 E17.95496
G1 X154.615 Y148.44 E17.95889
G1 X154.53 Y148.538 E17.96321
G1 X154.443 Y148.613 E17.96704
G1 X154.351 Y148.67 E17.97064
G1 X154.235 Y148.717 E17.97481
G1 X154.111 Y148.748 E17.97907
G1 X153.967 Y148.759 E17.98388
G1 X136.033 Y148.76 E18.58127
G1 X135.885 Y148.748 E18.58622
G1 X135.767 Y148.72 E18.59026
G1 X135.659 Y148.675 E18.59415
G1 X135.559 Y148.614 E18.59805
G1 X135.466 Y148.534 E18.60214
G1 X135.386 Y148.441 E18.60623
G1 X135.325 Y148.342 E18.6101
G1 X135.281 Y148.235 E18.61395
G1 X135.252 Y148.119 E18.61794
G1 X135.24 Y147.928 E18.62431
G1 X135.24 Y127.07 E19.3191
G1 X135.253 Y126.881 E19.32541
G1 X135.281 Y126.766 E19.32935
G1 X135.324 Y126.661 E19.33313
G1 X135.385 Y126.56 E19.33706
G1 X135.47 Y126.462 E19.34138
G1 X135.557 Y126.387 E19.34521
G1 X135.649 Y126.33 E19.34882
G1 X135.765 Y126.283 E19.35298
G1 X135.889 Y126.252 E19.35724
G1 X136.033 Y126.241 E19.36205
G1 X153.967 Y126.24 E19.95944
G1 X154.115 Y126.252 E19.96439
G1 X154.233 Y126.28 E19.96843
G0 F2625 X154.526 Y126.949
G1 F900 X154.048 Y126.471 E19.99094
G0 F2625 X153.336 Y126.466
G1 F900 X154.534 Y127.664 E20.04738
G0 F2625 X154.534 Y128.371
G1 F900 X152.628 Y126.466 E20.13714
G0 F2625 X151.921 Y126.466
G1 F900 X154.534 Y129.078 E20.26021
G0 F2625 X154.534 Y129.785
G1 F900 X151.214 Y126.466 E20.41659
G0 F2625 X150.507 Y126.466
G1 F900 X154.534 Y130.493 E20.60629
G0 F2625 X154.534 Y131.2
G1 F900 X149.8 Y126.466 E20.8293
G0 F2625 X149.093 Y126.466
G1 F900 X154.534 Y131.907 E21.08562
G0 F2625 X154.534 Y132.614
G1 F900 X148.386 Y126.466 E21.37524
G0 F2625 X147.679 Y126.466
G1 F900 X154.534 Y133.321 E21.69816
G0 F2625 X154.534 Y134.028
G1 F900 X146.972 Y126.466 E22.05439
G0 F2625 X146.265 Y126.466
G1 F900 X154.534 Y134.735 E22.44393
G0 F2625 X154.534 Y135.442
G1 F900 X145.557 Y126.466 E22.86679
G0 F2625 X144.85 Y126.466
G1 F900 X154.534 Y136.149 E23.32296
G0 F2625 X154.534 Y136.856
G1 F900 X144.143 Y126.466 E23.81244
G0 F2625 X143.436 Y126.466
G1 F900 X154.534 Y137.564 E24.33524
G0 F2625 X154.534 Y138.271
G1 F900 X142.729 Y126.466 E24.89135
G0 F2625 X142.022 Y126.466
G1 F900 X154.534 Y138.978 E25.48076
G0 F2625 X154.534 Y139.685
G1 F900 X141.315 Y126.466 E26.10349
G0 F2625 X140.608 Y126.466
G1 F900 X154.534 Y140.392 E26.75951
G0 F2625 X154.534 Y141.099
G1 F900 X139.901 Y126.466 E27.44884
G0 F2625 X139.193 Y126.466
G1 F900 X154.534 Y141.806 E28.1715
G0 F2625 X154.534 Y142.513
G1 F900 X138.486 Y126.466 E28.92747
G0 F2625 X137.779 Y126.466
G1 F900 X154.534 Y143.22 E29.71674
G0 F2625 X154.534 Y143.928
G1 F900 X137.072 Y126.466 E30.53934
G0 F2625 X136.365 Y126.466
G1 F900 X154.534 Y144.635 E31.39524
G0 F2625 X154.534 Y145.342
G1 F900 X135.734 Y126.542 E32.28087
G0 F2625 X135.468 Y126.983
G1 F900 X154.534 Y146.049 E33.17903
G0 F2625 X154.534 Y146.756
G1 F900 X135.463 Y127.685 E34.07743
G0 F2625 X135.463 Y128.392
G1 F900 X154.534 Y147.463 E34.97582
G0 F2625 X154.509 Y148.145
G1 F900 X135.463 Y129.1 E35.87302
G0 F2625 X135.463 Y129.807
G1 F900 X154.159 Y148.503 E36.75375
G0 F2625 X153.483 Y148.533
G1 F900 X135.463 Y130.514 E37.60261
G0 F2625 X135.463 Y131.221
G1 F900 X152.776 Y148.533 E38.41817
G0 F2625 X152.068 Y148.533
G1 F900 X135.463 Y131.928 E39.20039
G0 F2625 X135.463 Y132.635
G1 F900 X151.361 Y148.533 E39.94932
G0 F2625 X150.654 Y148.533
G1 F900 X135.463 Y133.342 E40.66493
G0 F2625 X135.463 Y134.049
G1 F900 X149.947 Y148.533 E41.34725
G0 F2625 X149.24 Y148.533
G1 F900 X135.463 Y134.756 E41.99625
G0 F2625 X135.463 Y135.463
G1 F900 X148.533 Y148.533 E42.61195
G0 F2625 X147.826 Y148.533
G1 F900 X135.463 Y136.171 E43.19432
G0 F2625 X135.463 Y136.878
G1 F900 X147.119 Y148.533 E43.74339
G0 F2625 X146.412 Y148.533
G1 F900 X135.463 Y137.585 E44.25915
G0 F2625 X135.463 Y138.292
G1 F900 X145.705 Y148.533 E44.74161
G0 F2625 X144.997 Y148.533
G1 F900 X135.463 Y138.999 E45.19074
G0 F2625 X135.463 Y139.706
G1 F900 X144.29 Y148.533 E45.60656
G0 F2625 X143.583 Y148.533
G1 F900 X135.463 Y140.413 E45.98908
G0 F2625 X135.463 Y141.12
G1 F900 X142.876 Y148.533 E46.33829
G0 F2625 X142.169 Y148.533
G1 F900 X135.463 Y141.827 E46.65419
G0 F2625 X135.463 Y142.535
G1 F900 X141.462 Y148.533 E46.93677
G0 F2625 X140.755 Y148.533
G1 F900 X135.463 Y143.242 E47.18604
G0 F2625 X135.463 Y143.949
G1 F900 X140.048 Y148.533 E47.40201
G0 F2625 X139.341 Y148.533
M104 S195
G1 F900 X135.463 Y144.656 E47.58467
G0 F2625 X135.463 Y145.363
G1 F900 X138.633 Y148.533 E47.734
G0 F2625 X137.926 Y148.533
G1 F900 X135.463 Y146.07 E47.85003
G0 F2625 X135.463 Y146.777
G1 F900 X137.219 Y148.533 E47.93275
G0 F2625 X136.512 Y148.533
G1 F900 X135.463 Y147.484 E47.98217
G0 F2625 X135.552 Y148.28
G1 F900 X135.72 Y148.448 E47.99008
;MESH:NONMESH
G0 F2625 X154.172 Y125.864
G0 X154.196 Y125.768
;TIME_ELAPSED:114.026164
;LAYER:1
M140 S60
M221 S100 T0
M106 S68
;MESH:
G0 F6562.5 X154.196 Y125.768 Z0.675
;TYPE:WALL-INNER
G1 F1800 X154.385 Y125.813 E47.99389
G1 X154.56 Y125.885 E47.9976
G1 X154.73 Y125.989 E48.0015
G1 X154.881 Y126.118 E48.00539
G1 X155.011 Y126.268 E48.00928
G1 X155.105 Y126.422 E48.01282
G1 X155.185 Y126.615 E48.01691
G1 X155.231 Y126.805 E48.02074
G1 X155.249 Y127.017 E48.02491
G1 X155.25 Y147.98 E48.43567
G1 X155.233 Y148.193 E48.43985
G1 X155.187 Y148.384 E48.4437
G1 X155.111 Y148.569 E48.44762
G1 X155.012 Y148.729 E48.45131
G1 X154.881 Y148.881 E48.45524
G1 X154.729 Y149.012 E48.45917
G1 X154.569 Y149.111 E48.46286
G1 X154.384 Y149.187 E48.46678
G1 X154.193 Y149.233 E48.47063
G1 X153.98 Y149.25 E48.47481
G1 X136.02 Y149.25 E48.82673
G1 X135.807 Y149.233 E48.83091
G1 X135.616 Y149.187 E48.83476
