;Generated by Cura LulzBot Edition GCodeWriter Version: 3.6.18
;FLAVOR:Marlin
;TIME:259
;Filament used: 0.117234m
;Layer height: 0.25
;Generated with Cura_SteamEngine 3.6.18
M82 ;absolute extrusion mode
;This G-Code has been generated specifically for the LulzBot TAZ 5 with standard extruder
M75			 ; start GLCD timer
M140 S60.0    ; start bed heating up
G90                      ; absolute positioning
M107                     ; disable fans
M82                      ; set extruder to absolute mode
G28 X0 Y0                ; home X and Y
G28 Z0                   ; home Z
G1 Z15.0 F175 ; move extruder up
M117 Heating...                     ; progress indicator message on LCD
M109 R200  ; wait for extruder to reach printing temp
M190 R60.0    ; wait for bed to reach printing temp
G92 E0                   ; set extruder position to 0
G1 F200 E0               ; prime the nozzle with filament
G92 E0                   ; re-set extruder position to 0
G1 F175       ; set travel speed
M203 X192 Y208 Z3        ; set limits on travel speed
M117 TAZ 5 Printing...   ; progress indicator message on LCD

M221 S100 T0
G92 E0
G1 F600 E-1
;LAYER_COUNT:11
;LAYER:0
M107
G0 F3937.5 X140.769 Y85.44 Z0.425
;TYPE:SKIRT
G1 F600 E0
G1 F900 X141.104 Y85.007 E0.01824
G1 X141.498 Y84.627 E0.03647
G1 X141.943 Y84.308 E0.05471
G1 X142.43 Y84.058 E0.07294
G1 X142.948 Y83.881 E0.09118
G1 X143.486 Y83.782 E0.1094
G1 X143.899 Y83.759 E0.12318
G1 X146.105 Y83.76 E0.19666
G1 X146.651 Y83.8 E0.2149
G1 X147.185 Y83.919 E0.23312
G1 X147.696 Y84.115 E0.25135
G1 X148.173 Y84.383 E0.26958
G1 X148.606 Y84.718 E0.28781
G1 X148.986 Y85.112 E0.30605
G1 X149.304 Y85.557 E0.32427
G1 X149.555 Y86.044 E0.34252
G1 X149.731 Y86.562 E0.36074
G1 X149.831 Y87.1 E0.37897
G1 X149.853 Y87.51 E0.39264
G1 X149.853 Y187.49 E3.72301
G1 X149.813 Y188.036 E3.74125
G1 X149.694 Y188.57 E3.75947
G1 X149.499 Y189.081 E3.77769
G1 X149.231 Y189.559 E3.79595
G1 X148.896 Y189.992 E3.81418
G1 X148.502 Y190.372 E3.83242
G1 X148.057 Y190.691 E3.85066
G1 X147.57 Y190.941 E3.86889
G1 X147.052 Y191.118 E3.88712
G1 X146.514 Y191.217 E3.90535
G1 X146.105 Y191.24 E3.91899
G1 X143.899 Y191.241 E3.99247
G1 X143.353 Y191.201 E4.01071
G1 X142.818 Y191.083 E4.02896
G1 X142.307 Y190.887 E4.04719
G1 X141.83 Y190.62 E4.0654
G1 X141.396 Y190.285 E4.08366
G1 X141.016 Y189.892 E4.10187
G1 X140.697 Y189.447 E4.12011
G1 X140.447 Y188.96 E4.13834
G1 X140.27 Y188.442 E4.15658
G1 X140.17 Y187.904 E4.17481
G1 X140.147 Y187.491 E4.18859
G1 X140.147 Y87.509 E7.51902
G1 X140.187 Y86.963 E7.53726
G1 X140.306 Y86.429 E7.55548
G1 X140.501 Y85.918 E7.5737
G1 X140.769 Y85.44 E7.59196
G0 F3937.5 X141.267 Y85.6
G1 F900 X141.597 Y85.213 E7.6089
G1 X141.984 Y84.881 E7.62588
G1 X142.419 Y84.615 E7.64287
G1 X142.889 Y84.419 E7.65983
G1 X143.384 Y84.3 E7.67679
G1 X143.898 Y84.259 E7.69396
G1 X146.104 Y84.26 E7.76745
G1 X146.612 Y84.3 E7.78442
G1 X147.108 Y84.419 E7.80141
G1 X147.579 Y84.614 E7.81839
G1 X148.013 Y84.88 E7.83535
G1 X148.4 Y85.211 E7.85231
G1 X148.731 Y85.599 E7.8693
G1 X148.998 Y86.033 E7.88627
G1 X149.193 Y86.503 E7.90322
G1 X149.313 Y86.999 E7.92022
G1 X149.353 Y87.51 E7.93729
G1 X149.353 Y187.49 E11.26766
G1 X149.313 Y187.998 E11.28464
G1 X149.194 Y188.493 E11.3016
G1 X148.999 Y188.964 E11.31858
G1 X148.733 Y189.399 E11.33556
G1 X148.403 Y189.786 E11.3525
G1 X148.016 Y190.118 E11.36949
G1 X147.581 Y190.384 E11.38647
G1 X147.111 Y190.58 E11.40343
G1 X146.616 Y190.699 E11.42039
G1 X146.104 Y190.74 E11.4375
G1 X143.898 Y190.741 E11.51099
G1 X143.391 Y190.701 E11.52793
G1 X142.895 Y190.583 E11.54491
G1 X142.424 Y190.388 E11.56189
G1 X141.989 Y190.122 E11.57887
G1 X141.602 Y189.792 E11.59582
G1 X141.27 Y189.405 E11.6128
G1 X141.003 Y188.971 E11.62977
G1 X140.808 Y188.5 E11.64675
G1 X140.688 Y188.005 E11.66372
G1 X140.647 Y187.491 E11.6809
G1 X140.647 Y87.509 E15.01133
G1 X140.687 Y87.001 E15.02831
G1 X140.806 Y86.506 E15.04527
G1 X141.001 Y86.035 E15.06225
G1 X141.267 Y85.6 E15.07923
G1 F600 E14.07923
;MESH:
G0 F3937.5 X143.223 Y88.264
G0 X144.652 Y88.264
G0 X145.292 Y122.68
G0 X145.362 Y122.75
;TYPE:WALL-INNER
G1 F600 E15.07923
G1 F900 X144.638 Y122.75 E15.10335
G1 X144.638 Y88.25 E16.25255
G1 X145.362 Y88.25 E16.27667
G1 X145.362 Y122.75 E17.42588
G0 F3937.5 X145.862 Y123.25
;TYPE:WALL-OUTER
G1 F900 X144.138 Y123.25 E17.48331
G1 X144.138 Y87.75 E18.66582
G1 X145.862 Y87.75 E18.72325
G1 X145.862 Y123.25 E19.90577
G0 F3937.5 X145.612 Y123.25
G0 X144.999 Y122.371
;TYPE:SKIN
G1 F900 X144.999 Y121.664 E19.91885
G1 X144.999 Y89.137 E20.52049
G1 X145.089 Y88.52 E20.53202
G0 F3937.5 X144.862 Y88.75
G1 F600 E19.53202
G0 F3937.5 X145.261 Y122.73
G0 X145.261 Y124.165
G0 X145.261 Y126.835
G0 X145.261 Y128.27
G0 X145.261 Y162.5
G0 X145.362 Y162.5
;TYPE:WALL-INNER
G1 F600 E20.53202
G1 F900 X145.362 Y162.75 E20.54035
G1 X145.112 Y162.75 E20.54574
G1 X144.638 Y162.75 E20.56153
G1 X144.638 Y128.25 E21.71073
G1 X145.361 Y128.25 E21.73482
G1 X145.362 Y162.5 E22.8757
G0 F3937.5 X145.862 Y163
;TYPE:WALL-OUTER
G1 F900 X145.862 Y163.25 E22.88402
G1 X145.612 Y163.25 E22.88941
G1 X144.138 Y163.25 E22.93851
G1 X144.138 Y127.75 E24.12103
G1 X145.861 Y127.75 E24.17842
G1 X145.862 Y163 E25.35261
G0 F3937.5 X145.862 Y163.25
G0 X145.292 Y162.68
G0 X145.136 Y162.107
G0 X144.999 Y161.97
;TYPE:SKIN
G1 F900 X144.999 Y161.262 E25.36584
G1 X144.999 Y128.736 E25.97332
G0 F3937.5 X144.861 Y128.598
G1 F600 E24.97332
G0 F3937.5 X145.261 Y162.73
G0 X145.261 Y164.165
G0 X145.261 Y166.835
G0 X145.261 Y168.27
G0 X145.261 Y186.5
G0 X145.362 Y186.5
;TYPE:WALL-INNER
G1 F600 E25.97332
G1 F900 X145.362 Y186.75 E25.98165
G1 X145.112 Y186.75 E25.98704
G1 X144.638 Y186.75 E26.00282
G1 X144.638 Y168.25 E26.61907
G1 X145.361 Y168.25 E26.64315
G1 X145.362 Y186.5 E27.25106
G0 F3937.5 X145.862 Y187
;TYPE:WALL-OUTER
G1 F900 X145.862 Y187.25 E27.25939
G1 X145.612 Y187.25 E27.26478
G1 X144.138 Y187.25 E27.31388
G1 X144.138 Y167.75 E27.96343
G1 X145.861 Y167.75 E28.02082
G1 X145.862 Y187 E28.66205
G0 F3937.5 X145.862 Y187.25
G0 X145.292 Y186.68
G0 X145.137 Y186.149
G0 X144.999 Y186.012
M104 S195
;TYPE:SKIN
G1 F900 X144.999 Y185.304 E28.67561
G1 X144.999 Y169.041 E28.98715
G0 F3937.5 X144.861 Y168.903
G1 F600 E27.98715
;MESH:NONMESH
G0 F3937.5 X145.292 Y168.27
G0 X145.292 Y166.835
G0 X146.773 Y163.628
G0 X146.772 Y127.372
G0 X145.292 Y124.165
G0 X145.292 Y122.73
G0 X145.292 Y122.68
G0 X145.599 Y122.75
;TIME_ELAPSED:78.927650
;LAYER:1
M140 S60
M221 S100 T0
M106 S68
;MESH:
G0 F7218.8 X145.599 Y122.75 Z0.675
;TYPE:WALL-INNER
G1 F600 E28.98715
G1 F1800 X144.402 Y122.75 E29.01061
G1 X144.401 Y88.5 E29.68171
G1 X144.401 Y88.25 E29.68661
G1 X144.651 Y88.25 E29.68978
G1 X145.599 Y88.25 E29.70836
G1 X145.599 Y122.75 E30.38436
G0 F7218.8 X146.099 Y123.25
;TYPE:WALL-OUTER
G1 F1650 X143.902 Y123.25 E30.42741
G1 X143.901 Y88 E31.11811
G1 X143.901 Y87.75 E31.12301
G1 X144.151 Y87.75 E31.12618
G1 X146.099 Y87.75 E31.16435
G1 X146.099 Y123.25 E31.85995
G0 F7218.8 X145.849 Y123.25
G0 X145.529 Y122.68
G0 X145.109 Y122.26
;TYPE:SKIN
G1 F1350 X144.892 Y122.26 E31.8642
G1 X144.891 Y88.74 E32.521
G1 X145.109 Y88.74 E32.52527
G1 X145.109 Y122.26 E33.18207
G0 F7218.8 X145.099 Y122.25
G1 F600 E32.18207
G0 F7218.8 X145.529 Y122.73
G0 X145.529 Y124.165
G0 X145.529 Y126.835
G0 X145.529 Y128.27
G0 X145.529 Y162.68
G0 X145.599 Y162.75
;TYPE:WALL-INNER
G1 F600 E33.18207
G1 F1800 X144.402 Y162.75 E33.20553
G1 X144.401 Y128.5 E33.87664
G1 X144.401 Y128.25 E33.88153
G1 X144.651 Y128.25 E33.8847
G1 X145.599 Y128.25 E33.90328
G1 X145.599 Y162.75 E34.57928
G0 F7218.8 X146.099 Y163.25
;TYPE:WALL-OUTER
G1 F1650 X143.902 Y163.25 E34.62233
G1 X143.901 Y128 E35.31303
G1 X143.901 Y127.75 E35.31793
G1 X144.151 Y127.75 E35.3211
G1 X146.099 Y127.75 E35.35927
G1 X146.099 Y163.25 E36.05487
G0 F7218.8 X145.849 Y163.25
G0 X145.529 Y162.68
G0 X145.109 Y162.26
;TYPE:SKIN
G1 F1350 X144.892 Y162.26 E36.05912
G1 X144.891 Y128.74 E36.71592
G1 X145.109 Y128.74 E36.72019
G1 X145.109 Y162.26 E37.377
G0 F7218.8 X145.099 Y162.25
G1 F600 E36.377
G0 F7218.8 X145.529 Y162.73
G0 X145.529 Y164.165
G0 X145.529 Y166.835
G0 X145.529 Y168.27
G0 X145.529 Y186.68
G0 X145.599 Y186.75
;TYPE:WALL-INNER
G1 F600 E37.377
G1 F1800 X144.402 Y186.75 E37.40045
G1 X144.401 Y168.5 E37.75805
G1 X144.401 Y168.25 E37.76295
G1 X144.651 Y168.25 E37.76611
G1 X145.599 Y168.25 E37.78469
G1 X145.599 Y186.75 E38.14718
G0 F7218.8 X146.099 Y187.25
;TYPE:WALL-OUTER
G1 F1650 X143.902 Y187.25 E38.19023
G1 X143.901 Y168 E38.56742
G1 X143.901 Y167.75 E38.57232
G1 X144.151 Y167.75 E38.57549
G1 X146.099 Y167.75 E38.61366
G1 X146.099 Y187.25 E38.99575
G0 F7218.8 X145.849 Y187.25
G0 X145.529 Y186.68
G0 X145.109 Y186.26
;TYPE:SKIN
G1 F1350 X144.892 Y186.26 E39
G1 X144.891 Y168.74 E39.3433
G1 X145.109 Y168.74 E39.34757
G1 X145.109 Y186.26 E39.69086
G0 F7218.8 X145.099 Y186.25
G1 F600 E38.69086
;MESH:NONMESH
G0 F7218.8 X145.529 Y168.27
G0 X145.529 Y166.835
G0 X147.01 Y163.628
G0 X147.01 Y127.372
G0 X145.529 Y124.165
G0 X145.529 Y122.73
G0 X145.529 Y122.68
G0 X145.701 Y122.75
;TIME_ELAPSED:102.979566
;LAYER:2
M106 S136
;MESH:
G0 F10500 X145.701 Y122.75 Z0.925
;TYPE:WALL-INNER
G1 F600 E39.69086
G1 F2700 X144.3 Y122.75 E39.71831
G1 X144.299 Y88.5 E40.38942
G1 X144.299 Y88.25 E40.39432
G1 X144.549 Y88.25 E40.39749
G1 X145.701 Y88.25 E40.42006
G1 X145.701 Y122.75 E41.09606
G0 F10500 X146.201 Y123.25
;TYPE:WALL-OUTER
G1 F2400 X143.8 Y123.25 E41.14311
G1 X143.799 Y88 E41.83381
G1 X143.799 Y87.75 E41.83871
G1 X144.049 Y87.75 E41.84188
G1 X146.201 Y87.75 E41.88404
G1 X146.201 Y123.25 E42.57964
G0 F10500 X145.951 Y123.25
G0 X145.631 Y122.68
G0 X145.211 Y122.26
;TYPE:SKIN
G1 F1800 X144.79 Y122.26 E42.58789
G1 X144.789 Y88.74 E43.24469
G1 X145.211 Y88.74 E43.25296
G1 X145.211 Y122.26 E43.90976
G0 F10500 X145.201 Y122.25
G1 F600 E42.90976
G0 F10500 X145.631 Y122.73
G0 X145.631 Y124.165
G0 X145.631 Y126.835
G0 X145.631 Y128.27
G0 X145.631 Y162.68
G0 X145.701 Y162.75
;TYPE:WALL-INNER
G1 F600 E43.90976
G1 F2700 X144.3 Y162.75 E43.93722
G1 X144.299 Y128.5 E44.60832
G1 X144.299 Y128.25 E44.61322
G1 X144.549 Y128.25 E44.61639
G1 X145.701 Y128.25 E44.63896
G1 X145.701 Y162.75 E45.31497
G0 F10500 X146.201 Y163.25
;TYPE:WALL-OUTER
G1 F2400 X143.8 Y163.25 E45.36201
G1 X143.799 Y128 E46.05271
G1 X143.799 Y127.75 E46.05761
G1 X144.049 Y127.75 E46.06078
G1 X146.201 Y127.75 E46.10295
G1 X146.201 Y163.25 E46.79855
G0 F10500 X145.951 Y163.25
G0 X145.631 Y162.68
G0 X145.211 Y162.26
;TYPE:SKIN
G1 F1800 X144.79 Y162.26 E46.8068
G1 X144.789 Y128.74 E47.4636
G1 X145.211 Y128.74 E47.47187
G1 X145.211 Y162.26 E48.12867
G0 F10500 X145.201 Y162.25
G1 F600 E47.12867
G0 F10500 X145.631 Y162.73
G0 X145.631 Y164.165
G0 X145.631 Y166.835
G0 X145.631 Y168.27
G0 X145.631 Y186.68
G0 X145.701 Y186.75
;TYPE:WALL-INNER
G1 F600 E48.12867
G1 F2700 X144.3 Y186.75 E48.15612
G1 X144.299 Y168.5 E48.51372
G1 X144.299 Y168.25 E48.51862
G1 X144.549 Y168.25 E48.52178
G1 X145.701 Y168.25 E48.54436
G1 X145.701 Y186.75 E48.90685
G0 F10500 X146.201 Y187.25
;TYPE:WALL-OUTER
G1 F2400 X143.8 Y187.25 E48.9539
G1 X143.799 Y168 E49.33109
G1 X143.799 Y167.75 E49.33599
G1 X144.049 Y167.75 E49.33916
G1 X146.201 Y167.75 E49.38132
G1 X146.201 Y187.25 E49.76341
G0 F10500 X145.951 Y187.25
G0 X145.631 Y186.68
G0 X145.211 Y186.26
;TYPE:SKIN
G1 F1800 X144.79 Y186.26 E49.77166
G1 X144.789 Y168.74 E50.11496
G1 X145.211 Y168.74 E50.12322
G1 X145.211 Y186.26 E50.46652
G0 F10500 X145.201 Y186.25
G1 F600 E49.46652
;MESH:NONMESH
G0 F10500 X145.631 Y168.27
G0 X145.631 Y166.835
G0 X147.112 Y163.628
G0 X147.112 Y127.372
G0 X145.631 Y124.165
G0 X145.631 Y122.73
G0 X145.631 Y122.68
G0 X145.754 Y122.75
;TIME_ELAPSED:121.562993
;LAYER:3
M106 S204
;MESH:
G0 X145.754 Y122.75 Z1.175
;TYPE:WALL-INNER
G1 F600 E50.46652
G1 F2700 X144.247 Y122.75 E50.49605
G1 X144.246 Y88.5 E51.16715
G1 X144.246 Y88.25 E51.17205
G1 X144.496 Y88.25 E51.17522
G1 X145.754 Y88.25 E51.19987
G1 X145.754 Y122.75 E51.87587
G0 F10500 X146.254 Y123.25
;TYPE:WALL-OUTER
G1 F2400 X143.747 Y123.25 E51.925
G1 X143.746 Y88 E52.6157
G1 X143.746 Y87.75 E52.6206
G1 X143.996 Y87.75 E52.62376
G1 X146.254 Y87.75 E52.66801
G1 X146.254 Y123.25 E53.36361
G0 F10500 X146.004 Y123.25
G0 X145.684 Y122.68
G0 X145.264 Y122.26
;TYPE:SKIN
G1 F1800 X144.737 Y122.26 E53.37393
G1 X144.736 Y88.74 E54.03074
G1 X145.264 Y88.74 E54.04108
G1 X145.264 Y122.26 E54.69788
G0 F10500 X144.999 Y121.579
G1 F1800 X144.999 Y120.872 E54.70005
G1 X144.999 Y89.052 E54.79746
G0 F10500 X145.038 Y89.014
G1 F600 E53.79746
G0 F10500 X145.684 Y122.73
G0 X145.684 Y124.165
G0 X145.684 Y126.835
G0 X145.684 Y128.27
G0 X145.684 Y162.68
G0 X145.754 Y162.75
;TYPE:WALL-INNER
G1 F600 E54.79746
G1 F2700 X144.247 Y162.75 E54.82699
G1 X144.246 Y128.5 E55.49809
G1 X144.246 Y128.25 E55.50299
G1 X144.496 Y128.25 E55.50616
G1 X145.754 Y128.25 E55.53081
G1 X145.754 Y162.75 E56.20682
G0 F10500 X146.254 Y163.25
;TYPE:WALL-OUTER
G1 F2400 X143.747 Y163.25 E56.25594
G1 X143.746 Y128 E56.94664
G1 X143.746 Y127.75 E56.95154
G1 X143.996 Y127.75 E56.95471
G1 X146.254 Y127.75 E56.99895
G1 X146.254 Y163.25 E57.69455
G0 F10500 X146.004 Y163.25
G0 X145.684 Y162.68
G0 X145.264 Y162.26
;TYPE:SKIN
G1 F1800 X144.737 Y162.26 E57.70488
G1 X144.736 Y128.74 E58.36168
G1 X145.264 Y128.74 E58.37202
G1 X145.264 Y162.26 E59.02883
G0 F10500 X144.999 Y161.883
G1 F1800 X144.999 Y161.176 E59.03101
G1 X144.999 Y129.357 E59.12934
G0 F10500 X145.038 Y129.318
G1 F600 E58.12934
G0 F10500 X145.684 Y162.73
G0 X145.684 Y164.165
G0 X145.684 Y166.835
G0 X145.684 Y168.27
G0 X145.684 Y186.68
G0 X145.754 Y186.75
;TYPE:WALL-INNER
G1 F600 E59.12934
G1 F2700 X144.247 Y186.75 E59.15887
G1 X144.246 Y168.5 E59.51647
G1 X144.246 Y168.25 E59.52137
G1 X144.496 Y168.25 E59.52454
G1 X145.754 Y168.25 E59.54918
G1 X145.754 Y186.75 E59.91168
G0 F10500 X146.254 Y187.25
;TYPE:WALL-OUTER
G1 F2400 X143.747 Y187.25 E59.9608
G1 X143.746 Y168 E60.33799
G1 X143.746 Y167.75 E60.34289
G1 X143.996 Y167.75 E60.34606
G1 X146.254 Y167.75 E60.39031
G1 X146.254 Y187.25 E60.7724
G0 F10500 X146.004 Y187.25
G0 X145.684 Y186.68
G0 X145.264 Y186.26
;TYPE:SKIN
G1 F1800 X144.737 Y186.26 E60.78272
G1 X144.736 Y168.74 E61.12601
G1 X145.264 Y168.74 E61.13636
G1 X145.264 Y186.26 E61.47965
G0 F10500 X145 Y185.925
G1 F1800 X145 Y185.217 E61.48186
G1 X144.999 Y169.661 E61.5304
G0 F10500 X145.038 Y169.623
G1 F600 E60.5304
;MESH:NONMESH
G0 F10500 X145.684 Y168.27
G0 X145.684 Y166.835
G0 X147.165 Y163.628
G0 X147.165 Y127.372
G0 X145.684 Y124.165
G0 X145.684 Y122.73
G0 X145.684 Y122.68
G0 X145.764 Y122.75
;TIME_ELAPSED:143.343084
;LAYER:4
;MESH:
G0 X145.764 Y122.75 Z1.425
;TYPE:WALL-INNER
G1 F600 E61.5304
G1 F2700 X144.236 Y122.75 E61.56034
G1 X144.236 Y88.25 E62.23635
G1 X145.764 Y88.25 E62.26629
G1 X145.764 Y122.75 E62.94229
G0 F10500 X146.264 Y123.25
;TYPE:WALL-OUTER
G1 F2400 X143.736 Y123.25 E62.99182
G1 X143.736 Y87.75 E63.68742
G1 X146.264 Y87.75 E63.73696
G1 X146.264 Y123.25 E64.43256
G0 F10500 X146.014 Y123.25
G0 X145.694 Y122.68
G0 X145.075 Y122.55
;TYPE:FILL
G1 F2400 X144.435 Y121.909 E64.4503
G0 F10500 X144.435 Y121.025
G1 F2400 X145.563 Y122.154 E64.48158
G0 F10500 X145.563 Y121.27
G1 F2400 X144.435 Y120.141 E64.51285
G0 F10500 X144.435 Y119.257
G1 F2400 X145.563 Y120.386 E64.54412
G0 F10500 X145.563 Y119.502
G1 F2400 X144.435 Y118.373 E64.57539
G0 F10500 X144.435 Y117.49
G1 F2400 X145.563 Y118.618 E64.60665
G0 F10500 X145.563 Y117.734
G1 F2400 X144.435 Y116.606 E64.63791
G0 F10500 X144.435 Y115.722
G1 F2400 X145.563 Y116.85 E64.66916
G0 F10500 X145.563 Y115.966
G1 F2400 X144.435 Y114.838 E64.70042
G0 F10500 X144.435 Y113.954
G1 F2400 X145.563 Y115.083 E64.73169
G0 F10500 X145.563 Y114.199
G1 F2400 X144.435 Y113.07 E64.76296
G0 F10500 X144.435 Y112.186
G1 F2400 X145.563 Y113.315 E64.79423
G0 F10500 X145.563 Y112.431
G1 F2400 X144.435 Y111.302 E64.82551
G0 F10500 X144.435 Y110.418
G1 F2400 X145.563 Y111.547 E64.85678
G0 F10500 X145.563 Y110.663
G1 F2400 X144.435 Y109.535 E64.88803
G0 F10500 X144.435 Y108.651
G1 F2400 X145.563 Y109.779 E64.91929
G0 F10500 X145.563 Y108.895
G1 F2400 X144.435 Y107.767 E64.95055
