;Generated by Cura LulzBot Edition GCodeWriter Version: 3.6.18
;FLAVOR:Marlin
;TIME:2863
;Filament used: 1.29829m
;Layer height: 0.25
;Generated with Cura_SteamEngine 3.6.18
M82 ;absolute extrusion mode
;This G-Code has been generated specifically for the LulzBot TAZ 5 with standard extruder
M75			 ; start GLCD timer
M140 S60.0    ; start bed heating up
G90                      ; absolute positioning
M107                     ; disable fans
M82                      ; set extruder to absolute mode
G28 X0 Y0                ; home X and Y
G28 Z0                   ; home Z
G1 Z15.0 F175 ; move extruder up
M117 Heating...                     ; progress indicator message on LCD
M109 R200  ; wait for extruder to reach printing temp
M190 R60.0    ; wait for bed to reach printing temp
G92 E0                   ; set extruder position to 0
G1 F200 E0               ; prime the nozzle with filament
G92 E0                   ; re-set extruder position to 0
G1 F175       ; set travel speed
M203 X192 Y208 Z3        ; set limits on travel speed
M117 TAZ 5 Printing...   ; progress indicator message on LCD

M221 S100 T0
G92 E0
G1 F600 E-1
;LAYER_COUNT:88
;LAYER:0
M107
G0 F2625 X90.438 Y130.589 Z0.425
;TYPE:SKIRT
G1 F600 E0
G1 F900 X90.813 Y130.359 E0.01465
G1 X96.205 Y127.54 E0.21733
G1 X100.917 Y124.731 E0.40006
G1 X105.447 Y121.671 E0.58216
G1 X109.797 Y118.36 E0.76426
G1 X113.957 Y114.803 E0.94658
G1 X117.92 Y111.01 E1.12931
G1 X119.788 Y109.063 E1.21918
G1 X123.417 Y104.944 E1.40204
G1 X126.806 Y100.626 E1.58489
G1 X129.933 Y96.144 E1.76693
G1 X132.803 Y91.487 E1.94915
G1 X135.424 Y86.641 E2.13267
G1 X137.192 Y83.008 E2.26725
G1 X137.397 Y82.647 E2.28108
G1 X137.777 Y82.068 E2.30415
G1 X138.064 Y81.693 E2.31988
G1 X138.565 Y81.129 E2.34501
G1 X138.974 Y80.742 E2.36377
G1 X139.81 Y80.078 E2.39933
G1 X140.232 Y79.793 E2.41629
G1 X140.517 Y79.651 E2.4269
G1 X141.806 Y79.081 E2.47385
G1 X142.447 Y78.874 E2.49628
G1 X143.127 Y78.73 E2.51944
G1 X143.802 Y78.659 E2.54205
G1 X145.206 Y78.66 E2.58881
G1 X145.714 Y78.7 E2.60579
G1 X146.106 Y78.788 E2.61917
G1 X147.466 Y79.181 E2.66633
G1 X148.101 Y79.44 E2.68917
G1 X148.725 Y79.775 E2.71276
G1 X149.213 Y80.096 E2.73222
G1 X150.035 Y80.751 E2.76723
G1 X150.416 Y81.109 E2.78464
G1 X150.839 Y81.575 E2.80561
G1 X151.168 Y82.004 E2.82362
G1 X151.755 Y82.919 E2.85983
G1 X151.932 Y83.231 E2.87178
G1 X153.895 Y87.192 E3.01903
G1 X156.569 Y91.983 E3.2018
G1 X159.501 Y96.6 E3.38398
G1 X162.692 Y101.048 E3.56633
G1 X166.133 Y105.313 E3.74887
G1 X169.824 Y109.392 E3.93212
G1 X171.698 Y111.296 E4.02111
G1 X175.72 Y115.046 E4.20428
G1 X179.928 Y118.548 E4.38664
G1 X184.331 Y121.807 E4.56911
G1 X188.899 Y124.806 E4.75114
G1 X193.653 Y127.554 E4.93405
G1 X199.451 Y130.52 E5.15098
G1 X199.975 Y130.855 E5.1717
G1 X200.543 Y131.3 E5.19573
G1 X201.026 Y131.766 E5.21809
G1 X201.928 Y132.838 E5.26476
G1 X202.224 Y133.252 E5.28171
G1 X202.412 Y133.613 E5.29527
G1 X202.981 Y134.897 E5.34205
G1 X203.19 Y135.544 E5.3647
G1 X203.338 Y136.246 E5.3886
G1 X203.406 Y136.811 E5.40755
G1 X203.438 Y137.801 E5.44055
G1 X203.373 Y138.561 E5.46596
G1 X203.088 Y139.946 E5.51306
G1 X202.947 Y140.436 E5.53004
G1 X202.84 Y140.687 E5.53913
G1 X202.372 Y141.671 E5.57543
G1 X202.118 Y142.112 E5.59238
G1 X201.91 Y142.384 E5.60379
G1 X200.967 Y143.49 E5.6522
G1 X200.489 Y143.946 E5.67421
G1 X199.967 Y144.352 E5.69623
G1 X199.435 Y144.689 E5.71721
G1 X194.991 Y146.93 E5.883
G1 X190.182 Y149.603 E6.06627
G1 X185.544 Y152.538 E6.2491
G1 X181.096 Y155.716 E6.4312
G1 X176.837 Y159.141 E6.61325
G1 X172.754 Y162.821 E6.79634
G1 X170.846 Y164.693 E6.88538
G1 X167.078 Y168.72 E7.06909
G1 X163.569 Y172.922 E7.25144
G1 X160.307 Y177.312 E7.43363
G1 X157.295 Y181.883 E7.61597
G1 X154.552 Y186.611 E7.79805
G1 X151.564 Y192.414 E8.01547
G1 X151.236 Y192.925 E8.03569
G1 X150.81 Y193.471 E8.05876
G1 X150.503 Y193.813 E8.07407
G1 X149.984 Y194.313 E8.09808
G1 X149.533 Y194.676 E8.11736
G1 X148.707 Y195.227 E8.15044
G1 X148.262 Y195.475 E8.16741
G1 X147.937 Y195.604 E8.17905
G1 X146.247 Y196.171 E8.23843
G1 X145.752 Y196.295 E8.25543
G1 X145.222 Y196.34 E8.27315
G1 X143.841 Y196.344 E8.31915
G1 X143.166 Y196.275 E8.34175
G1 X142.44 Y196.123 E8.36646
G1 X141.785 Y195.911 E8.38939
G1 X140.513 Y195.345 E8.43577
G1 X140.065 Y195.102 E8.45274
G1 X139.747 Y194.867 E8.46592
G1 X138.668 Y193.963 E8.51281
G1 X138.192 Y193.471 E8.53561
G1 X137.749 Y192.903 E8.5596
G1 X137.407 Y192.361 E8.58095
G1 X134.961 Y187.483 E8.76272
G1 X132.289 Y182.692 E8.94545
G1 X129.362 Y178.077 E9.12749
G1 X126.167 Y173.621 E9.31014
G1 X122.739 Y169.368 E9.49209
G1 X119.042 Y165.279 E9.67572
G1 X117.167 Y163.373 E9.76478
G1 X113.145 Y159.62 E9.94802
G1 X108.939 Y156.118 E10.13033
G1 X104.537 Y152.856 E10.31283
G1 X99.978 Y149.862 E10.49452
G1 X95.214 Y147.105 E10.67786
G1 X90.876 Y144.871 E10.8404
G1 X90.582 Y144.7 E10.85173
G1 X90.004 Y144.321 E10.87475
G1 X89.63 Y144.035 E10.89044
G1 X89.074 Y143.542 E10.91519
G1 X88.687 Y143.134 E10.93392
G1 X88.015 Y142.29 E10.96986
G1 X87.73 Y141.868 E10.98682
G1 X87.586 Y141.581 E10.99752
G1 X87.016 Y140.293 E11.04443
G1 X86.847 Y139.813 E11.06138
G1 X86.769 Y139.428 E11.07447
G1 X86.576 Y138.049 E11.12085
G1 X86.553 Y137.366 E11.14362
G1 X86.605 Y136.643 E11.16776
G1 X86.673 Y136.178 E11.18342
G1 X86.827 Y135.478 E11.20729
G1 X87.036 Y134.846 E11.22946
G1 X87.598 Y133.593 E11.27521
G1 X87.942 Y133.001 E11.29802
G1 X88.368 Y132.42 E11.32201
G1 X88.671 Y132.064 E11.33759
G1 X89.188 Y131.538 E11.36215
G1 X89.625 Y131.166 E11.38127
G1 X90.438 Y130.589 E11.41448
G1 F600 E10.41448
;MESH:
G0 F2625 X91.724 Y132.81
G0 X92.441 Y134.051
G0 X92.425 Y138.291
G0 X92.573 Y138.873
G0 X92.927 Y139.696
G0 X93.006 Y139.636
;TYPE:WALL-INNER
G1 F600 E11.41448
G1 F900 X93.52 Y140.159 E11.43891
G1 X94.149 Y140.531 E11.46325
G1 X94.855 Y140.728 E11.48766
G1 X95.588 Y140.736 E11.51208
G1 X96.297 Y140.553 E11.53647
G1 X96.935 Y140.194 E11.56086
G1 X97.46 Y139.681 E11.58531
G1 X97.832 Y139.05 E11.60971
G1 X98.029 Y138.345 E11.63409
G1 X98.037 Y137.611 E11.65854
G1 X97.854 Y136.902 E11.68293
G1 X97.496 Y136.265 E11.70727
G1 X96.982 Y135.739 E11.73177
G1 X96.351 Y135.367 E11.75617
G1 X95.645 Y135.17 E11.78059
G1 X94.912 Y135.163 E11.805
G1 X94.203 Y135.345 E11.82939
G1 X93.565 Y135.705 E11.85379
G1 X93.042 Y136.217 E11.87817
G1 X92.668 Y136.848 E11.9026
G1 X92.471 Y137.555 E11.92705
G1 X92.464 Y138.287 E11.95143
G1 X92.646 Y138.996 E11.97582
G1 X93.006 Y139.636 E12.00028
G0 F2625 X92.927 Y139.696
G0 X93.496 Y140.19
G0 X94.134 Y140.567
G0 X94.713 Y140.728
G0 X158.571 Y141.821
G0 X158.632 Y141.899
G1 F900 X158.297 Y143.209 E12.04532
G1 X156.379 Y146.604 E12.17521
G1 X153.657 Y149.376 E12.30462
G1 X150.308 Y151.352 E12.43414
G1 X148.801 Y151.772 E12.48625
G1 X148.793 Y188.284 E13.70248
G1 X148.734 Y188.846 E13.72131
G1 X148.589 Y189.425 E13.74119
G1 X148.361 Y189.991 E13.76151
G1 X148.064 Y190.504 E13.78126
G1 X147.699 Y190.972 E13.80103
G1 X147.259 Y191.397 E13.82141
G1 X146.783 Y191.743 E13.84101
G1 X146.253 Y192.024 E13.86099
G1 X145.677 Y192.234 E13.88141
G1 X145.102 Y192.356 E13.90099
G1 X144.501 Y192.399 E13.92106
G1 X143.9 Y192.356 E13.94113
G1 X143.325 Y192.234 E13.96071
G1 X142.749 Y192.024 E13.98114
G1 X142.219 Y191.743 E14.00112
G1 X141.743 Y191.397 E14.02072
G1 X141.306 Y190.975 E14.04096
G1 X140.938 Y190.505 E14.06084
G1 X140.639 Y189.985 E14.08082
G1 X140.413 Y189.425 E14.10094
G1 X140.268 Y188.846 E14.12082
G1 X140.204 Y188.235 E14.14128
G1 X140.198 Y151.792 E15.35521
G1 X138.907 Y151.46 E15.39962
G1 X135.519 Y149.546 E15.52924
G1 X133.198 Y147.268 E15.63756
G1 X133.198 Y144.639 E15.72514
G1 X131.584 Y141.9 E15.83104
G1 X94.711 Y141.896 E17.05929
G1 X94.089 Y141.831 E17.08012
G1 X93.51 Y141.686 E17.1
G1 X92.944 Y141.458 E17.12033
G1 X92.431 Y141.161 E17.14008
G1 X91.963 Y140.796 E17.15985
G1 X91.538 Y140.356 E17.18022
G1 X91.192 Y139.88 E17.19982
G1 X90.911 Y139.35 E17.21981
G1 X90.701 Y138.774 E17.24023
G1 X90.579 Y138.199 E17.25981
G1 X90.536 Y137.598 E17.27988
G1 X90.579 Y136.997 E17.29995
G1 X90.701 Y136.422 E17.31953
G1 X90.911 Y135.846 E17.33995
G1 X91.192 Y135.316 E17.35993
G1 X91.538 Y134.84 E17.37954
G1 X91.96 Y134.403 E17.39977
G1 X92.43 Y134.035 E17.41966
G1 X92.948 Y133.737 E17.43956
G1 X93.51 Y133.509 E17.45977
G1 X94.091 Y133.364 E17.47971
G1 X94.698 Y133.301 E17.50004
G1 X131.692 Y133.3 E18.73232
G1 X133.199 Y130.633 E18.83436
G1 X133.198 Y128.052 E18.92034
G1 X135.299 Y125.912 E19.02023
G1 X138.648 Y123.936 E19.14976
G1 X140.201 Y123.504 E19.20346
G1 X140.208 Y86.888 E20.42315
G1 X140.204 Y86.749 E20.42778
G1 X140.266 Y86.154 E20.44771
G1 X140.411 Y85.575 E20.46759
G1 X140.639 Y85.009 E20.48792
G1 X140.936 Y84.496 E20.50766
G1 X141.301 Y84.028 E20.52743
G1 X141.741 Y83.603 E20.54781
G1 X142.217 Y83.257 E20.56741
G1 X142.749 Y82.975 E20.58747
G1 X143.314 Y82.77 E20.60749
G1 X143.908 Y82.643 E20.62772
G1 X144.499 Y82.601 E20.64746
G1 X145.1 Y82.644 E20.66753
G1 X145.675 Y82.766 E20.68711
G1 X146.251 Y82.976 E20.70753
G1 X146.781 Y83.257 E20.72751
G1 X147.257 Y83.603 E20.74712
G1 X147.694 Y84.025 E20.76735
G1 X148.062 Y84.495 E20.78724
G1 X148.36 Y85.013 E20.80714
G1 X148.588 Y85.575 E20.82734
G1 X148.733 Y86.156 E20.84729
G1 X148.796 Y86.763 E20.86762
G1 X148.8 Y123.505 E22.09151
G1 X150.05 Y123.83 E22.13453
G1 X153.438 Y125.743 E22.26413
G1 X156.21 Y128.465 E22.39354
G1 X158.186 Y131.814 E22.52307
G1 X158.597 Y133.296 E22.5743
G1 X195.3 Y133.303 E23.79689
G1 X195.911 Y133.367 E23.81735
G1 X196.49 Y133.512 E23.83724
G1 X197.05 Y133.738 E23.85735
G1 X197.57 Y134.037 E23.87733
G1 X198.04 Y134.405 E23.89722
G1 X198.462 Y134.842 E23.91745
G1 X198.808 Y135.318 E23.93706
G1 X199.089 Y135.848 E23.95704
G1 X199.299 Y136.424 E23.97746
G1 X199.421 Y136.999 E23.99704
G1 X199.464 Y137.598 E24.01704
G1 X199.421 Y138.201 E24.03718
G1 X199.299 Y138.776 E24.05676
G1 X199.089 Y139.352 E24.07718
G1 X198.808 Y139.882 E24.09717
G1 X198.462 Y140.358 E24.11677
G1 X198.04 Y140.795 E24.137
G1 X197.57 Y141.163 E24.15689
G1 X197.05 Y141.462 E24.17687
G1 X196.49 Y141.688 E24.19698
G1 X195.911 Y141.833 E24.21687
G1 X195.301 Y141.897 E24.2373
G1 X158.632 Y141.899 E25.45875
G0 F2625 X158.571 Y141.821
G0 X193.003 Y134.925
G0 X193.063 Y135.004
G1 F900 X192.54 Y135.519 E25.4832
G1 X192.168 Y136.148 E25.50755
G1 X191.971 Y136.853 E25.53193
G1 X191.963 Y137.586 E25.55635
G1 X192.146 Y138.296 E25.58077
G1 X192.505 Y138.934 E25.60516
G1 X193.018 Y139.457 E25.62956
G1 X193.649 Y139.831 E25.65399
G1 X194.355 Y140.028 E25.67841
G1 X195.088 Y140.035 E25.70283
G1 X195.797 Y139.853 E25.72721
G1 X196.436 Y139.493 E25.75164
G1 X196.958 Y138.98 E25.77602
G1 X197.332 Y138.35 E25.80042
G1 X197.529 Y137.643 E25.82487
G1 X197.536 Y136.911 E25.84926
G1 X197.354 Y136.201 E25.87367
G1 X196.994 Y135.562 E25.8981
G1 X196.48 Y135.039 E25.92253
G1 X195.851 Y134.667 E25.94687
G1 X195.145 Y134.47 E25.97129
G1 X194.412 Y134.462 E25.9957
G1 X193.703 Y134.644 E26.02009
G1 X193.063 Y135.004 E26.04455
G0 F2625 X193.003 Y134.925
G0 X158.573 Y133.327
G0 X148.769 Y123.529
G0 X146.973 Y86.973
G0 X146.789 Y86.254
G0 X146.423 Y85.606
G0 X145.904 Y85.076
G0 X145.264 Y84.697
G0 X144.547 Y84.497
G0 X143.806 Y84.49
G0 X143.224 Y84.638
G0 X142.401 Y84.992
G0 X142.461 Y85.071
G1 F900 X141.938 Y85.585 E26.06897
G1 X141.566 Y86.214 E26.09331
G1 X141.369 Y86.921 E26.11776
G1 X141.362 Y87.653 E26.14215
G1 X141.544 Y88.362 E26.16653
G1 X141.903 Y89 E26.19091
G1 X142.416 Y89.525 E26.21537
G1 X143.047 Y89.897 E26.23977
G1 X143.752 Y90.094 E26.26415
G1 X144.486 Y90.102 E26.2886
G1 X145.195 Y89.919 E26.31299
G1 X145.832 Y89.561 E26.33733
G1 X146.358 Y89.047 E26.36183
G1 X146.73 Y88.416 E26.38623
G1 X146.927 Y87.71 E26.41064
G1 X146.934 Y86.977 E26.43506
G1 X146.752 Y86.268 E26.45944
G1 X146.392 Y85.63 E26.48385
G1 X145.88 Y85.107 E26.50823
G1 X145.249 Y84.733 E26.53266
G1 X144.542 Y84.536 E26.55711
G1 X143.81 Y84.529 E26.58149
G1 X143.101 Y84.711 E26.60587
G1 X142.461 Y85.071 E26.63033
G0 F2625 X142.401 Y84.992
G0 X141.907 Y85.561
G0 X141.53 Y86.199
G0 X141.33 Y86.916
G0 X141.323 Y87.657
G0 X147.678 Y187.343
G0 X147.67 Y188.085
G0 X147.47 Y188.801
G0 X147.165 Y189.317
G0 X146.599 Y190.008
G0 X146.539 Y189.929
G1 F900 X147.062 Y189.415 E26.65476
G1 X147.434 Y188.786 E26.6791
G1 X147.631 Y188.08 E26.70352
G1 X147.639 Y187.347 E26.72794
G1 X147.456 Y186.638 E26.75233
G1 X147.097 Y185.999 E26.77674
G1 X146.583 Y185.475 E26.80119
G1 X145.953 Y185.103 E26.82556
G1 X145.248 Y184.906 E26.84995
G1 X144.514 Y184.898 E26.8744
G1 X143.805 Y185.081 E26.89879
G1 X143.168 Y185.439 E26.92313
G1 X142.642 Y185.953 E26.94763
G1 X142.27 Y186.584 E26.97203
G1 X142.073 Y187.29 E26.99644
G1 X142.066 Y188.023 E27.02086
G1 X142.248 Y188.732 E27.04524
G1 X142.608 Y189.37 E27.06964
G1 X143.12 Y189.893 E27.09402
G1 X143.751 Y190.267 E27.11846
G1 X144.458 Y190.464 E27.1429
G1 X145.19 Y190.471 E27.16729
G1 X145.899 Y190.289 E27.19167
G1 X146.539 Y189.929 E27.21613
G0 F2625 X146.236 Y189.526
;TYPE:WALL-OUTER
G1 F900 X146.665 Y189.104 E27.23618
G1 X146.97 Y188.588 E27.25614
G1 X147.132 Y188.009 E27.27617
G1 X147.138 Y187.408 E27.29619
G1 X146.988 Y186.826 E27.31621
G1 X146.694 Y186.302 E27.33622
G1 X146.272 Y185.872 E27.35629
G1 X145.755 Y185.567 E27.37629
G1 X145.177 Y185.405 E27.39628
G1 X144.575 Y185.399 E27.41634
G1 X143.993 Y185.549 E27.43636
G1 X143.47 Y185.843 E27.45634
G1 X143.039 Y186.264 E27.47641
G1 X142.734 Y186.782 E27.49644
G1 X142.572 Y187.361 E27.51646
G1 X142.567 Y187.962 E27.53648
G1 X142.716 Y188.544 E27.5565
G1 X143.011 Y189.067 E27.5765
G1 X143.431 Y189.496 E27.5965
G1 X143.949 Y189.803 E27.61655
G1 X144.529 Y189.965 E27.63661
G1 X145.129 Y189.97 E27.6566
G1 X145.711 Y189.821 E27.67661
G1 X146.236 Y189.526 E27.69667
G0 F2625 X146.414 Y189.351
G0 X146.834 Y189.779
G0 X147.47 Y188.801
G0 X147.67 Y188.085
G0 X148.77 Y151.748
G0 X158.44 Y142.25
G0 X159.02 Y142.399
G1 F900 X158.764 Y143.397 E27.73099
G1 X156.781 Y146.908 E27.86531
G1 X153.967 Y149.774 E27.9991
G1 X150.506 Y151.816 E28.13296
G1 X149.301 Y152.152 E28.17463
G1 X149.293 Y188.309 E29.37903
G1 X149.227 Y188.934 E29.39997
G1 X149.065 Y189.583 E29.42225
G1 X148.812 Y190.209 E29.44474
G1 X148.481 Y190.781 E29.46675
G1 X148.069 Y191.31 E29.48909
G1 X147.583 Y191.779 E29.51158
G1 X147.046 Y192.17 E29.53371
G1 X146.454 Y192.483 E29.55602
G1 X145.819 Y192.715 E29.57854
G1 X145.17 Y192.853 E29.60064
G1 X144.501 Y192.9 E29.62298
G1 X143.832 Y192.853 E29.64532
G1 X143.183 Y192.715 E29.66742
G1 X142.548 Y192.483 E29.68994
G1 X141.956 Y192.17 E29.71225
G1 X141.419 Y191.779 E29.73437
G1 X140.933 Y191.31 E29.75687
G1 X140.523 Y190.786 E29.77903
G1 X140.187 Y190.203 E29.80145
G1 X139.937 Y189.583 E29.82372
G1 X139.775 Y188.934 E29.846
G1 X139.704 Y188.259 E29.86861
G1 X139.698 Y152.18 E31.07041
G1 X138.719 Y151.928 E31.10408
G1 X135.215 Y149.948 E31.23815
G1 X132.698 Y147.478 E31.35562
G1 X132.698 Y144.775 E31.44566
G1 X131.298 Y142.4 E31.53749
G1 X94.688 Y142.396 E32.75698
G1 X94.001 Y142.324 E32.77999
G1 X93.352 Y142.162 E32.80227
G1 X92.726 Y141.909 E32.82476
G1 X92.154 Y141.578 E32.84678
G1 X91.625 Y141.166 E32.86911
G1 X91.156 Y140.68 E32.89161
G1 X90.765 Y140.143 E32.91374
G1 X90.452 Y139.551 E32.93604
G1 X90.22 Y138.916 E32.95856
G1 X90.082 Y138.267 E32.98067
G1 X90.035 Y137.598 E33.00301
G1 X90.082 Y136.929 E33.02534
G1 X90.22 Y136.28 E33.04745
G1 X90.452 Y135.645 E33.06997
G1 X90.765 Y135.053 E33.09227
G1 X91.156 Y134.516 E33.1144
G1 X91.625 Y134.03 E33.1369
G1 X92.149 Y133.62 E33.15906
G1 X92.732 Y133.284 E33.18147
G1 X93.35 Y133.034 E33.20368
G1 X94.003 Y132.871 E33.2261
G1 X94.675 Y132.801 E33.24861
G1 X131.4 Y132.8 E34.47193
G1 X132.699 Y130.502 E34.55986
G1 X132.698 Y127.848 E34.64826
G1 X134.989 Y125.514 E34.75721
G1 X138.45 Y123.472 E34.89106
G1 X139.701 Y123.124 E34.93432
G1 X139.708 Y86.896 E36.14109
G1 X139.703 Y86.734 E36.14648
G1 X139.773 Y86.066 E36.16886
G1 X139.935 Y85.417 E36.19114
G1 X140.188 Y84.791 E36.21363
G1 X140.519 Y84.219 E36.23564
G1 X140.931 Y83.69 E36.25798
G1 X141.417 Y83.221 E36.28048
G1 X141.954 Y82.83 E36.3026
