;Generated by Cura LulzBot Edition GCodeWriter Version: 3.6.18
;FLAVOR:Marlin
;TIME:213
;Filament used: 0.0368224m
;Layer height: 0.25
;Generated with Cura_SteamEngine 3.6.18
M82 ;absolute extrusion mode
;This G-Code has been generated specifically for the LulzBot TAZ 5 with standard extruder
M75			 ; start GLCD timer
M140 S60.0    ; start bed heating up
G90                      ; absolute positioning
M107                     ; disable fans
M82                      ; set extruder to absolute mode
G28 X0 Y0                ; home X and Y
G28 Z0                   ; home Z
G1 Z15.0 F175 ; move extruder up
M117 Heating...                     ; progress indicator message on LCD
M109 R200  ; wait for extruder to reach printing temp
M190 R60.0    ; wait for bed to reach printing temp
G92 E0                   ; set extruder position to 0
G1 F200 E0               ; prime the nozzle with filament
G92 E0                   ; re-set extruder position to 0
G1 F175       ; set travel speed
M203 X192 Y208 Z3        ; set limits on travel speed
M117 TAZ 5 Printing...   ; progress indicator message on LCD

M221 S100 T0
G92 E0
G1 F600 E-1
;LAYER_COUNT:25
;LAYER:0
M107
G0 F2625 X147.804 Y150.386 Z0.425
;TYPE:SKIRT
G1 F600 E0
G1 F900 X148.327 Y149.954 E0.0226
G1 X148.938 Y149.565 E0.04672
G1 X149.579 Y149.211 E0.07112
G1 X150.191 Y148.918 E0.09372
G1 X150.539 Y148.79 E0.10607
G1 X151.777 Y148.377 E0.14954
G1 X152.432 Y148.2 E0.17214
G1 X153.22 Y148.093 E0.19863
G1 X153.509 Y148.074 E0.20828
G1 X154.187 Y148.07 E0.23086
G1 X154.88 Y148.149 E0.2541
G1 X156.316 Y148.401 E0.30266
G1 X156.976 Y148.557 E0.32525
G1 X157.869 Y148.909 E0.35723
G1 X158.373 Y149.158 E0.37595
G1 X158.962 Y149.493 E0.39852
G1 X159.583 Y149.96 E0.4244
G1 X160.714 Y150.936 E0.47417
G1 X161.2 Y151.408 E0.49673
G1 X161.627 Y151.935 E0.51933
G1 X162.017 Y152.558 E0.54381
G1 X162.295 Y153.073 E0.56331
G1 X162.649 Y153.868 E0.59229
G1 X163.067 Y155.037 E0.63365
G1 X163.258 Y155.688 E0.65625
G1 X163.381 Y156.469 E0.68258
G1 X163.417 Y156.878 E0.69626
G1 X163.436 Y157.555 E0.71882
G1 X163.352 Y158.378 E0.74638
G1 X163.099 Y159.816 E0.79501
G1 X162.942 Y160.476 E0.81761
G1 X162.709 Y161.113 E0.8402
G1 X162.484 Y161.573 E0.85726
G1 X162.147 Y162.191 E0.88071
G1 X161.788 Y162.766 E0.90329
G1 X161.482 Y163.159 E0.91988
G1 X160.661 Y164.126 E0.96214
G1 X160.193 Y164.617 E0.98473
G1 X159.577 Y165.114 E1.0111
G1 X159.243 Y165.348 E1.02468
G1 X158.666 Y165.704 E1.04726
G1 X157.912 Y166.042 E1.07479
G1 X156.504 Y166.555 E1.12471
G1 X155.855 Y166.749 E1.14727
G1 X155.055 Y166.878 E1.17426
G1 X154.636 Y166.916 E1.18828
G1 X153.959 Y166.938 E1.21084
G1 X153.007 Y166.832 E1.24275
G1 X151.391 Y166.514 E1.29761
G1 X150.734 Y166.344 E1.32021
G1 X149.842 Y165.971 E1.35242
G1 X149.562 Y165.825 E1.36294
G1 X148.981 Y165.476 E1.38551
G1 X148.468 Y165.082 E1.40706
G1 X147.29 Y164.067 E1.45886
G1 X146.803 Y163.595 E1.48145
G1 X146.375 Y163.069 E1.50404
G1 X145.947 Y162.374 E1.53123
G1 X145.67 Y161.844 E1.55115
G1 X145.322 Y161.031 E1.5806
G1 X144.886 Y159.748 E1.62574
G1 X144.706 Y159.094 E1.64834
G1 X144.604 Y158.424 E1.67091
G1 X144.586 Y157.632 E1.6973
G1 X144.613 Y157.049 E1.71674
G1 X144.701 Y156.28 E1.74252
G1 X144.909 Y155.143 E1.78103
G1 X145.07 Y154.485 E1.80359
G1 X145.307 Y153.85 E1.82617
G1 X145.539 Y153.384 E1.84351
G1 X145.897 Y152.74 E1.86805
G1 X146.261 Y152.168 E1.89064
G1 X146.54 Y151.812 E1.9057
G1 X147.335 Y150.876 E1.94661
G1 X147.804 Y150.386 E1.9692
G0 F2625 X148.166 Y150.732
G1 F900 X148.669 Y150.324 E1.99078
G1 X149.18 Y150.002 E2.0109
G1 X149.821 Y149.648 E2.03529
G1 X150.698 Y149.264 E2.06718
G1 X151.936 Y148.851 E2.11065
G1 X152.562 Y148.684 E2.13223
G1 X153.253 Y148.592 E2.15545
G1 X153.542 Y148.573 E2.1651
G1 X154.189 Y148.571 E2.18665
G1 X154.793 Y148.641 E2.20691
G1 X156.229 Y148.893 E2.25547
G1 X156.859 Y149.044 E2.27705
G1 X157.647 Y149.357 E2.3053
G1 X158.151 Y149.606 E2.32402
G1 X158.713 Y149.928 E2.3456
G1 X159.256 Y150.338 E2.36826
G1 X160.387 Y151.314 E2.41802
G1 X160.85 Y151.767 E2.4396
G1 X161.254 Y152.273 E2.46117
G1 X161.577 Y152.795 E2.48162
G1 X161.855 Y153.31 E2.50111
G1 X162.178 Y154.036 E2.52758
G1 X162.596 Y155.205 E2.56893
G1 X162.777 Y155.828 E2.59054
G1 X162.883 Y156.513 E2.61363
G1 X162.919 Y156.922 E2.62731
G1 X162.936 Y157.569 E2.64887
G1 X162.86 Y158.292 E2.67309
G1 X162.607 Y159.73 E2.72172
G1 X162.455 Y160.36 E2.74331
G1 X162.227 Y160.966 E2.76488
G1 X162.045 Y161.333 E2.77852
G1 X161.708 Y161.951 E2.80197
G1 X161.364 Y162.5 E2.82355
G1 X161.101 Y162.836 E2.83776
G1 X160.28 Y163.803 E2.88002
G1 X159.831 Y164.27 E2.9016
G1 X159.29 Y164.705 E2.92472
G1 X158.956 Y164.939 E2.93831
G1 X158.404 Y165.277 E2.95987
G1 X157.741 Y165.572 E2.98404
G1 X156.333 Y166.085 E3.03396
G1 X155.712 Y166.269 E3.05553
G1 X155.01 Y166.381 E3.07921
G1 X154.591 Y166.419 E3.09322
G1 X153.944 Y166.437 E3.11478
G1 X153.103 Y166.341 E3.14298
G1 X151.487 Y166.023 E3.19784
G1 X150.861 Y165.859 E3.2194
G1 X150.074 Y165.527 E3.24785
G1 X149.794 Y165.381 E3.25837
G1 X149.239 Y165.047 E3.27995
G1 X148.794 Y164.703 E3.29868
G1 X147.616 Y163.688 E3.35048
G1 X147.152 Y163.236 E3.37206
G1 X146.748 Y162.73 E3.39362
G1 X146.39 Y162.143 E3.41653
G1 X146.113 Y161.613 E3.43645
G1 X145.795 Y160.87 E3.46337
G1 X145.359 Y159.587 E3.50851
G1 X145.189 Y158.962 E3.53008
G1 X145.097 Y158.321 E3.55165
G1 X145.086 Y157.655 E3.57384
G1 X145.113 Y157.072 E3.59328
G1 X145.193 Y156.37 E3.61682
G1 X145.401 Y155.233 E3.65532
G1 X145.556 Y154.604 E3.6769
G1 X145.788 Y154 E3.69845
G1 X145.976 Y153.627 E3.71236
G1 X146.334 Y152.983 E3.73691
G1 X146.683 Y152.437 E3.75849
G1 X146.922 Y152.135 E3.77132
G1 X147.717 Y151.199 E3.81223
G1 X148.166 Y150.732 E3.83381
G0 F2625 X148.526 Y151.08
G1 F900 X149.008 Y150.697 E3.85432
G1 X149.422 Y150.44 E3.87055
G1 X150.063 Y150.086 E3.89494
G1 X150.856 Y149.738 E3.92379
G1 X152.094 Y149.325 E3.96726
G1 X152.69 Y149.168 E3.98779
G1 X153.285 Y149.091 E4.00777
G1 X153.574 Y149.072 E4.01742
G1 X154.191 Y149.072 E4.03797
G1 X154.707 Y149.133 E4.05528
G1 X156.143 Y149.385 E4.10385
G1 X156.742 Y149.531 E4.12438
G1 X157.426 Y149.805 E4.14893
G1 X157.93 Y150.054 E4.16765
G1 X158.463 Y150.363 E4.18817
G1 X158.929 Y150.717 E4.20767
G1 X160.06 Y151.693 E4.25743
G1 X160.5 Y152.125 E4.27797
G1 X160.879 Y152.61 E4.29847
G1 X161.137 Y153.033 E4.31498
G1 X161.415 Y153.548 E4.33447
G1 X161.708 Y154.205 E4.35843
G1 X162.126 Y155.374 E4.39979
G1 X162.295 Y155.966 E4.4203
G1 X162.385 Y156.557 E4.44021
G1 X162.421 Y156.966 E4.45389
G1 X162.435 Y157.581 E4.47438
G1 X162.367 Y158.205 E4.49529
G1 X162.114 Y159.643 E4.54392
G1 X161.968 Y160.242 E4.56446
G1 X161.746 Y160.816 E4.58496
G1 X161.606 Y161.094 E4.59533
G1 X161.269 Y161.712 E4.61878
G1 X160.94 Y162.233 E4.6393
G1 X160.72 Y162.512 E4.65114
G1 X159.899 Y163.479 E4.69339
G1 X159.471 Y163.922 E4.71391
G1 X159.004 Y164.295 E4.73382
G1 X158.67 Y164.529 E4.7474
G1 X158.143 Y164.849 E4.76794
G1 X157.57 Y165.102 E4.78881
G1 X156.162 Y165.615 E4.83872
G1 X155.571 Y165.788 E4.85923
G1 X154.965 Y165.883 E4.87967
G1 X154.546 Y165.921 E4.89368
G1 X153.93 Y165.936 E4.91421
G1 X153.2 Y165.851 E4.93869
G1 X151.584 Y165.533 E4.99355
G1 X150.988 Y165.375 E5.01409
G1 X150.305 Y165.084 E5.03882
G1 X150.025 Y164.938 E5.04934
G1 X149.498 Y164.618 E5.06987
G1 X149.12 Y164.324 E5.08583
G1 X147.942 Y163.309 E5.13762
G1 X147.503 Y162.878 E5.15811
G1 X147.123 Y162.393 E5.17864
G1 X146.833 Y161.911 E5.19738
G1 X146.556 Y161.381 E5.2173
G1 X146.269 Y160.709 E5.24164
G1 X145.833 Y159.426 E5.28677
G1 X145.673 Y158.831 E5.3073
G1 X145.591 Y158.221 E5.3278
G1 X145.585 Y157.678 E5.34589
G1 X145.612 Y157.095 E5.36533
G1 X145.685 Y156.46 E5.38662
G1 X145.893 Y155.323 E5.42512
G1 X146.042 Y154.726 E5.44562
G1 X146.269 Y154.152 E5.46618
G1 X146.413 Y153.87 E5.47673
G1 X146.771 Y153.226 E5.50127
G1 X147.105 Y152.708 E5.5218
G1 X147.303 Y152.459 E5.5324
G1 X148.098 Y151.523 E5.57331
G1 X148.526 Y151.08 E5.59383
G0 F2625 X148.886 Y151.429
G1 F900 X149.346 Y151.072 E5.61322
G1 X149.663 Y150.878 E5.6256
G1 X150.304 Y150.524 E5.64999
G1 X151.014 Y150.212 E5.67583
G1 X152.252 Y149.799 E5.7193
G1 X152.816 Y149.653 E5.7387
G1 X153.318 Y149.59 E5.75556
G1 X153.607 Y149.571 E5.7652
G1 X154.19 Y149.573 E5.78462
G1 X154.621 Y149.626 E5.79909
G1 X156.057 Y149.878 E5.84765
G1 X156.622 Y150.018 E5.86704
G1 X157.204 Y150.254 E5.88796
G1 X157.708 Y150.503 E5.90669
G1 X158.212 Y150.796 E5.92611
G1 X158.603 Y151.095 E5.9425
G1 X159.734 Y152.071 E5.99227
G1 X160.148 Y152.481 E6.01168
G1 X160.502 Y152.944 E6.03109
G1 X160.697 Y153.27 E6.04374
G1 X160.975 Y153.785 E6.06324
G1 X161.237 Y154.373 E6.08468
G1 X161.655 Y155.542 E6.12604
G1 X161.813 Y156.103 E6.14545
G1 X161.887 Y156.6 E6.16219
G1 X161.923 Y157.009 E6.17586
G1 X161.934 Y157.592 E6.19529
G1 X161.875 Y158.118 E6.21292
G1 X161.622 Y159.556 E6.26155
G1 X161.482 Y160.122 E6.28098
G1 X161.167 Y160.855 E6.30755
G1 X160.83 Y161.473 E6.331
G1 X160.339 Y162.189 E6.35992
G1 X159.518 Y163.156 E6.40217
G1 X159.111 Y163.573 E6.42158
G1 X158.717 Y163.886 E6.43834
G1 X158.383 Y164.12 E6.45193
G1 X157.884 Y164.421 E6.47134
G1 X157.399 Y164.632 E6.48896
G1 X155.991 Y165.145 E6.53888
G1 X155.431 Y165.307 E6.55829
G1 X154.92 Y165.385 E6.57551
G1 X154.501 Y165.423 E6.58953
G1 X153.918 Y165.435 E6.60895
G1 X153.296 Y165.36 E6.62982
G1 X151.68 Y165.042 E6.68468
G1 X151.118 Y164.891 E6.70407
G1 X150.536 Y164.64 E6.72518
G1 X150.256 Y164.494 E6.7357
G1 X149.759 Y164.19 E6.75511
G1 X149.447 Y163.946 E6.7683
G1 X148.269 Y162.931 E6.8201
G1 X147.854 Y162.521 E6.83953
G1 X147.5 Y162.058 E6.85894
G1 X147.276 Y161.68 E6.87358
G1 X146.999 Y161.15 E6.8935
G1 X146.742 Y160.548 E6.9153
G1 X146.306 Y159.265 E6.96044
G1 X146.157 Y158.702 E6.97984
G1 X146.086 Y158.124 E6.99924
G1 X146.085 Y157.701 E7.01333
G1 X146.112 Y157.118 E7.03277
G1 X146.176 Y156.55 E7.05181
G1 X146.384 Y155.413 E7.09031
G1 X146.528 Y154.849 E7.1097
G1 X146.85 Y154.113 E7.13646
G1 X147.208 Y153.469 E7.161
G1 X147.684 Y152.783 E7.18882
G1 X148.479 Y151.847 E7.22972
G1 X148.886 Y151.429 E7.24916
G0 F2625 X149.244 Y151.78
G1 F900 X149.905 Y151.315 E7.27608
G1 X150.546 Y150.961 E7.30047
G1 X151.172 Y150.687 E7.32323
G1 X152.41 Y150.274 E7.3667
G1 X152.941 Y150.139 E7.38496
G1 X153.351 Y150.089 E7.39871
G1 X153.64 Y150.07 E7.40836
G1 X154.187 Y150.074 E7.42658
G1 X154.534 Y150.118 E7.43823
G1 X155.97 Y150.37 E7.4868
G1 X156.501 Y150.504 E7.50504
G1 X156.983 Y150.702 E7.5224
G1 X157.487 Y150.951 E7.54112
G1 X157.959 Y151.229 E7.55937
G1 X158.276 Y151.474 E7.57272
G1 X159.407 Y152.45 E7.62248
G1 X159.794 Y152.837 E7.64071
G1 X160.257 Y153.508 E7.66787
G1 X160.535 Y154.023 E7.68736
G1 X160.766 Y154.541 E7.70625
G1 X161.184 Y155.71 E7.74761
G1 X161.33 Y156.238 E7.76585
G1 X161.389 Y156.644 E7.77952
G1 X161.425 Y157.053 E7.7932
G1 X161.433 Y157.6 E7.81142
G1 X161.382 Y158.032 E7.82591
G1 X161.129 Y159.47 E7.87455
G1 X160.995 Y160.001 E7.89279
G1 X160.728 Y160.615 E7.91509
G1 X160.391 Y161.233 E7.93854
G1 X159.958 Y161.865 E7.96406
G1 X159.137 Y162.832 E8.00631
G1 X158.753 Y163.222 E8.02454
G1 X158.43 Y163.476 E8.03823
G1 X158.096 Y163.71 E8.05182
G1 X157.626 Y163.991 E8.07006
G1 X157.228 Y164.162 E8.08449
G1 X155.82 Y164.675 E8.1344
G1 X155.293 Y164.825 E8.15265
G1 X154.875 Y164.887 E8.16673
G1 X154.456 Y164.925 E8.18074
G1 X153.908 Y164.934 E8.199
G1 X153.393 Y164.869 E8.21629
G1 X151.777 Y164.551 E8.27115
G1 X151.249 Y164.407 E8.28938
G1 X150.767 Y164.197 E8.3069
G1 X150.487 Y164.051 E8.31742
G1 X150.022 Y163.763 E8.33564
G1 X149.773 Y163.567 E8.34619
G1 X148.595 Y162.552 E8.39799
G1 X148.208 Y162.165 E8.41622
G1 X147.881 Y161.726 E8.43445
G1 X147.72 Y161.448 E8.44515
G1 X147.443 Y160.918 E8.46507
G1 X147.215 Y160.388 E8.48429
G1 X146.779 Y159.105 E8.52943
G1 X146.642 Y158.575 E8.54767
G1 X146.582 Y158.031 E8.5659
G1 X146.584 Y157.725 E8.57609
G1 X146.611 Y157.142 E8.59553
G1 X146.668 Y156.64 E8.61236
G1 X146.876 Y155.503 E8.65086
G1 X147.014 Y154.973 E8.6691
G1 X147.287 Y154.356 E8.69158
G1 X147.645 Y153.712 E8.71612
G1 X148.065 Y153.106 E8.74068
G1 X148.86 Y152.17 E8.78159
G1 X149.244 Y151.78 E8.79982
G0 F2625 X149.6 Y152.133
G1 F900 X150.147 Y151.753 E8.82201
G1 X150.788 Y151.399 E8.8464
G1 X151.331 Y151.161 E8.86615
G1 X152.569 Y150.748 E8.90962
G1 X153.063 Y150.625 E8.92658
G1 X153.384 Y150.588 E8.93734
G1 X153.673 Y150.569 E8.94699
G1 X154.182 Y150.576 E8.96395
G1 X154.448 Y150.611 E8.97288
G1 X155.884 Y150.863 E9.02145
G1 X156.377 Y150.99 E9.03841
G1 X156.762 Y151.15 E9.05229
G1 X157.266 Y151.399 E9.07102
G1 X157.703 Y151.66 E9.08797
G1 X157.949 Y151.852 E9.09837
G1 X159.08 Y152.828 E9.14813
G1 X159.439 Y153.191 E9.16514
G1 X159.817 Y153.745 E9.18748
G1 X160.095 Y154.26 E9.20697
G1 X160.295 Y154.71 E9.22338
G1 X160.713 Y155.879 E9.26473
G1 X160.847 Y156.37 E9.28168
G1 X160.89 Y156.688 E9.29237
G1 X160.926 Y157.097 E9.30605
G1 X160.931 Y157.607 E9.32304
G1 X160.89 Y157.945 E9.33438
G1 X160.637 Y159.383 E9.38302
G1 X160.509 Y159.876 E9.39998
G1 X160.289 Y160.376 E9.41818
G1 X159.952 Y160.994 E9.44163
G1 X159.577 Y161.541 E9.46372
G1 X158.756 Y162.508 E9.50597
G1 X158.396 Y162.87 E9.52298
G1 X158.143 Y163.067 E9.53366
G1 X157.809 Y163.301 E9.54724
G1 X157.37 Y163.559 E9.56421
G1 X157.057 Y163.693 E9.57555
G1 X155.649 Y164.206 E9.62546
G1 X155.158 Y164.342 E9.64243
G1 X154.83 Y164.389 E9.65347
G1 X154.411 Y164.427 E9.66749
G1 X153.901 Y164.433 E9.68448
G1 X153.489 Y164.379 E9.69832
G1 X151.873 Y164.061 E9.75318
G1 X151.383 Y163.924 E9.77013
G1 X150.998 Y163.754 E9.78415
G1 X150.718 Y163.608 E9.79466
G1 X150.1 Y163.188 E9.81955
G1 X148.922 Y162.173 E9.87135
G1 X148.563 Y161.811 E9.88833
G1 X148.163 Y161.216 E9.91222
G1 X147.886 Y160.686 E9.93214
G1 X147.689 Y160.227 E9.94877
G1 X147.253 Y158.944 E9.99391
G1 X147.127 Y158.45 E10.01089
G1 X147.083 Y157.748 E10.03432
G1 X147.11 Y157.165 E10.05376
G1 X147.16 Y156.73 E10.06835
G1 X147.368 Y155.593 E10.10685
G1 X147.499 Y155.101 E10.12381
G1 X147.724 Y154.599 E10.14214
G1 X148.082 Y153.955 E10.16668
G1 X148.446 Y153.43 E10.18796
G1 X149.241 Y152.494 E10.22887
G1 X149.6 Y152.133 E10.24583
G1 F600 E9.24583
;MESH:
G0 F2625 X150.39 Y155.226
G0 X150.899 Y155.989
G0 X152.149 Y156.681
G0 X152.37 Y156.727
G0 X152.371 Y157.297
G0 X152.469 Y157.315
;TYPE:WALL-INNER
G1 F600 E10.24583
G1 F900 X152.403 Y157.689 E10.25848
G1 X152.335 Y158.071 E10.2714
G1 X152.212 Y157.655 E10.27511
G1 X152.252 Y157.277 E10.28036
G1 X152.275 Y157.137 E10.28247
G1 X152.364 Y156.753 E10.2956
G1 X152.631 Y156.392 E10.31056
G1 X152.562 Y156.788 E10.3129
G1 X152.494 Y157.175 E10.31842
G1 X152.469 Y157.315 E10.32044
G0 F2625 X152.371 Y157.297
G0 X153.044 Y158.919
G0 X153.007 Y158.893
G1 F900 X153.271 Y158.938 E10.32936
G1 X153.777 Y159.027 E10.34648
G1 X154.187 Y159.099 E10.36034
G1 X154.447 Y159.145 E10.36914
G1 X154.542 Y159.147 E10.3723
G1 X154.612 Y159.149 E10.37464
G1 X154.542 Y159.177 E10.37483
G1 X154.464 Y159.199 E10.37488
G1 X154.154 Y159.289 E10.37846
G1 X153.739 Y159.244 E10.3842
G1 X153.239 Y159.126 E10.39133
G1 X152.979 Y158.931 E10.39484
G1 X152.849 Y158.833 E10.39648
G1 X153.007 Y158.893 E10.3969
G0 F2625 X153.044 Y158.919
G0 X154.615 Y158.688
G0 X154.767 Y158.623
G0 X155.727 Y157.281
G0 X155.788 Y157.344
G1 F900 X155.747 Y157.739 E10.41013
G1 X155.636 Y158.247 E10.42745
G1 X155.369 Y158.608 E10.44241
G1 X155.438 Y158.212 E10.44475
G1 X155.528 Y157.701 E10.45205
G1 X155.597 Y157.31 E10.45756
G1 X155.665 Y156.929 E10.46896
G1 X155.788 Y157.344 E10.47266
G0 F2625 X155.727 Y157.281
G0 X154.956 Y156.081
G0 X154.993 Y156.107
G1 F900 X154.731 Y156.062 E10.48152
G1 X154.326 Y155.991 E10.49521
G1 X154.197 Y155.968 E10.49958
G1 X153.81 Y155.9 E10.51267
G1 X153.553 Y155.855 E10.52136
G1 X153.458 Y155.853 E10.52452
G1 X153.388 Y155.851 E10.52686
G1 X153.458 Y155.823 E10.52705
G1 X153.536 Y155.801 E10.5271
G1 X153.843 Y155.712 E10.53063
G1 X154.235 Y155.753 E10.53601
G1 X154.362 Y155.774 E10.53779
G1 X154.763 Y155.875 E10.54362
G1 X155.021 Y156.069 E10.54707
G1 X155.151 Y156.167 E10.54872
G1 X154.993 Y156.107 E10.54914
G0 F2625 X154.868 Y155.386
;TYPE:WALL-OUTER
