;Generated by Cura LulzBot Edition GCodeWriter Version: 3.6.18
;FLAVOR:Marlin
;TIME:767
;Filament used: 0.260568m
;Layer height: 0.25
;Generated with Cura_SteamEngine 3.6.18
M82 ;absolute extrusion mode
;This G-Code has been generated specifically for the LulzBot TAZ 5 with standard extruder
M75			 ; start GLCD timer
M140 S60.0    ; start bed heating up
G90                      ; absolute positioning
M107                     ; disable fans
M82                      ; set extruder to absolute mode
G28 X0 Y0                ; home X and Y
G28 Z0                   ; home Z
G1 Z15.0 F175 ; move extruder up
M117 Heating...                     ; progress indicator message on LCD
M109 R200  ; wait for extruder to reach printing temp
M190 R60.0    ; wait for bed to reach printing temp
G92 E0                   ; set extruder position to 0
G1 F200 E0               ; prime the nozzle with filament
G92 E0                   ; re-set extruder position to 0
G1 F175       ; set travel speed
M203 X192 Y208 Z3        ; set limits on travel speed
M117 TAZ 5 Printing...   ; progress indicator message on LCD

M221 S100 T0
G92 E0
G1 F600 E-1
;LAYER_COUNT:33
;LAYER:0
M107
G0 F2625 X132.27 Y130.293 Z0.425
;TYPE:SKIRT
G1 F600 E0
G1 F900 X132.73 Y129.941 E0.01929
G1 X133.924 Y129.149 E0.06702
G1 X134.06 Y129.062 E0.0724
G1 X136.548 Y127.545 E0.16947
G1 X136.768 Y127.421 E0.17788
G1 X142.881 Y124.174 E0.40845
G1 X147.49 Y121.342 E0.58864
G1 X151.971 Y118.226 E0.77045
G1 X155.34 Y115.657 E0.91157
G1 X155.644 Y115.445 E0.92392
G1 X157.565 Y114.229 E0.99965
G1 X157.672 Y114.163 E1.00384
G1 X158.719 Y113.543 E1.04437
G1 X159.24 Y113.281 E1.0638
G1 X159.792 Y113.093 E1.08322
G1 X160.398 Y112.978 E1.10377
G1 X160.684 Y112.945 E1.11336
G1 X161.266 Y112.918 E1.13276
G1 X161.846 Y112.971 E1.15216
G1 X162.414 Y113.103 E1.17159
G1 X162.848 Y113.262 E1.18698
G1 X168.313 Y115.609 E1.3851
G1 X173.452 Y117.489 E1.56738
G1 X176.892 Y118.596 E1.68776
G1 X177.433 Y118.812 E1.70716
G1 X177.973 Y119.123 E1.72792
G1 X178.952 Y119.786 E1.7673
G1 X179.411 Y120.145 E1.78671
G1 X179.917 Y120.687 E1.81141
G1 X180.39 Y121.292 E1.83699
G1 X180.717 Y121.775 E1.85642
G1 X180.947 Y122.233 E1.87349
G1 X181.276 Y122.999 E1.90126
G1 X181.469 Y123.549 E1.92068
G1 X181.6 Y124.255 E1.9446
G1 X181.714 Y125.401 E1.98296
G1 X181.732 Y125.984 E2.00239
G1 X181.628 Y126.77 E2.0288
G1 X181.441 Y127.587 E2.05672
G1 X181.272 Y128.145 E2.07614
G1 X181.061 Y128.614 E2.09327
G1 X180.691 Y129.319 E2.11979
G1 X180.386 Y129.815 E2.13919
G1 X180.106 Y130.166 E2.15414
G1 X179.599 Y130.737 E2.17958
G1 X179.183 Y131.145 E2.19899
G1 X178.794 Y131.441 E2.21527
G1 X178.127 Y131.89 E2.24205
G1 X177.623 Y132.181 E2.26144
G1 X177.243 Y132.344 E2.27521
G1 X176.027 Y132.799 E2.31846
G1 X175.866 Y132.856 E2.32415
G1 X152.413 Y140.569 E3.14654
G1 X151.757 Y140.729 E3.16903
G1 X151.095 Y140.835 E3.19137
G1 X150.769 Y140.874 E3.2023
G1 X138.359 Y141.887 E3.61706
G1 X137.776 Y141.894 E3.63648
G1 X137.445 Y141.863 E3.64755
G1 X137.052 Y141.81 E3.66076
G1 X136.481 Y141.693 E3.68018
G1 X135.932 Y141.498 E3.69959
G1 X135.568 Y141.32 E3.71308
G1 X134.915 Y140.96 E3.73792
G1 X134.425 Y140.644 E3.75734
G1 X133.983 Y140.264 E3.77676
G1 X133.529 Y139.737 E3.79993
G1 X132.941 Y138.928 E3.83324
G1 X132.763 Y138.662 E3.8439
G1 X131.338 Y136.354 E3.93426
G1 X131.066 Y135.838 E3.95369
G1 X130.868 Y135.29 E3.9731
G1 X130.717 Y134.455 E4.00136
G1 X130.692 Y134.138 E4.01195
G1 X130.686 Y133.555 E4.03138
G1 X130.76 Y132.977 E4.05079
G1 X130.912 Y132.415 E4.07018
G1 X131.079 Y132.005 E4.08493
G1 X131.229 Y131.684 E4.09673
G1 X131.511 Y131.174 E4.11614
G1 X131.86 Y130.708 E4.13553
G1 X132.27 Y130.293 E4.15497
G0 F2625 X132.676 Y130.604
G1 F900 X133.006 Y130.358 E4.16868
G1 X134.2 Y129.566 E4.2164
G1 X134.321 Y129.489 E4.22118
G1 X136.809 Y127.972 E4.31825
G1 X137.002 Y127.862 E4.32565
G1 X143.142 Y124.601 E4.55723
G1 X147.761 Y121.763 E4.73781
G1 X152.256 Y118.637 E4.92019
G1 X155.643 Y116.054 E5.06208
G1 X155.911 Y115.867 E5.07296
G1 X157.832 Y114.651 E5.14869
G1 X157.927 Y114.593 E5.1524
G1 X158.974 Y113.973 E5.19293
G1 X159.464 Y113.73 E5.21115
G1 X159.985 Y113.56 E5.22941
G1 X160.455 Y113.475 E5.24532
G1 X160.741 Y113.442 E5.25491
G1 X161.288 Y113.419 E5.27314
G1 X161.832 Y113.476 E5.29136
G1 X162.363 Y113.611 E5.30961
G1 X162.651 Y113.721 E5.31988
G1 X168.129 Y116.073 E5.51847
G1 X173.3 Y117.966 E5.70189
G1 X176.739 Y119.072 E5.82223
G1 X177.246 Y119.277 E5.84044
G1 X177.693 Y119.537 E5.85767
G1 X178.672 Y120.2 E5.89705
G1 X179.101 Y120.539 E5.91527
G1 X179.523 Y120.995 E5.93596
G1 X179.996 Y121.6 E5.96154
G1 X180.301 Y122.055 E5.97979
G1 X180.488 Y122.43 E5.99375
G1 X180.817 Y123.196 E6.02152
G1 X180.995 Y123.713 E6.03973
G1 X181.103 Y124.305 E6.05978
G1 X181.217 Y125.451 E6.09814
G1 X181.231 Y125.998 E6.11637
G1 X181.14 Y126.659 E6.13859
G1 X180.953 Y127.476 E6.16651
G1 X180.793 Y127.999 E6.18473
G1 X180.618 Y128.382 E6.19875
G1 X180.248 Y129.087 E6.22528
G1 X179.959 Y129.551 E6.24348
G1 X179.732 Y129.834 E6.25557
G1 X179.225 Y130.405 E6.28101
G1 X178.833 Y130.787 E6.29924
G1 X178.515 Y131.026 E6.31249
G1 X177.848 Y131.475 E6.33927
G1 X177.373 Y131.747 E6.3575
G1 X177.068 Y131.876 E6.36854
G1 X175.852 Y132.331 E6.41178
G1 X175.71 Y132.381 E6.4168
G1 X152.257 Y140.094 E7.23919
G1 X151.678 Y140.235 E7.25904
G1 X151.016 Y140.341 E7.28137
G1 X150.728 Y140.376 E7.29104
G1 X138.318 Y141.389 E7.70579
G1 X137.512 Y141.367 E7.73265
G1 X137.119 Y141.314 E7.74586
G1 X136.583 Y141.202 E7.7641
G1 X136.07 Y141.012 E7.78232
G1 X135.81 Y140.882 E7.79201
G1 X135.157 Y140.522 E7.81684
G1 X134.698 Y140.223 E7.83509
G1 X134.287 Y139.861 E7.85333
G1 X133.934 Y139.443 E7.87156
G1 X133.346 Y138.634 E7.90487
G1 X133.188 Y138.399 E7.91431
G1 X131.763 Y136.091 E8.00466
G1 X131.51 Y135.606 E8.02288
G1 X131.331 Y135.088 E8.04114
G1 X131.216 Y134.416 E8.06385
G1 X131.191 Y134.099 E8.07444
G1 X131.188 Y133.551 E8.09269
G1 X131.264 Y133.01 E8.11089
G1 X131.419 Y132.484 E8.12916
G1 X131.532 Y132.216 E8.13885
G1 X131.682 Y131.895 E8.15065
G1 X131.949 Y131.418 E8.16886
G1 X132.283 Y130.984 E8.1871
G1 X132.676 Y130.604 E8.20531
G0 F2625 X132.703 Y131.265
G1 F900 X133.283 Y130.775 E8.2306
G1 X134.477 Y129.983 E8.27833
G1 X134.581 Y129.916 E8.28245
G1 X137.069 Y128.399 E8.37952
G1 X137.237 Y128.304 E8.38594
G1 X143.384 Y125.039 E8.61779
G1 X148.035 Y122.182 E8.79962
G1 X152.552 Y119.04 E8.9829
G1 X155.946 Y116.452 E9.12507
G1 X156.179 Y116.29 E9.13453
G1 X158.1 Y115.074 E9.21026
G1 X158.182 Y115.024 E9.21346
G1 X159.229 Y114.404 E9.25399
G1 X159.686 Y114.179 E9.27096
G1 X160.173 Y114.029 E9.28793
G1 X160.512 Y113.971 E9.29939
G1 X160.798 Y113.938 E9.30898
G1 X161.308 Y113.92 E9.32598
G1 X161.813 Y113.981 E9.34292
G1 X162.453 Y114.181 E9.36526
G1 X167.939 Y116.537 E9.56414
G1 X173.133 Y118.437 E9.74836
G1 X176.585 Y119.548 E9.86916
G1 X177.057 Y119.742 E9.88616
G1 X177.412 Y119.951 E9.89988
G1 X178.391 Y120.614 E9.93926
G1 X178.79 Y120.932 E9.95626
G1 X179.129 Y121.303 E9.973
G1 X179.602 Y121.908 E9.99858
G1 X179.884 Y122.333 E10.01557
G1 X180.028 Y122.627 E10.02648
G1 X180.357 Y123.393 E10.05425
G1 X180.521 Y123.876 E10.07124
G1 X180.605 Y124.354 E10.0874
G1 X180.719 Y125.5 E10.12577
G1 X180.73 Y126.01 E10.14276
G1 X180.653 Y126.547 E10.16083
G1 X180.466 Y127.364 E10.18875
G1 X180.314 Y127.85 E10.20571
G1 X180.176 Y128.149 E10.21668
G1 X179.806 Y128.854 E10.2432
G1 X179.534 Y129.286 E10.2602
G1 X179.358 Y129.502 E10.26949
G1 X178.851 Y130.073 E10.29492
G1 X178.484 Y130.426 E10.31188
G1 X178.236 Y130.611 E10.32219
G1 X177.569 Y131.06 E10.34897
G1 X176.893 Y131.408 E10.3743
G1 X175.677 Y131.863 E10.41755
G1 X175.553 Y131.906 E10.42192
G1 X152.1 Y139.619 E11.24431
G1 X151.599 Y139.741 E11.26149
G1 X150.937 Y139.847 E11.28382
G1 X150.687 Y139.877 E11.29221
G1 X138.277 Y140.89 E11.70696
G1 X137.579 Y140.872 E11.73022
G1 X137.186 Y140.819 E11.74343
G1 X136.688 Y140.711 E11.7604
G1 X136.051 Y140.444 E11.78341
G1 X135.398 Y140.084 E11.80825
G1 X134.972 Y139.804 E11.82523
G1 X134.596 Y139.461 E11.84218
G1 X134.338 Y139.149 E11.85567
G1 X133.75 Y138.34 E11.88898
G1 X133.614 Y138.136 E11.89715
G1 X132.189 Y135.828 E11.9875
G1 X131.956 Y135.375 E12.00447
G1 X131.797 Y134.891 E12.02144
G1 X131.714 Y134.377 E12.03879
G1 X131.689 Y134.06 E12.04938
G1 X131.689 Y133.55 E12.06637
G1 X131.768 Y133.047 E12.08333
G1 X131.985 Y132.428 E12.10518
G1 X132.135 Y132.107 E12.11698
G1 X132.386 Y131.664 E12.13394
G1 X132.703 Y131.265 E12.15091
G1 F600 E11.15091
G0 F2625 X137.011 Y131.486
G0 X137.055 Y131.487
G0 X152.215 Y132.264
G0 X152.451 Y132.196
G0 X152.549 Y132.101
G0 X152.552 Y132.282
G0 X154.365 Y132.375
G0 X154.409 Y132.376
G0 X155.558 Y132.437
;TYPE:SUPPORT
G1 F600 E12.15091
G1 F900 X155.994 Y130.863 E12.20532
G1 X156.118 Y130.752 E12.21086
G1 X156.9 Y131.995 E12.25978
G1 X155.558 Y132.437 E12.30684
G0 F2625 X155.972 Y131.693
G1 F900 X156.474 Y131.693 E12.32357
G1 F600 E11.32357
G0 F2625 X157.246 Y130.439
G0 X157.269 Y130.402
G0 X158.333 Y128.677
G0 X158.356 Y128.64
G0 X160.207 Y125.642
G1 F600 E12.32357
G1 F900 X160.582 Y124.972 E12.34914
G1 X160.689 Y124.758 E12.35711
G1 X160.768 Y125.034 E12.36667
G1 X160.935 Y125.413 E12.38047
G1 X160.805 Y125.435 E12.38486
G1 X160.245 Y125.622 E12.40453
G1 X160.207 Y125.642 E12.40596
G1 F600 E11.40596
G0 F2625 X162.193 Y126.446
G0 X165.025 Y127.768
G1 F600 E12.40596
G1 F900 X165.425 Y127.727 E12.41935
G1 X165.94 Y127.597 E12.43705
G1 X170.762 Y126.009 E12.60615
G1 X170.856 Y126.268 E12.61533
G1 X171.142 Y126.777 E12.63478
G1 X171.477 Y127.196 E12.65265
G1 X165.173 Y129.268 E12.87369
G1 X165.206 Y128.909 E12.8857
G1 X165.164 Y128.324 E12.90524
G1 X165.025 Y127.768 E12.92433
G0 F2625 X165.367 Y128.359
G1 F900 X167.294 Y128.359 E12.98852
G0 F2625 X166.7 Y128.556
G1 F900 X166.7 Y127.557 E13.02179
G1 F600 E12.02179
G0 F2625 X168.367 Y128.008
G1 F600 E13.02179
G1 F900 X168.367 Y127.008 E13.0551
G1 F600 E12.0551
G0 F2625 X169.324 Y126.692
G1 F600 E13.0551
G1 F900 X170.867 Y126.692 E13.1065
G0 F2625 X170.034 Y126.458
G1 F900 X170.034 Y127.46 E13.13988
G1 F600 E12.13988
;MESH:
G0 F2625 X172.014 Y126.112
G0 X172.815 Y125.663
G0 X172.787 Y124.535
G0 X173.021 Y124.008
G0 X173.44 Y123.637
G0 X173.75 Y123.544
G0 X174.975 Y123.311
G0 X175 Y123.215
;TYPE:WALL-INNER
G1 F600 E13.13988
G1 F900 X175.01 Y123.218 E13.14023
G1 X174.994 Y123.24 E13.14061
G1 X174.894 Y123.189 E13.14425
G1 X175 Y123.215 E13.14432
G0 F2625 X174.975 Y123.311
G0 X173.704 Y123.522
G0 X172.836 Y123.895
G0 X172.704 Y125.426
G0 X174.094 Y126.313
G0 X175.36 Y125.627
G0 X175.493 Y124.203
G0 X175.313 Y123.845
G0 X175.396 Y123.467
G0 X175.599 Y123.341
G0 X175.929 Y123.365
G0 X176.537 Y123.979
G0 X176.887 Y124.663
G0 X177.031 Y125.419
G0 X176.956 Y126.187
G0 X176.665 Y126.909
G0 X176.175 Y127.519
G0 X175.543 Y127.957
G0 X152.948 Y135.421
G0 X152.701 Y135.186
G0 X154.202 Y129.754
G0 X153.317 Y130.181
G0 X151.955 Y128.746
G0 X150.407 Y129.784
G0 X148.759 Y130.645
G0 X147.035 Y131.325
G0 X145.254 Y131.814
G0 X143.415 Y132.112
G0 X141.922 Y132.192
G0 X139.79 Y132.176
G0 X139.796 Y132.108
G1 F900 X139.776 Y132.076 E13.14558
G1 X139.797 Y132.077
G1 X140.645 Y132.146 E13.17392
G1 X141.57 Y132.171 E13.20474
G1 X142.495 Y132.146 E13.23557
G1 X143.417 Y132.072 E13.26638
G1 X144.334 Y131.949 E13.2972
G1 X145.244 Y131.776 E13.32805
G1 X146.142 Y131.554 E13.35886
G1 X147.028 Y131.286 E13.3897
G1 X147.899 Y130.97 E13.42056
G1 X148.749 Y130.607 E13.45135
G1 X149.58 Y130.2 E13.48217
G1 X150.389 Y129.749 E13.51302
G1 X151.17 Y129.255 E13.54381
G1 X151.926 Y128.719 E13.57468
G1 X152.651 Y128.144 E13.6055
G1 X153.344 Y127.532 E13.6363
G1 X154.003 Y126.882 E13.66713
G1 X154.627 Y126.199 E13.69795
G1 X155.214 Y125.482 E13.72881
G1 X155.751 Y124.75 E13.75905
G1 X156.259 Y123.974 E13.78995
G1 X156.725 Y123.172 E13.82085
G1 X157.148 Y122.345 E13.85179
G1 X157.523 Y121.496 E13.8827
G1 X157.815 Y120.734 E13.90989
G1 X160.845 Y118.822 E14.02923
G1 X161.146 Y118.632 E14.04109
G1 X161.219 Y118.98 E14.04806
G1 X161.22 Y118.981 E14.04811
G1 X161.559 Y120.557 E14.10181
G1 X161.565 Y120.581 E14.10263
G1 X161.367 Y120.598 E14.10651
G1 X161.169 Y120.686 E14.11373
G1 X159.26 Y121.892 E14.18894
G1 X158.789 Y122.966 E14.22801
G1 X158.373 Y123.8 E14.25905
G1 X157.932 Y124.589 E14.28916
G1 X157.427 Y125.396 E14.32087
G1 X156.904 Y126.147 E14.35136
G1 X156.226 Y127.031 E14.38847
G1 X156.127 Y127.328 E14.39889
G1 X156.132 Y127.395 E14.40113
G1 X155.978 Y127.442 E14.4065
G1 X155.761 Y127.572 E14.41492
G1 X155.584 Y127.758 E14.42347
G1 X155.069 Y127.249 E14.44759
G1 X153.848 Y128.426 E14.50409
G1 X153.21 Y128.981 E14.53225
G1 X152.537 Y129.509 E14.56075
G1 X151.837 Y130.008 E14.58938
G1 X151.432 Y130.277 E14.60558
G1 X150.971 Y130.564 E14.62367
G1 X150.059 Y131.077 E14.65852
G1 X149.291 Y131.457 E14.68707
G1 X148.516 Y131.796 E14.71524
G1 X147.594 Y132.146 E14.74809
G1 X146.744 Y132.423 E14.77787
G1 X145.896 Y132.65 E14.80711
G1 X144.885 Y132.867 E14.84156
G1 X144.04 Y133.001 E14.87006
G1 X143.002 Y133.114 E14.90484
G1 X141.542 Y133.197 E14.95355
G1 X141.562 Y133.652 E14.96872
G1 X141.563 Y133.653 E14.96877
G1 X141.573 Y133.919 E14.97763
G1 X141.307 Y133.914 E14.98328
G1 X141.306 Y133.913 E14.98333
G1 X140.492 Y133.893 E15.01045
G1 X140.173 Y133.945 E15.02122
G1 X137.225 Y135.8 E15.13724
G1 X137.072 Y135.929 E15.14391
G1 X137.006 Y136.018 E15.1476
G1 X136.985 Y135.985
G1 X136.971 Y135.962
G1 X136.037 Y134.481 E15.20592
G1 X139.796 Y132.108 E15.354
G0 F2625 X139.79 Y132.176
G0 X144.251 Y132.949
G0 X144.326 Y133.483
G0 X144.314 Y133.974
G0 X142.147 Y134.215
G0 X142.063 Y133.668
;TYPE:WALL-OUTER
G1 F900 X142.079 Y134.032 E15.36613
G1 X142.084 Y134.161 E15.37043
G1 X142.323 Y134.155 E15.3784
G1 X142.37 Y134.153 E15.37996
G1 X142.414 Y134.151 E15.38143
G1 X143.083 Y134.112 E15.40375
G1 X143.725 Y134.045 E15.42526
G1 X143.84 Y134.033 E15.42911
G1 X143.983 Y134.018 E15.4339
G1 X144.063 Y134.005 E15.4366
G1 X144.147 Y133.991 E15.43943
G1 X144.299 Y133.968 E15.44455
G1 X144.235 Y133.484 E15.46082
G1 X143.998 Y133.509 E15.46875
G1 X143.042 Y133.612 E15.50078
G1 X142.301 Y133.655 E15.52551
G1 X142.063 Y133.668 E15.53339
G0 F2625 X142.073 Y133.918
G0 X142.147 Y134.215
G0 X143.81 Y134.27
G0 X143.752 Y134.312
G1 F900 X143.101 Y134.356 E15.54458
G1 X142.43 Y134.402 E15.55568
G1 X142.375 Y134.402 E15.55669
G1 X142.089 Y134.408 E15.56443
G1 X141.96 Y134.41 E15.56795
G1 X141.492 Y134.421 E15.58354
G1 X140.525 Y134.394 E15.61577
G1 X140.353 Y134.422 E15.62157
G1 X137.52 Y136.205 E15.73308
G1 X137.439 Y136.273 E15.7366
G1 X137.367 Y136.371 E15.74065
G1 X137.321 Y136.483 E15.74468
G1 X137.313 Y136.531 E15.7463
G1 X137.303 Y136.605 E15.74879
G1 X137.315 Y136.728 E15.75291
G1 X137.354 Y136.835 E15.7567
G1 X137.358 Y136.845 E15.75706
G1 X137.417 Y136.931 E15.76053
G1 X137.427 Y136.945 E15.76111
G1 X137.514 Y137.025 E15.76504
G1 X137.605 Y137.076 E15.76852
G1 X137.785 Y137.134 E15.77482
G1 X137.949 Y137.161 E15.78035
G1 X138.115 Y137.16 E15.78588
G1 X138.132 Y137.159 E15.78645
G1 X142.8 Y136.772 E15.94248
G1 X142.817 Y136.728 E15.94405
G1 X143.752 Y134.312 E16.03034
G0 F2625 X143.503 Y134.328
G0 X143.499 Y134.245
G0 X144.314 Y133.974
G0 X144.541 Y133.426
G0 X144.61 Y133.417
G1 F900 X144.686 Y133.909 E16.04316
G1 X144.769 Y133.897 E16.04596
G1 X145.059 Y133.853 E16.05573
G1 X145.556 Y133.749 E16.07264
G1 X145.945 Y133.667 E16.08588
G1 X146.047 Y133.64 E16.0894
G1 X146.235 Y133.592 E16.09586
G1 X146.316 Y133.57 E16.09866
G1 X146.416 Y133.544 E16.1021
G1 X146.913 Y133.413 E16.11922
G1 X147.03 Y133.376 E16.12331
G1 X147.266 Y133.301 E16.13156
G1 X147.366 Y133.269 E16.13505
G1 X147.515 Y133.221 E16.14027
G1 X147.364 Y132.758 E16.15649
G1 X147.36 Y132.748 E16.15685
G1 X146.881 Y132.904 E16.17363
G1 X146.11 Y133.11 E16.20021
G1 X146.111 Y133.115 E16.20037
G1 X145.922 Y133.155 E16.20676
G1 X144.977 Y133.359 E16.23896
G1 X144.692 Y133.405 E16.24858
G1 X144.61 Y133.417 E16.25133
G0 F2625 X144.648 Y133.664
G0 X144.58 Y133.673
G0 X144.795 Y134.127
G0 X143.852 Y134.272
G0 X142.901 Y136.769
G0 X149.063 Y136.258
G0 X147.471 Y133.612
G0 X147.448 Y133.524
